; generated by PrusaSlicer 2.5.0+MacOS-arm64 on 2023-08-03 at 14:19:08 UTC


;
;
; 

; external perimeters extrusion width = 0.45mm
; perimeters extrusion width = 0.45mm
; infill extrusion width = 0.45mm
; solid infill extrusion width = 0.45mm
; top infill extrusion width = 0.40mm
; first layer extrusion width = 0.42mm

M73 P0 R79
M73 Q0 S79
M201 X1000 Y1000 Z200 E5000 ; sets maximum accelerations, mm/sec^2
M203 X200 Y200 Z12 E120 ; sets maximum feedrates, mm / sec
M204 P1250 R1250 T1250 ; sets acceleration (P, T) and retract acceleration (R), mm/sec^2
M205 X8.00 Y8.00 Z0.40 E4.50 ; sets the jerk limits, mm/sec
M205 S0 T0 ; sets the minimum extruding and travel feed rate, mm/sec
M107
;TYPE:Custom
M862.3 P "MK3S" ; printer model check
M862.1 P0.4 ; nozzle diameter check
M115 U3.12.1 ; tell printer latest fw version
G90 ; use absolute coordinates
M83 ; extruder relative mode
M104 S240 ; set extruder temp
M140 S85 ; set bed temp
M190 S85 ; wait for bed temp
M109 S240 ; wait for extruder temp
G28 W ; home all without mesh bed level
G80 ; mesh bed leveling

G1 Z0.2 F720
G1 Y-3 F1000 ; go outside print area
G92 E0
G1 X60 E9 F1000 ; intro line
G1 X100 E12.5 F1000 ; intro line

G92 E0
M221 S95

; Don't change E values below. Excessive value can damage the printer.
M907 E430 ; set extruder motor current
G21 ; set units to millimeters
G90 ; use absolute coordinates
M83 ; use relative distances for extrusion
M900 K0.08 ; Filament gcode LA 1.5
M900 K45 ; Filament gcode LA 1.0
M107
;LAYER_CHANGE
;Z:0.2
;HEIGHT:0.2
;BEFORE_LAYER_CHANGE
G92 E0.0
;0.2


G1 E-1 F2100
G1 Z.2 F720
;AFTER_LAYER_CHANGE
;0.2
G1 Z.4
G1 X83.015 Y75.693 F10800
G1 Z.2 F720
G1 E1 F2100
M204 S800
;TYPE:Skirt/Brim
;WIDTH:0.42
G1 F1200
G1 X84.06 Y74.817 E.04278
G1 X85 Y74.623 E.03008
G1 X165 Y74.623 E2.50834
G1 X166.307 Y75.015 E.04278
G1 X167.183 Y76.06 E.04278
G1 X167.377 Y77 E.03008
G1 X167.377 Y133 E1.75584
G1 X166.985 Y134.307 E.04278
M73 P0 R78
G1 X165.94 Y135.183 E.04278
G1 X165 Y135.377 E.03008
G1 X85 Y135.377 E2.50834
G1 X83.693 Y134.985 E.04278
G1 X82.817 Y133.94 E.04278
G1 X82.623 Y133 E.03008
G1 X82.623 Y77 E1.75584
G1 X82.997 Y75.75 E.0409
M204 S1000
; printing object device_base.stl id:0 copy 0
;WIPE_START
G1 F8640
G1 X84.06 Y74.817 E-.32671
G1 X85 Y74.623 E-.22155
G1 X86.74 Y74.623 E-.40174
;WIPE_END
G1 E-.05 F2100
G1 Z.4 F720
G1 X164.213 Y77.787 F10800
G1 Z.2 F720
G1 E1 F2100
M204 S800
;TYPE:Perimeter
;WIDTH:0.419999
G1 F1200
G1 X164.213 Y132.213 E1.70648
G1 X85.787 Y132.213 E2.45898
G1 X85.787 Y77.787 E1.70648
G1 X164.153 Y77.787 E2.4571
M204 S1000
G1 X164.59 Y77.41 F10800
M204 S800
;TYPE:External perimeter
M73 Q0 S78
G1 F1200
G1 X164.59 Y132.59 E1.73013
G1 X85.41 Y132.59 E2.48263
G1 X85.41 Y77.41 E1.73013
G1 X164.53 Y77.41 E2.48075
M204 S1000
G1 X164.464 Y77.79 F10800
;WIPE_START
M73 P1 R78
M73 Q1 S78
G1 F8640
G1 X164.534 Y81.524 E-.95
;WIPE_END
G1 E-.05 F2100
G1 Z.4 F720
G1 X163.336 Y77.9 F10800
G1 Z.2 F720
G1 E1 F2100
M204 S800
;TYPE:Solid infill
;WIDTH:0.420636
G1 F1200
G1 X163.93 Y78.494 E.02638
G1 X163.93 Y79.028 E.01678
G1 X162.972 Y78.07 E.04257
G1 X162.438 Y78.07 E.01678
G1 X163.93 Y79.562 E.0663
G1 X163.93 Y80.097 E.01678
G1 X161.903 Y78.07 E.09002
G1 X161.369 Y78.07 E.01678
G1 X163.93 Y80.631 E.11375
G1 X163.93 Y81.165 E.01678
G1 X160.835 Y78.07 E.13747
G1 X160.301 Y78.07 E.01678
G1 X163.93 Y81.699 E.1612
G1 X163.93 Y82.233 E.01678
G1 X159.767 Y78.07 E.18493
G1 X159.233 Y78.07 E.01678
G1 X163.93 Y82.767 E.20865
G1 X163.93 Y83.302 E.01678
G1 X158.698 Y78.07 E.23238
G1 X158.164 Y78.07 E.01678
G1 X163.93 Y83.836 E.2561
G1 X163.93 Y84.37 E.01678
G1 X157.63 Y78.07 E.27983
G1 X157.096 Y78.07 E.01678
G1 X163.93 Y84.904 E.30356
G1 X163.93 Y85.438 E.01678
G1 X156.562 Y78.07 E.32728
G1 X156.027 Y78.07 E.01678
G1 X163.93 Y85.973 E.35101
G1 X163.93 Y86.507 E.01678
G1 X155.493 Y78.07 E.37473
G1 X154.959 Y78.07 E.01678
G1 X163.93 Y87.041 E.39846
G1 X163.93 Y87.575 E.01678
G1 X154.425 Y78.07 E.42219
G1 X153.891 Y78.07 E.01678
G1 X163.93 Y88.109 E.44591
G1 X163.93 Y88.643 E.01678
G1 X153.357 Y78.07 E.46964
G1 X152.822 Y78.07 E.01678
G1 X163.93 Y89.178 E.49336
G1 X163.93 Y89.712 E.01678
G1 X152.288 Y78.07 E.51709
G1 X151.754 Y78.07 E.01678
G1 X163.93 Y90.246 E.54082
G1 X163.93 Y90.78 E.01678
G1 X151.22 Y78.07 E.56454
G1 X150.686 Y78.07 E.01678
G1 X163.93 Y91.314 E.58827
G1 X163.93 Y91.848 E.01678
G1 X150.152 Y78.07 E.61199
G1 X149.617 Y78.07 E.01678
G1 X163.93 Y92.383 E.63572
G1 X163.93 Y92.917 E.01678
G1 X149.083 Y78.07 E.65945
G1 X148.549 Y78.07 E.01678
G1 X163.93 Y93.451 E.68317
G1 X163.93 Y93.985 E.01678
G1 X148.015 Y78.07 E.7069
G1 X147.481 Y78.07 E.01678
G1 X163.93 Y94.519 E.73062
G1 X163.93 Y95.053 E.01678
G1 X146.947 Y78.07 E.75435
G1 X146.412 Y78.07 E.01678
G1 X163.93 Y95.588 E.77808
G1 X163.93 Y96.122 E.01678
G1 X145.878 Y78.07 E.8018
G1 X145.344 Y78.07 E.01678
M73 P1 R77
G1 X163.93 Y96.656 E.82553
G1 X163.93 Y97.19 E.01678
G1 X144.81 Y78.07 E.84925
G1 X144.276 Y78.07 E.01678
G1 X163.93 Y97.724 E.87298
G1 X163.93 Y98.258 E.01678
G1 X143.742 Y78.07 E.89671
G1 X143.207 Y78.07 E.01678
G1 X163.93 Y98.793 E.92043
G1 X163.93 Y99.327 E.01678
G1 X142.673 Y78.07 E.94416
G1 X142.139 Y78.07 E.01678
G1 X163.93 Y99.861 E.96788
G1 X163.93 Y100.395 E.01678
G1 X141.605 Y78.07 E.99161
G1 X141.071 Y78.07 E.01678
G1 X163.93 Y100.929 E1.01534
G1 X163.93 Y101.463 E.01678
G1 X140.537 Y78.07 E1.03906
G1 X140.002 Y78.07 E.01678
G1 X163.93 Y101.998 E1.06279
G1 X163.93 Y102.532 E.01678
G1 X139.468 Y78.07 E1.08651
G1 X138.934 Y78.07 E.01678
G1 X163.93 Y103.066 E1.11024
G1 X163.93 Y103.6 E.01678
G1 X138.4 Y78.07 E1.13397
G1 X137.866 Y78.07 E.01678
M73 P2 R77
M73 Q2 S77
G1 X163.93 Y104.134 E1.15769
G1 X163.93 Y104.669 E.01678
G1 X137.331 Y78.07 E1.18142
G1 X136.797 Y78.07 E.01678
G1 X163.93 Y105.203 E1.20514
G1 X163.93 Y105.737 E.01678
G1 X136.263 Y78.07 E1.22887
G1 X135.729 Y78.07 E.01678
G1 X163.93 Y106.271 E1.2526
G1 X163.93 Y106.805 E.01678
G1 X135.195 Y78.07 E1.27632
G1 X134.661 Y78.07 E.01678
G1 X163.93 Y107.339 E1.30005
G1 X163.93 Y107.874 E.01678
G1 X134.126 Y78.07 E1.32377
G1 X133.592 Y78.07 E.01678
G1 X163.93 Y108.408 E1.3475
G1 X163.93 Y108.942 E.01678
G1 X133.058 Y78.07 E1.37123
G1 X132.524 Y78.07 E.01678
G1 X163.93 Y109.476 E1.39495
G1 X163.93 Y110.01 E.01678
G1 X131.99 Y78.07 E1.41868
G1 X131.456 Y78.07 E.01678
G1 X163.93 Y110.544 E1.4424
G1 X163.93 Y111.079 E.01678
G1 X130.921 Y78.07 E1.46613
G1 X130.387 Y78.07 E.01678
G1 X163.93 Y111.613 E1.48986
G1 X163.93 Y112.147 E.01678
G1 X129.853 Y78.07 E1.51358
G1 X129.319 Y78.07 E.01678
G1 X163.93 Y112.681 E1.53731
G1 X163.93 Y113.215 E.01678
G1 X128.785 Y78.07 E1.56103
G1 X128.251 Y78.07 E.01678
M73 P2 R76
G1 X163.93 Y113.749 E1.58476
G1 X163.93 Y114.284 E.01678
G1 X127.716 Y78.07 E1.60849
G1 X127.182 Y78.07 E.01678
G1 X163.93 Y114.818 E1.63221
G1 X163.93 Y115.352 E.01678
M73 P3 R76
M73 Q3 S77
G1 X126.648 Y78.07 E1.65594
G1 X126.114 Y78.07 E.01678
G1 X163.93 Y115.886 E1.67966
G1 X163.93 Y116.42 E.01678
G1 X125.58 Y78.07 E1.70339
G1 X125.046 Y78.07 E.01678
G1 X163.93 Y116.954 E1.72712
G1 X163.93 Y117.489 E.01678
G1 X124.511 Y78.07 E1.75084
G1 X123.977 Y78.07 E.01678
M73 Q3 S76
G1 X163.93 Y118.023 E1.77457
G1 X163.93 Y118.557 E.01678
G1 X123.443 Y78.07 E1.79829
G1 X122.909 Y78.07 E.01678
G1 X163.93 Y119.091 E1.82202
G1 X163.93 Y119.625 E.01678
G1 X122.375 Y78.07 E1.84575
G1 X121.841 Y78.07 E.01678
G1 X163.93 Y120.159 E1.86947
G1 X163.93 Y120.694 E.01678
G1 X121.306 Y78.07 E1.8932
G1 X120.772 Y78.07 E.01678
G1 X163.93 Y121.228 E1.91692
G1 X163.93 Y121.762 E.01678
G1 X120.238 Y78.07 E1.94065
G1 X119.704 Y78.07 E.01678
G1 X163.93 Y122.296 E1.96438
G1 X163.93 Y122.83 E.01678
G1 X119.17 Y78.07 E1.9881
G1 X118.636 Y78.07 E.01678
G1 X163.93 Y123.364 E2.01183
G1 X163.93 Y123.899 E.01678
M73 P4 R76
G1 X118.101 Y78.07 E2.03555
G1 X117.567 Y78.07 E.01678
M73 P4 R75
M73 Q4 S76
G1 X163.93 Y124.433 E2.05928
G1 X163.93 Y124.967 E.01678
G1 X117.033 Y78.07 E2.08301
G1 X116.499 Y78.07 E.01678
G1 X163.93 Y125.501 E2.10673
G1 X163.93 Y126.035 E.01678
G1 X115.965 Y78.07 E2.13046
G1 X115.43 Y78.07 E.01678
G1 X163.93 Y126.57 E2.15418
G1 X163.93 Y127.104 E.01678
G1 X114.896 Y78.07 E2.17791
G1 X114.362 Y78.07 E.01678
G1 X163.93 Y127.638 E2.20164
G1 X163.93 Y128.172 E.01678
M73 Q4 S75
G1 X113.828 Y78.07 E2.22536
G1 X113.294 Y78.07 E.01678
G1 X163.93 Y128.706 E2.24909
G1 X163.93 Y129.24 E.01678
G1 X112.76 Y78.07 E2.27282
G1 X112.225 Y78.07 E.01678
G1 X163.93 Y129.775 E2.29654
G1 X163.93 Y130.309 E.01678
G1 X111.691 Y78.07 E2.32027
G1 X111.157 Y78.07 E.01678
G1 X163.93 Y130.843 E2.34399
G1 X163.93 Y131.377 E.01678
M73 P5 R75
M73 Q5 S75
G1 X110.623 Y78.07 E2.36772
G1 X110.089 Y78.07 E.01678
G1 X163.93 Y131.911 E2.39145
G1 X163.93 Y131.93 E.00059
G1 X163.415 Y131.93 E.01618
G1 X109.555 Y78.07 E2.39228
G1 X109.02 Y78.07 E.01678
G1 X162.881 Y131.93 E2.39228
G1 X162.346 Y131.93 E.01678
M73 P5 R74
G1 X108.486 Y78.07 E2.39228
G1 X107.952 Y78.07 E.01678
G1 X161.812 Y131.93 E2.39228
G1 X161.278 Y131.93 E.01678
G1 X107.418 Y78.07 E2.39228
G1 X106.884 Y78.07 E.01678
G1 X160.744 Y131.93 E2.39228
G1 X160.21 Y131.93 E.01678
G1 X106.35 Y78.07 E2.39228
G1 X105.815 Y78.07 E.01678
M73 Q5 S74
G1 X159.676 Y131.93 E2.39228
G1 X159.141 Y131.93 E.01678
G1 X105.281 Y78.07 E2.39228
G1 X104.747 Y78.07 E.01678
G1 X158.607 Y131.93 E2.39228
G1 X158.073 Y131.93 E.01678
M73 P6 R74
G1 X104.213 Y78.07 E2.39228
G1 X103.679 Y78.07 E.01678
M73 Q6 S74
G1 X157.539 Y131.93 E2.39228
G1 X157.005 Y131.93 E.01678
G1 X103.145 Y78.07 E2.39228
G1 X102.61 Y78.07 E.01678
G1 X156.471 Y131.93 E2.39228
G1 X155.936 Y131.93 E.01678
G1 X102.076 Y78.07 E2.39228
G1 X101.542 Y78.07 E.01678
G1 X155.402 Y131.93 E2.39228
G1 X154.868 Y131.93 E.01678
G1 X101.008 Y78.07 E2.39228
G1 X100.474 Y78.07 E.01678
M73 P6 R73
G1 X154.334 Y131.93 E2.39228
G1 X153.8 Y131.93 E.01678
G1 X99.94 Y78.07 E2.39228
G1 X99.405 Y78.07 E.01678
G1 X153.266 Y131.93 E2.39228
G1 X152.731 Y131.93 E.01678
G1 X98.871 Y78.07 E2.39228
G1 X98.337 Y78.07 E.01678
G1 X152.197 Y131.93 E2.39228
G1 X151.663 Y131.93 E.01678
G1 X97.803 Y78.07 E2.39228
G1 X97.269 Y78.07 E.01678
M73 P7 R73
M73 Q7 S73
G1 X151.129 Y131.93 E2.39228
G1 X150.595 Y131.93 E.01678
G1 X96.734 Y78.07 E2.39228
G1 X96.2 Y78.07 E.01678
G1 X150.061 Y131.93 E2.39228
G1 X149.526 Y131.93 E.01678
G1 X95.666 Y78.07 E2.39228
G1 X95.132 Y78.07 E.01678
G1 X148.992 Y131.93 E2.39228
G1 X148.458 Y131.93 E.01678
G1 X94.598 Y78.07 E2.39228
G1 X94.064 Y78.07 E.01678
G1 X147.924 Y131.93 E2.39228
G1 X147.39 Y131.93 E.01678
G1 X93.529 Y78.07 E2.39228
G1 X92.995 Y78.07 E.01678
G1 X146.856 Y131.93 E2.39228
G1 X146.321 Y131.93 E.01678
G1 X92.461 Y78.07 E2.39228
G1 X91.927 Y78.07 E.01678
M73 P7 R72
G1 X145.787 Y131.93 E2.39228
G1 X145.253 Y131.93 E.01678
G1 X91.393 Y78.07 E2.39228
G1 X90.859 Y78.07 E.01678
M73 P8 R72
M73 Q8 S73
G1 X144.719 Y131.93 E2.39228
G1 X144.185 Y131.93 E.01678
G1 X90.324 Y78.07 E2.39228
G1 X89.79 Y78.07 E.01678
G1 X143.651 Y131.93 E2.39228
G1 X143.116 Y131.93 E.01678
G1 X89.256 Y78.07 E2.39228
G1 X88.722 Y78.07 E.01678
M73 Q8 S72
G1 X142.582 Y131.93 E2.39228
G1 X142.048 Y131.93 E.01678
G1 X88.188 Y78.07 E2.39228
G1 X87.654 Y78.07 E.01678
G1 X141.514 Y131.93 E2.39228
G1 X140.98 Y131.93 E.01678
G1 X87.119 Y78.07 E2.39228
G1 X86.585 Y78.07 E.01678
G1 X140.445 Y131.93 E2.39228
G1 X139.911 Y131.93 E.01678
G1 X86.07 Y78.089 E2.39145
G1 X86.07 Y78.623 E.01678
G1 X139.377 Y131.93 E2.36772
G1 X138.843 Y131.93 E.01678
G1 X86.07 Y79.157 E2.344
G1 X86.07 Y79.691 E.01678
M73 P9 R72
G1 X138.309 Y131.93 E2.32027
G1 X137.775 Y131.93 E.01678
M73 Q9 S72
G1 X86.07 Y80.225 E2.29654
G1 X86.07 Y80.76 E.01678
M73 P9 R71
G1 X137.24 Y131.93 E2.27282
G1 X136.706 Y131.93 E.01678
G1 X86.07 Y81.294 E2.24909
G1 X86.07 Y81.828 E.01678
G1 X136.172 Y131.93 E2.22537
G1 X135.638 Y131.93 E.01678
G1 X86.07 Y82.362 E2.20164
G1 X86.07 Y82.896 E.01678
G1 X135.104 Y131.93 E2.17791
G1 X134.57 Y131.93 E.01678
G1 X86.07 Y83.43 E2.15419
G1 X86.07 Y83.965 E.01678
M73 Q9 S71
G1 X134.035 Y131.93 E2.13046
G1 X133.501 Y131.93 E.01678
G1 X86.07 Y84.499 E2.10674
G1 X86.07 Y85.033 E.01678
G1 X132.967 Y131.93 E2.08301
G1 X132.433 Y131.93 E.01678
G1 X86.07 Y85.567 E2.05928
G1 X86.07 Y86.101 E.01678
G1 X131.899 Y131.93 E2.03556
G1 X131.365 Y131.93 E.01678
G1 X86.07 Y86.635 E2.01183
G1 X86.07 Y87.17 E.01678
M73 P10 R71
M73 Q10 S71
G1 X130.83 Y131.93 E1.98811
G1 X130.296 Y131.93 E.01678
G1 X86.07 Y87.704 E1.96438
G1 X86.07 Y88.238 E.01678
G1 X129.762 Y131.93 E1.94065
G1 X129.228 Y131.93 E.01678
G1 X86.07 Y88.772 E1.91693
G1 X86.07 Y89.306 E.01678
G1 X128.694 Y131.93 E1.8932
G1 X128.16 Y131.93 E.01678
G1 X86.07 Y89.84 E1.86948
G1 X86.07 Y90.375 E.01678
M73 P10 R70
G1 X127.625 Y131.93 E1.84575
G1 X127.091 Y131.93 E.01678
G1 X86.07 Y90.909 E1.82202
G1 X86.07 Y91.443 E.01678
G1 X126.557 Y131.93 E1.7983
G1 X126.023 Y131.93 E.01678
G1 X86.07 Y91.977 E1.77457
G1 X86.07 Y92.511 E.01678
G1 X125.489 Y131.93 E1.75085
G1 X124.955 Y131.93 E.01678
G1 X86.07 Y93.045 E1.72712
G1 X86.07 Y93.58 E.01678
G1 X124.42 Y131.93 E1.70339
G1 X123.886 Y131.93 E.01678
M73 Q10 S70
G1 X86.07 Y94.114 E1.67967
G1 X86.07 Y94.648 E.01678
G1 X123.352 Y131.93 E1.65594
G1 X122.818 Y131.93 E.01678
G1 X86.07 Y95.182 E1.63222
G1 X86.07 Y95.716 E.01678
M73 P11 R70
G1 X122.284 Y131.93 E1.60849
G1 X121.749 Y131.93 E.01678
M73 Q11 S70
G1 X86.07 Y96.251 E1.58476
G1 X86.07 Y96.785 E.01678
G1 X121.215 Y131.93 E1.56104
G1 X120.681 Y131.93 E.01678
G1 X86.07 Y97.319 E1.53731
G1 X86.07 Y97.853 E.01678
G1 X120.147 Y131.93 E1.51359
G1 X119.613 Y131.93 E.01678
G1 X86.07 Y98.387 E1.48986
G1 X86.07 Y98.921 E.01678
G1 X119.079 Y131.93 E1.46613
G1 X118.544 Y131.93 E.01678
G1 X86.07 Y99.456 E1.44241
G1 X86.07 Y99.99 E.01678
G1 X118.01 Y131.93 E1.41868
G1 X117.476 Y131.93 E.01678
G1 X86.07 Y100.524 E1.39496
G1 X86.07 Y101.058 E.01678
G1 X116.942 Y131.93 E1.37123
G1 X116.408 Y131.93 E.01678
G1 X86.07 Y101.592 E1.3475
G1 X86.07 Y102.126 E.01678
G1 X115.874 Y131.93 E1.32378
G1 X115.339 Y131.93 E.01678
M73 P11 R69
G1 X86.07 Y102.661 E1.30005
G1 X86.07 Y103.195 E.01678
G1 X114.805 Y131.93 E1.27633
G1 X114.271 Y131.93 E.01678
G1 X86.07 Y103.729 E1.2526
G1 X86.07 Y104.263 E.01678
G1 X113.737 Y131.93 E1.22887
G1 X113.203 Y131.93 E.01678
G1 X86.07 Y104.797 E1.20515
G1 X86.07 Y105.331 E.01678
G1 X112.669 Y131.93 E1.18142
G1 X112.134 Y131.93 E.01678
G1 X86.07 Y105.866 E1.1577
G1 X86.07 Y106.4 E.01678
G1 X111.6 Y131.93 E1.13397
G1 X111.066 Y131.93 E.01678
M73 P12 R69
G1 X86.07 Y106.934 E1.11024
G1 X86.07 Y107.468 E.01678
G1 X110.532 Y131.93 E1.08652
G1 X109.998 Y131.93 E.01678
M73 Q12 S70
G1 X86.07 Y108.002 E1.06279
G1 X86.07 Y108.536 E.01678
M73 Q12 S69
G1 X109.464 Y131.93 E1.03907
G1 X108.929 Y131.93 E.01678
G1 X86.07 Y109.071 E1.01534
G1 X86.07 Y109.605 E.01678
G1 X108.395 Y131.93 E.99161
G1 X107.861 Y131.93 E.01678
G1 X86.07 Y110.139 E.96789
G1 X86.07 Y110.673 E.01678
G1 X107.327 Y131.93 E.94416
G1 X106.793 Y131.93 E.01678
G1 X86.07 Y111.207 E.92044
G1 X86.07 Y111.741 E.01678
G1 X106.259 Y131.93 E.89671
G1 X105.724 Y131.93 E.01678
G1 X86.07 Y112.276 E.87298
G1 X86.07 Y112.81 E.01678
G1 X105.19 Y131.93 E.84926
G1 X104.656 Y131.93 E.01678
G1 X86.07 Y113.344 E.82553
G1 X86.07 Y113.878 E.01678
G1 X104.122 Y131.93 E.80181
G1 X103.588 Y131.93 E.01678
G1 X86.07 Y114.412 E.77808
G1 X86.07 Y114.946 E.01678
G1 X103.054 Y131.93 E.75435
G1 X102.519 Y131.93 E.01678
G1 X86.07 Y115.481 E.73063
G1 X86.07 Y116.015 E.01678
G1 X101.985 Y131.93 E.7069
G1 X101.451 Y131.93 E.01678
G1 X86.07 Y116.549 E.68318
G1 X86.07 Y117.083 E.01678
G1 X100.917 Y131.93 E.65945
G1 X100.383 Y131.93 E.01678
G1 X86.07 Y117.617 E.63572
G1 X86.07 Y118.152 E.01678
G1 X99.848 Y131.93 E.612
G1 X99.314 Y131.93 E.01678
G1 X86.07 Y118.686 E.58827
G1 X86.07 Y119.22 E.01678
G1 X98.78 Y131.93 E.56455
G1 X98.246 Y131.93 E.01678
G1 X86.07 Y119.754 E.54082
G1 X86.07 Y120.288 E.01678
G1 X97.712 Y131.93 E.51709
G1 X97.178 Y131.93 E.01678
G1 X86.07 Y120.822 E.49337
G1 X86.07 Y121.357 E.01678
G1 X96.643 Y131.93 E.46964
G1 X96.109 Y131.93 E.01678
G1 X86.07 Y121.891 E.44592
G1 X86.07 Y122.425 E.01678
G1 X95.575 Y131.93 E.42219
