; generated by PrusaSlicer 2.5.0+MacOS-arm64 on 2023-07-07 at 14:19:09 UTC


;
;
; 

; external perimeters extrusion width = 0.45mm
; perimeters extrusion width = 0.45mm
; infill extrusion width = 0.45mm
; solid infill extrusion width = 0.45mm
; top infill extrusion width = 0.40mm
; first layer extrusion width = 0.42mm

; external perimeters extrusion width = 0.45mm
; perimeters extrusion width = 0.45mm
; infill extrusion width = 0.45mm
; solid infill extrusion width = 0.45mm
; top infill extrusion width = 0.40mm
; first layer extrusion width = 0.42mm

M73 P0 R48
M73 Q0 S49
M201 X1000 Y1000 Z200 E5000 ; sets maximum accelerations, mm/sec^2
M203 X200 Y200 Z12 E120 ; sets maximum feedrates, mm / sec
M204 P1250 R1250 T1250 ; sets acceleration (P, T) and retract acceleration (R), mm/sec^2
M205 X8.00 Y8.00 Z0.40 E4.50 ; sets the jerk limits, mm/sec
M205 S0 T0 ; sets the minimum extruding and travel feed rate, mm/sec
M107
;TYPE:Custom
M862.3 P "MK3S" ; printer model check
M862.1 P0.4 ; nozzle diameter check
M115 U3.12.1 ; tell printer latest fw version
G90 ; use absolute coordinates
M83 ; extruder relative mode
M104 S240 ; set extruder temp
M140 S85 ; set bed temp
M190 S85 ; wait for bed temp
M109 S240 ; wait for extruder temp
G28 W ; home all without mesh bed level
G80 ; mesh bed leveling

G1 Z0.2 F720
G1 Y-3 F1000 ; go outside print area
G92 E0
G1 X60 E9 F1000 ; intro line
G1 X100 E12.5 F1000 ; intro line

G92 E0
M221 S95

; Don't change E values below. Excessive value can damage the printer.
M907 E430 ; set extruder motor current
G21 ; set units to millimeters
G90 ; use absolute coordinates
M83 ; use relative distances for extrusion
M900 K0.08 ; Filament gcode LA 1.5
M900 K45 ; Filament gcode LA 1.0
M107
;LAYER_CHANGE
;Z:0.2
;HEIGHT:0.2
;BEFORE_LAYER_CHANGE
G92 E0.0
;0.2


G1 E-1 F2100
G1 Z.2 F720
;AFTER_LAYER_CHANGE
;0.2
G1 Z.4
G1 X105.85 Y91.487 F10800
G1 Z.2 F720
G1 E1 F2100
M204 S800
;TYPE:Skirt/Brim
;WIDTH:0.42
G1 F1200
G1 X108.792 Y88.505 E.13136
G1 X110.344 Y87.801 E.05342
G1 X114.247 Y87.574 E.1226
G1 X134.602 Y87.574 E.6382
G1 X135.762 Y87.582 E.03639
G1 X140.109 Y87.868 E.13659
G1 X171.77 Y96.303 E1.02732
G1 X172.839 Y96.919 E.03868
G1 X175.826 Y99.907 E.13247
G1 X176.523 Y101.588 E.05704
G1 X176.523 Y108.412 E.21399
G1 X175.826 Y110.093 E.05704
G1 X172.839 Y113.081 E.13247
G1 X171.721 Y113.71 E.04022
G1 X137.031 Y122.16 E1.11947
G1 X136.469 Y122.227 E.01777
G1 X113.531 Y122.227 E.71919
G1 X111.85 Y121.531 E.05704
G1 X108.642 Y118.289 E.14301
G1 X105.642 Y114.289 E.15677
G1 X105.166 Y112.862 E.04713
G1 X105.165 Y93.157 E.61786
G1 X105.827 Y91.542 E.0547
M204 S1000
;WIPE_START
G1 F8640
G1 X108.701 Y88.598 E-.95
;WIPE_END
G1 E-.05 F2100
G1 Z.4 F720
G1 X108.398 Y93.063 F10800
G1 Z.2 F720
G1 E1 F2100
M204 S800
G1 F1200
G1 X108.906 Y92.204 E.03129
G1 X110.025 Y91.19 E.04735
G1 X111.478 Y90.566 E.04959
G1 X112.929 Y90.417 E.04571
G1 X114.035 Y90.253 E.03506
G1 X115.669 Y90.31 E.05128
G1 X117.222 Y90.811 E.05117
G1 X117.924 Y91.226 E.02555
G1 X118.781 Y92.018 E.03661
G1 X119.014 Y92.367 E.01314
G1 X119.701 Y92.4 E.02157
G1 X120.54 Y92.638 E.02734
G1 X121.367 Y93.038 E.02878
G1 X122.773 Y94.372 E.06077
G1 X123.307 Y95.358 E.03517
G1 X123.6 Y96.423 E.03461
G1 X123.637 Y102.408 E.18768
G1 X126.514 Y102.408 E.09022
G1 X126.518 Y96.76 E.17711
G1 X126.793 Y95.497 E.04052
G1 X127.356 Y94.407 E.03846
G1 X128.208 Y93.471 E.03968
G1 X129.229 Y92.804 E.03826
G1 X130.363 Y92.42 E.03753
G1 X130.784 Y92.386 E.01323
G1 X131.257 Y91.763 E.02452
G1 X132.604 Y90.797 E.05198
G1 X134.042 Y90.33 E.04739
G1 X135.583 Y90.24 E.0484
G1 X136.416 Y90.297 E.02618
G1 X137.208 Y90.433 E.02519
G1 X138.154 Y90.492 E.02975
G1 X139.187 Y90.783 E.03364
G1 X140.208 Y91.355 E.0367
G1 X141.089 Y92.194 E.03813
G1 X141.707 Y93.16 E.03596
G1 X142.152 Y94.695 E.05011
G1 X142.151 Y99.39 E.1472
G1 X143.479 Y98.951 E.04385
G1 X169.772 Y98.929 E.8244
G1 X170.947 Y99.268 E.03836
G1 X171.937 Y99.835 E.03577
G1 X172.751 Y100.614 E.03534
G1 X173.399 Y101.624 E.03763
G1 X173.823 Y103.007 E.04534
G1 X173.85 Y106.785 E.11846
G1 X173.435 Y108.307 E.04949
G1 X172.805 Y109.32 E.03739
G1 X171.986 Y110.122 E.03593
G1 X170.996 Y110.715 E.03621
G1 X169.874 Y111.053 E.03672
G1 X143.918 Y111.114 E.81385
G1 X142.48 Y110.756 E.04645
G1 X142.125 Y110.573 E.01251
G1 X142.103 Y111.636 E.03332
G1 X141.825 Y112.565 E.03042
G1 X141.414 Y113.369 E.02829
G1 X140.421 Y114.474 E.0466
G1 X139.557 Y115.046 E.03248
G1 X139.141 Y115.202 E.01394
G1 X139.122 Y115.509 E.00964
G1 X138.851 Y116.503 E.03229
G1 X138.01 Y117.907 E.05133
G1 X137.356 Y118.523 E.02816
G1 X136.753 Y118.952 E.02322
G1 X135.036 Y119.527 E.05676
G1 X115.224 Y119.563 E.62118
G1 X113.795 Y119.207 E.04619
G1 X112.515 Y118.418 E.04714
G1 X111.848 Y117.723 E.03021
G1 X111.373 Y117.007 E.02694
G1 X110.915 Y115.719 E.04286
G1 X110.878 Y115.222 E.01564
G1 X109.852 Y114.686 E.0363
G1 X108.744 Y113.594 E.04876
G1 X108.187 Y112.594 E.0359
G1 X107.872 Y111.477 E.03639
G1 X107.83 Y94.836 E.52177
G1 X108.156 Y93.473 E.04395
G1 X108.367 Y93.114 E.01305
M204 S1000
G1 X108.686 Y93.305 F10800
M204 S800
G1 F1200
G1 X109.214 Y92.423 E.03224
G1 X110.253 Y91.493 E.04371
G1 X111.598 Y90.925 E.04578
G1 X112.974 Y90.792 E.04335
G1 X114.073 Y90.628 E.03483
G1 X115.628 Y90.686 E.04881
G1 X117.084 Y91.163 E.04803
G1 X117.713 Y91.539 E.02296
G1 X118.506 Y92.277 E.03398
G1 X118.802 Y92.737 E.01715
G1 X119.621 Y92.769 E.02568
G1 X120.421 Y92.996 E.02608
G1 X121.176 Y93.364 E.02632
G1 X122.457 Y94.579 E.05535
G1 X122.949 Y95.48 E.0322
G1 X123.23 Y96.499 E.03313
G1 X123.261 Y102.785 E.19712
G1 X126.891 Y102.785 E.11382
G1 X126.891 Y96.818 E.18709
G1 X127.141 Y95.645 E.0376
G1 X127.653 Y94.64 E.03536
G1 X128.437 Y93.772 E.03667
G1 X129.374 Y93.153 E.03522
G1 X130.459 Y92.786 E.03592
G1 X130.983 Y92.752 E.01646
G1 X131.503 Y92.05 E.0274
G1 X132.749 Y91.146 E.04826
G1 X134.134 Y90.697 E.04567
G1 X135.568 Y90.617 E.04503
G1 X136.38 Y90.672 E.02552
G1 X137.163 Y90.808 E.02492
G1 X138.11 Y90.867 E.02974
G1 X139.061 Y91.139 E.03101
G1 X140.002 Y91.672 E.0339
G1 X140.785 Y92.418 E.03393
G1 X141.353 Y93.292 E.03268
G1 X141.782 Y94.774 E.04838
G1 X141.772 Y100.063 E.16582
G1 X142.295 Y99.741 E.01925
M73 P1 R48
M73 Q1 S49
G1 X143.511 Y99.328 E.04025
G1 X169.745 Y99.306 E.82256
G1 X170.781 Y99.606 E.03381
G1 X171.694 Y100.125 E.03294
G1 X172.447 Y100.839 E.03255
G1 X173.047 Y101.76 E.03445
G1 X173.454 Y103.091 E.04362
G1 X173.473 Y106.761 E.11508
G1 X173.099 Y108.133 E.04459
G1 X172.524 Y109.069 E.03443
G1 X171.771 Y109.811 E.03315
G1 X170.861 Y110.362 E.03335
G1 X169.845 Y110.676 E.03336
G1 X143.941 Y110.737 E.8122
G1 X142.607 Y110.399 E.04314
M73 Q1 S48
G1 X141.753 Y109.88 E.03132
G1 X141.734 Y111.554 E.05248
G1 X141.469 Y112.44 E.02901
G1 X141.09 Y113.174 E.0259
G1 X140.193 Y114.173 E.04211
G1 X139.369 Y114.718 E.03097
G1 X138.772 Y114.931 E.01988
G1 X138.751 Y115.435 E.01581
G1 X138.513 Y116.334 E.02916
G1 X137.732 Y117.651 E.04803
G1 X137.108 Y118.24 E.02689
G1 X136.558 Y118.627 E.02108
G1 X134.947 Y119.16 E.05321
G1 X115.248 Y119.186 E.61765
G1 X113.917 Y118.849 E.04305
G1 X112.736 Y118.112 E.04365
G1 X112.134 Y117.476 E.02745
G1 X111.701 Y116.82 E.02467
G1 X111.28 Y115.622 E.03981
G1 X111.244 Y114.985 E.02
G1 X110.094 Y114.395 E.04052
G1 X109.06 Y113.387 E.0453
G1 X108.527 Y112.431 E.03431
G1 X108.242 Y111.401 E.03349
G1 X108.207 Y94.858 E.5187
G1 X108.515 Y93.59 E.04092
G1 X108.655 Y93.356 E.00854
M204 S1000
G1 X108.971 Y93.548 F10800
M204 S800
G1 F1200
G1 X109.521 Y92.643 E.0332
G1 X110.478 Y91.797 E.04007
G1 X111.714 Y91.284 E.04196
G1 X113.018 Y91.166 E.04104
G1 X114.111 Y91.004 E.03463
G1 X115.587 Y91.061 E.04631
G1 X116.944 Y91.513 E.04486
G1 X117.5 Y91.85 E.02037
G1 X118.229 Y92.534 E.03135
G1 X118.588 Y93.108 E.02123
G1 X119.542 Y93.138 E.02991
G1 X120.271 Y93.343 E.02376
G1 X120.985 Y93.69 E.02488
G1 X122.141 Y94.787 E.04996
G1 X122.591 Y95.602 E.02921
G1 X122.859 Y96.575 E.03163
G1 X122.885 Y103.162 E.20656
G1 X127.268 Y103.162 E.13742
G1 X127.268 Y96.838 E.1983
G1 X127.489 Y95.792 E.0335
G1 X127.951 Y94.872 E.03229
G1 X128.665 Y94.073 E.0336
G1 X129.561 Y93.481 E.03365
G1 X130.552 Y93.152 E.03275
G1 X131.183 Y93.121 E.01981
G1 X131.75 Y92.337 E.03034
G1 X132.945 Y91.469 E.04632
G1 X134.225 Y91.064 E.04208
G1 X135.554 Y90.994 E.04173
G1 X136.345 Y91.048 E.02486
G1 X137.119 Y91.183 E.02465
G1 X138.066 Y91.242 E.02973
G1 X138.934 Y91.495 E.02837
G1 X139.76 Y91.962 E.02974
G1 X140.483 Y92.645 E.0312
G1 X141 Y93.427 E.02938
G1 X141.405 Y94.801 E.04493
G1 X141.393 Y100.906 E.1914
G1 X141.928 Y100.417 E.0227
G1 X142.442 Y100.089 E.01913
G1 X143.543 Y99.705 E.03657
G1 X169.718 Y99.683 E.82069
G1 X170.615 Y99.946 E.02931
G1 X171.454 Y100.416 E.03015
G1 X172.146 Y101.066 E.02977
G1 X172.694 Y101.897 E.03122
G1 X173.085 Y103.174 E.04187
G1 X173.096 Y106.736 E.11169
G1 X172.763 Y107.96 E.03977
G1 X172.242 Y108.817 E.03143
G1 X171.522 Y109.527 E.03172
G1 X170.725 Y110.01 E.02921
G1 X169.814 Y110.299 E.02997
G1 X143.964 Y110.36 E.81051
G1 X142.73 Y110.042 E.03995
G1 X141.378 Y109.195 E.05001
G1 X141.365 Y111.472 E.07137
G1 X141.113 Y112.314 E.02758
G1 X140.767 Y112.979 E.02348
G1 X139.964 Y113.872 E.03765
G1 X139.182 Y114.39 E.02943
G1 X138.401 Y114.658 E.0259
G1 X138.381 Y115.36 E.02202
G1 X138.155 Y116.211 E.0276
G1 X137.423 Y117.434 E.04468
G1 X136.862 Y117.954 E.02399
G1 X136.365 Y118.302 E.01901
G1 X134.859 Y118.792 E.04966
G1 X115.272 Y118.809 E.61414
G1 X114.041 Y118.492 E.03987
G1 X112.959 Y117.807 E.04014
G1 X112.421 Y117.231 E.0247
G1 X112.029 Y116.633 E.02242
G1 X111.646 Y115.526 E.03673
G1 X111.61 Y114.679 E.02659
G1 X111.325 Y114.602 E.00925
G1 X110.336 Y114.105 E.03472
G1 X109.344 Y113.137 E.04346
G1 X108.869 Y112.27 E.03098
G1 X108.613 Y111.327 E.03065
G1 X108.584 Y94.881 E.51565
G1 X108.874 Y93.709 E.03785
G1 X108.94 Y93.6 E.00402
M204 S1000
G1 X109.255 Y93.794 F10800
M204 S800
G1 F1200
G1 X109.826 Y92.866 E.03415
G1 X110.701 Y92.102 E.03644
G1 X111.829 Y91.645 E.03814
G1 X113.061 Y91.541 E.03878
G1 X114.148 Y91.38 E.03447
G1 X115.543 Y91.437 E.04378
G1 X116.802 Y91.863 E.04166
G1 X117.285 Y92.16 E.01777
G1 X117.951 Y92.79 E.02874
G1 X118.373 Y93.481 E.02537
G1 X119.464 Y93.508 E.03424
G1 X120.122 Y93.69 E.0214
G1 X120.794 Y94.017 E.02342
G1 X121.826 Y94.996 E.04462
G1 X122.234 Y95.725 E.02618
G1 X122.489 Y96.65 E.03011
G1 X122.509 Y103.539 E.216
G1 X127.645 Y103.539 E.16104
G1 X127.645 Y96.857 E.20952
G1 X127.838 Y95.937 E.02946
G1 X128.25 Y95.104 E.02915
G1 X128.93 Y94.343 E.03198
G1 X129.745 Y93.811 E.03052
G1 X130.642 Y93.519 E.02958
G1 X131.383 Y93.492 E.02327
G1 X131.999 Y92.622 E.03343
G1 X133.091 Y91.819 E.04251
G1 X134.27 Y91.439 E.03883
G1 X135.54 Y91.371 E.03987
G1 X136.309 Y91.423 E.02418
G1 X137.074 Y91.558 E.02437
G1 X138.021 Y91.617 E.02975
G1 X138.77 Y91.835 E.02444
G1 X139.519 Y92.252 E.02688
G1 X140.208 Y92.903 E.02973
G1 X140.669 Y93.609 E.02643
G1 X141.028 Y94.828 E.03982
G1 X141.015 Y101.578 E.21167
G1 X141.28 Y101.661 E.0087
G1 X141.53 Y101.299 E.01381
G1 X142.146 Y100.726 E.02638
G1 X142.627 Y100.419 E.0179
G1 X143.576 Y100.082 E.03157
G1 X169.691 Y100.06 E.8188
G1 X170.451 Y100.286 E.02485
G1 X171.214 Y100.708 E.02737
G1 X171.845 Y101.296 E.02703
G1 X172.342 Y102.035 E.02793
G1 X172.716 Y103.258 E.04009
G1 X172.718 Y106.711 E.10829
G1 X172.427 Y107.787 E.03495
G1 X171.933 Y108.6 E.02983
G1 X171.275 Y109.242 E.02882
G1 X170.587 Y109.659 E.02521
G1 X169.783 Y109.922 E.02653
G1 X143.988 Y109.982 E.80877
G1 X142.855 Y109.685 E.03672
G1 X141.91 Y109.084 E.03513
G1 X141.414 Y108.558 E.02267
G1 X141.263 Y108.347 E.00813
G1 X141.002 Y108.43 E.00862
G1 X140.996 Y111.39 E.0928
G1 X140.756 Y112.19 E.02617
G1 X140.469 Y112.746 E.01964
G1 X139.735 Y113.571 E.03461
G1 X138.995 Y114.061 E.02784
G1 X138.028 Y114.384 E.03197
G1 X138.01 Y115.287 E.0283
G1 X137.798 Y116.089 E.02603
G1 X137.147 Y117.175 E.0397
G1 X136.615 Y117.668 E.02274
G1 X136.173 Y117.977 E.01689
G1 X134.773 Y118.424 E.0461
G1 X115.297 Y118.432 E.61066
G1 X114.166 Y118.135 E.03665
G1 X113.184 Y117.504 E.03661
G1 X112.709 Y116.987 E.02201
G1 X112.378 Y116.487 E.01881
G1 X112.012 Y115.431 E.03505
G1 X111.98 Y114.374 E.03315
G1 X111.473 Y114.254 E.01634
G1 X110.533 Y113.781 E.03299
G1 X109.629 Y112.889 E.03983
G1 X109.226 Y112.148 E.02644
G1 X108.99 Y111.3 E.0276
G1 X108.961 Y94.904 E.51408
G1 X109.228 Y93.847 E.0342
M204 S1000
G1 X109.59 Y93.954 F10800
M204 S800
G1 F1200
G1 X110.13 Y93.092 E.0319
G1 X110.922 Y92.409 E.0328
G1 X111.94 Y92.006 E.03431
G1 X113.103 Y91.916 E.03657
G1 X114.186 Y91.755 E.03433
G1 X115.499 Y91.812 E.04122
G1 X116.657 Y92.212 E.03842
G1 X117.067 Y92.469 E.01517
G1 X117.671 Y93.045 E.02615
G1 X118.155 Y93.854 E.02958
G1 X119.389 Y93.878 E.03868
G1 X119.973 Y94.037 E.01899
G1 X120.603 Y94.343 E.02194
G1 X121.513 Y95.207 E.03934
G1 X121.877 Y95.848 E.02312
G1 X122.119 Y96.726 E.02856
G1 X122.133 Y103.916 E.22545
G1 X128.022 Y103.917 E.18467
G1 X128.022 Y96.876 E.22075
M73 P1 R47
G1 X128.187 Y96.083 E.0254
G1 X128.576 Y95.295 E.02755
G1 X129.191 Y94.616 E.02874
G1 X129.927 Y94.142 E.02742
G1 X130.729 Y93.887 E.0264
G1 X131.658 Y93.864 E.02914
G1 X131.752 Y93.624 E.00807
G1 X132.25 Y92.904 E.02743
G1 X133.237 Y92.168 E.03861
G1 X134.361 Y91.805 E.03704
G1 X135.525 Y91.748 E.03653
G1 X136.254 Y91.796 E.02289
G1 X137.03 Y91.933 E.02471
G1 X137.977 Y91.992 E.02975
G1 X138.607 Y92.175 E.02057
G1 X139.278 Y92.543 E.02398
G1 X139.932 Y93.161 E.02822
G1 X140.337 Y93.79 E.02345
G1 X140.651 Y94.854 E.03478
G1 X140.619 Y111.36 E.51753
G1 X140.402 Y112.061 E.02299
M73 P2 R47
G1 X140.146 Y112.551 E.01735
G1 X139.507 Y113.27 E.03016
G1 X138.809 Y113.733 E.02625
M73 Q2 S48
G1 X137.934 Y114.017 E.02884
G1 X137.654 Y114.043 E.00883
G1 X137.64 Y115.213 E.0367
G1 X137.44 Y115.967 E.02445
G1 X136.871 Y116.917 E.03472
G1 X136.369 Y117.382 E.02147
G1 X135.983 Y117.65 E.01473
G1 X134.688 Y118.055 E.04254
G1 X115.32 Y118.055 E.60725
G1 X114.343 Y117.801 E.03167
G1 X113.444 Y117.229 E.03341
G1 X113.012 Y116.763 E.01991
G1 X112.726 Y116.34 E.01604
G1 X112.379 Y115.336 E.03329
G1 X112.352 Y114.068 E.03979
G1 X111.62 Y113.906 E.02351
G1 X110.73 Y113.459 E.03124
G1 X109.917 Y112.643 E.0361
G1 X109.569 Y111.989 E.02323
G1 X109.367 Y111.273 E.02333
G1 X109.338 Y94.928 E.51249
G1 X109.575 Y94.012 E.02966
M204 S1000
G1 X109.939 Y94.108 F10800
M204 S800
G1 F1200
G1 X110.431 Y93.32 E.02916
G1 X111.141 Y92.718 E.02917
G1 X112.048 Y92.368 E.03047
G1 X113.143 Y92.292 E.03443
G1 X114.223 Y92.131 E.03423
G1 X115.453 Y92.188 E.03862
G1 X116.51 Y92.56 E.03513
G1 X116.847 Y92.776 E.01255
G1 X117.391 Y93.298 E.02361
G1 X117.828 Y94.043 E.0271
G1 X117.894 Y94.228 E.00616
G1 X119.315 Y94.248 E.04456
G1 X119.825 Y94.384 E.01654
G1 X120.411 Y94.669 E.02044
G1 X121.2 Y95.42 E.03414
G1 X121.52 Y95.972 E.02002
G1 X121.749 Y96.802 E.02698
G1 X121.756 Y104.294 E.23489
G1 X128.399 Y104.294 E.20831
G1 X128.399 Y96.896 E.23194
G1 X128.55 Y96.186 E.02278
G1 X128.9 Y95.489 E.02445
G1 X129.451 Y94.89 E.02552
G1 X130.106 Y94.475 E.02431
G1 X130.813 Y94.256 E.02322
G1 X131.936 Y94.237 E.03521
G1 X132.08 Y93.813 E.01405
G1 X132.542 Y93.145 E.02546
G1 X133.433 Y92.491 E.03468
G1 X134.45 Y92.173 E.03339
G1 X135.511 Y92.125 E.0333
G1 X136.199 Y92.17 E.02162
G1 X136.987 Y92.308 E.02509
G1 X137.895 Y92.36 E.02852
G1 X138.445 Y92.517 E.01792
G1 X139.074 Y92.862 E.0225
G1 X139.654 Y93.417 E.02517
G1 X140.004 Y93.969 E.02051
G1 X140.273 Y94.881 E.0298
G1 X140.25 Y111.276 E.51404
G1 X140.047 Y111.932 E.02154
G1 X139.824 Y112.354 E.01496
G1 X139.243 Y113 E.02726
G1 X138.668 Y113.382 E.02164
G1 X137.848 Y113.649 E.02704
G1 X137.281 Y113.67 E.01776
G1 X137.263 Y115.184 E.04748
G1 X137.083 Y115.842 E.02139
G1 X136.595 Y116.659 E.02983
G1 X136.123 Y117.096 E.02019
G1 X135.793 Y117.323 E.01256
G1 X134.659 Y117.678 E.03724
G1 X115.346 Y117.678 E.60557
G1 X114.469 Y117.444 E.02845
G1 X113.704 Y116.955 E.02846
G1 X113.297 Y116.516 E.01876
G1 X113.072 Y116.189 E.01248
G1 X112.755 Y115.297 E.02966
G1 X112.721 Y113.676 E.05085
G1 X112.286 Y113.667 E.01364
G1 X111.763 Y113.557 E.01675
