; generated by PrusaSlicer 2.5.0+MacOS-arm64 on 2023-07-06 at 12:02:53 UTC


;
;
; 

; external perimeters extrusion width = 0.45mm
; perimeters extrusion width = 0.45mm
; infill extrusion width = 0.45mm
; solid infill extrusion width = 0.45mm
; top infill extrusion width = 0.40mm
; first layer extrusion width = 0.42mm

; external perimeters extrusion width = 0.45mm
; perimeters extrusion width = 0.45mm
; infill extrusion width = 0.45mm
; solid infill extrusion width = 0.45mm
; top infill extrusion width = 0.40mm
; first layer extrusion width = 0.42mm

M73 P0 R41
M73 Q0 S41
M201 X1000 Y1000 Z200 E5000 ; sets maximum accelerations, mm/sec^2
M203 X200 Y200 Z12 E120 ; sets maximum feedrates, mm / sec
M204 P1250 R1250 T1250 ; sets acceleration (P, T) and retract acceleration (R), mm/sec^2
M205 X8.00 Y8.00 Z0.40 E4.50 ; sets the jerk limits, mm/sec
M205 S0 T0 ; sets the minimum extruding and travel feed rate, mm/sec
M107
;TYPE:Custom
M862.3 P "MK3S" ; printer model check
M862.1 P0.4 ; nozzle diameter check
M115 U3.12.1 ; tell printer latest fw version
G90 ; use absolute coordinates
M83 ; extruder relative mode
M104 S240 ; set extruder temp
M140 S85 ; set bed temp
M190 S85 ; wait for bed temp
M109 S240 ; wait for extruder temp
G28 W ; home all without mesh bed level
G80 ; mesh bed leveling

G1 Z0.2 F720
G1 Y-3 F1000 ; go outside print area
G92 E0
G1 X60 E9 F1000 ; intro line
G1 X100 E12.5 F1000 ; intro line

G92 E0
M221 S95

; Don't change E values below. Excessive value can damage the printer.
M907 E430 ; set extruder motor current
G21 ; set units to millimeters
G90 ; use absolute coordinates
M83 ; use relative distances for extrusion
M900 K0.08 ; Filament gcode LA 1.5
M900 K45 ; Filament gcode LA 1.0
M107
;LAYER_CHANGE
;Z:0.2
;HEIGHT:0.2
;BEFORE_LAYER_CHANGE
G92 E0.0
;0.2


G1 E-1 F2100
G1 Z.2 F720
;AFTER_LAYER_CHANGE
;0.2
G1 Z.4
G1 X93.588 Y88.163 F10800
G1 Z.2 F720
G1 E1 F2100
M204 S800
;TYPE:Skirt/Brim
;WIDTH:0.42
G1 F1200
G1 X94.633 Y87.287 E.04278
G1 X95.573 Y87.093 E.03008
G1 X120.752 Y87.094 E.78945
G1 X156.773 Y88.094 E1.12986
G1 X158.069 Y88.522 E.04278
G1 X158.916 Y89.591 E.04278
G1 X159.084 Y90.47 E.02806
G1 X159.084 Y112.38 E.68697
G1 X158.475 Y113.97 E.05337
G1 X152.046 Y121.119 E.30147
G1 X150.359 Y121.905 E.05837
G1 X120.686 Y122.907 E.9309
G1 X95.573 Y122.907 E.78739
G1 X94.266 Y122.515 E.04278
G1 X93.39 Y121.469 E.04278
G1 X93.196 Y120.53 E.03008
G1 X93.196 Y89.47 E.97385
G1 X93.571 Y88.221 E.0409
M204 S1000
; printing object motorHolder_Base.stl id:0 copy 0
;WIPE_START
G1 F8640
G1 X94.633 Y87.287 E-.32671
G1 X95.573 Y87.093 E-.22155
G1 X97.313 Y87.093 E-.40174
;WIPE_END
G1 E-.05 F2100
G1 Z.4 F720
G1 X149.95 Y111.613 F10800
G1 Z.2 F720
G1 E1 F2100
M204 S800
;TYPE:Perimeter
;WIDTH:0.419999
G1 F1200
G1 X149.742 Y111.689 E.00693
G1 X149.553 Y111.901 E.00893
G1 X149.491 Y112.159 E.00829
G1 X149.491 Y118.743 E.20644
G1 X132.382 Y118.743 E.53645
G1 X132.382 Y91.257 E.86178
M73 P0 R40
G1 X155.92 Y91.257 E.73803
G1 X155.92 Y111.593 E.63761
G1 X150.007 Y111.596 E.18539
M204 S1000
G1 X150.057 Y111.97 F10800
M204 S800
;TYPE:External perimeter
G1 F1200
G1 X149.932 Y112.017 E.00419
G1 X149.868 Y112.159 E.00485
G1 X149.868 Y119.12 E.21826
G1 X132.005 Y119.12 E.5601
G1 X132.005 Y90.88 E.88543
G1 X156.297 Y90.88 E.76167
M73 P1 R40
M73 Q1 S41
G1 X156.297 Y111.97 E.66126
G1 X150.117 Y111.97 E.19378
M204 S1000
G1 X149.933 Y111.921 F10800
;WIPE_START
G1 F8640
G1 X149.932 Y112.017 E-.04409
G1 X149.868 Y112.159 E-.03575
G1 X149.868 Y115.927 E-.87016
;WIPE_END
G1 E-.05 F2100
G1 Z.4 F720
G1 X155.036 Y91.37 F10800
G1 Z.2 F720
G1 E1 F2100
M204 S800
;TYPE:Solid infill
;WIDTH:0.423904
G1 F1200
G1 X155.637 Y91.971 E.02692
G1 X155.637 Y92.51 E.01707
G1 X154.667 Y91.54 E.04346
G1 X154.128 Y91.54 E.01707
G1 X155.637 Y93.049 E.06759
G1 X155.637 Y93.588 E.01707
G1 X153.59 Y91.54 E.09173
G1 X153.051 Y91.54 E.01707
G1 X155.637 Y94.127 E.11587
G1 X155.637 Y94.665 E.01707
G1 X152.512 Y91.54 E.14001
G1 X151.973 Y91.54 E.01707
G1 X155.637 Y95.204 E.16415
G1 X155.637 Y95.743 E.01707
G1 X151.435 Y91.54 E.18829
G1 X150.896 Y91.54 E.01707
G1 X155.637 Y96.282 E.21242
G1 X155.637 Y96.82 E.01707
G1 X150.357 Y91.54 E.23656
G1 X149.818 Y91.54 E.01707
G1 X155.637 Y97.359 E.2607
G1 X155.637 Y97.898 E.01707
G1 X149.279 Y91.54 E.28484
G1 X148.741 Y91.54 E.01707
G1 X155.637 Y98.437 E.30898
G1 X155.637 Y98.976 E.01707
M73 Q1 S40
G1 X148.202 Y91.54 E.33312
G1 X147.663 Y91.54 E.01707
G1 X155.637 Y99.514 E.35725
G1 X155.637 Y100.053 E.01707
G1 X147.124 Y91.54 E.38139
G1 X146.585 Y91.54 E.01707
G1 X155.637 Y100.592 E.40553
G1 X155.637 Y101.131 E.01707
G1 X146.047 Y91.54 E.42967
G1 X145.508 Y91.54 E.01707
G1 X155.637 Y101.67 E.45381
G1 X155.637 Y102.208 E.01707
G1 X144.969 Y91.54 E.47795
G1 X144.43 Y91.54 E.01707
G1 X155.637 Y102.747 E.50208
G1 X155.637 Y103.286 E.01707
G1 X143.891 Y91.54 E.52622
G1 X143.353 Y91.54 E.01707
G1 X155.637 Y103.825 E.55036
G1 X155.637 Y104.364 E.01707
G1 X142.814 Y91.54 E.5745
G1 X142.275 Y91.54 E.01707
G1 X155.637 Y104.902 E.59864
G1 X155.637 Y105.441 E.01707
G1 X141.736 Y91.54 E.62278
G1 X141.197 Y91.54 E.01707
G1 X155.637 Y105.98 E.64691
G1 X155.637 Y106.519 E.01707
G1 X140.659 Y91.54 E.67105
G1 X140.12 Y91.54 E.01707
G1 X155.637 Y107.058 E.69519
G1 X155.637 Y107.596 E.01707
G1 X139.581 Y91.54 E.71933
G1 X139.042 Y91.54 E.01707
G1 X155.637 Y108.135 E.74347
G1 X155.637 Y108.674 E.01707
G1 X138.503 Y91.54 E.76761
G1 X137.965 Y91.54 E.01707
M73 P2 R40
M73 Q2 S40
G1 X155.637 Y109.213 E.79174
G1 X155.637 Y109.752 E.01707
G1 X137.426 Y91.54 E.81588
G1 X136.887 Y91.54 E.01707
G1 X155.637 Y110.29 E.84002
G1 X155.637 Y110.829 E.01707
G1 X136.348 Y91.54 E.86416
G1 X135.81 Y91.54 E.01707
G1 X155.58 Y111.31 E.88572
G1 X155.041 Y111.31 E.01707
G1 X135.271 Y91.54 E.88572
G1 X134.732 Y91.54 E.01707
G1 X154.502 Y111.31 E.88572
G1 X153.963 Y111.31 E.01707
G1 X134.193 Y91.54 E.88572
G1 X133.654 Y91.54 E.01707
G1 X153.424 Y111.31 E.88572
G1 X152.886 Y111.31 E.01707
G1 X133.116 Y91.54 E.88572
G1 X132.665 Y91.54 E.01429
G1 X132.665 Y91.628 E.00278
G1 X152.347 Y111.31 E.88178
G1 X151.808 Y111.31 E.01707
G1 X132.665 Y92.167 E.85764
G1 X132.665 Y92.706 E.01707
G1 X151.269 Y111.31 E.83351
G1 X150.73 Y111.31 E.01707
G1 X132.665 Y93.244 E.80937
G1 X132.665 Y93.783 E.01707
G1 X150.192 Y111.31 E.78523
G1 X149.88 Y111.328 E.00988
G1 X149.724 Y111.381 E.00524
G1 X132.665 Y94.322 E.76427
G1 X132.665 Y94.861 E.01707
G1 X149.411 Y111.608 E.75028
G1 X149.302 Y111.771 E.00624
G1 X149.237 Y111.972 E.00667
G1 X132.665 Y95.399 E.74244
G1 X132.665 Y95.938 E.01707
G1 X149.208 Y112.482 E.74118
M73 Q3 S40
G1 X149.208 Y113.021 E.01707
M73 P3 R40
G1 X132.665 Y96.477 E.74118
G1 X132.665 Y97.016 E.01707
G1 X149.208 Y113.56 E.74118
G1 X149.208 Y114.099 E.01707
G1 X132.665 Y97.555 E.74118
G1 X132.665 Y98.093 E.01707
M73 P3 R39
G1 X149.208 Y114.637 E.74118
G1 X149.208 Y115.176 E.01707
G1 X132.665 Y98.632 E.74118
G1 X132.665 Y99.171 E.01707
G1 X149.208 Y115.715 E.74118
G1 X149.208 Y116.254 E.01707
G1 X132.665 Y99.71 E.74118
G1 X132.665 Y100.249 E.01707
G1 X149.208 Y116.792 E.74118
G1 X149.208 Y117.331 E.01707
G1 X132.665 Y100.787 E.74118
G1 X132.665 Y101.326 E.01707
G1 X149.208 Y117.87 E.74118
G1 X149.208 Y118.409 E.01707
G1 X132.665 Y101.865 E.74118
G1 X132.665 Y102.404 E.01707
G1 X148.721 Y118.46 E.71932
G1 X148.182 Y118.46 E.01707
G1 X132.665 Y102.943 E.69518
G1 X132.665 Y103.481 E.01707
G1 X147.643 Y118.46 E.67105
G1 X147.104 Y118.46 E.01707
G1 X132.665 Y104.02 E.64691
G1 X132.665 Y104.559 E.01707
M73 Q3 S39
G1 X146.565 Y118.46 E.62277
G1 X146.027 Y118.46 E.01707
G1 X132.665 Y105.098 E.59863
G1 X132.665 Y105.637 E.01707
G1 X145.488 Y118.46 E.57449
G1 X144.949 Y118.46 E.01707
G1 X132.665 Y106.175 E.55035
G1 X132.665 Y106.714 E.01707
G1 X144.41 Y118.46 E.52622
G1 X143.871 Y118.46 E.01707
G1 X132.665 Y107.253 E.50208
G1 X132.665 Y107.792 E.01707
G1 X143.333 Y118.46 E.47794
G1 X142.794 Y118.46 E.01707
M73 P4 R39
M73 Q4 S39
G1 X132.665 Y108.331 E.4538
G1 X132.665 Y108.869 E.01707
G1 X142.255 Y118.46 E.42966
G1 X141.716 Y118.46 E.01707
G1 X132.665 Y109.408 E.40552
G1 X132.665 Y109.947 E.01707
G1 X141.177 Y118.46 E.38139
G1 X140.639 Y118.46 E.01707
G1 X132.665 Y110.486 E.35725
G1 X132.665 Y111.024 E.01707
G1 X140.1 Y118.46 E.33311
G1 X139.561 Y118.46 E.01707
G1 X132.665 Y111.563 E.30897
G1 X132.665 Y112.102 E.01707
G1 X139.022 Y118.46 E.28483
G1 X138.484 Y118.46 E.01707
G1 X132.665 Y112.641 E.26069
G1 X132.665 Y113.18 E.01707
G1 X137.945 Y118.46 E.23656
G1 X137.406 Y118.46 E.01707
G1 X132.665 Y113.718 E.21242
G1 X132.665 Y114.257 E.01707
G1 X136.867 Y118.46 E.18828
G1 X136.328 Y118.46 E.01707
G1 X132.665 Y114.796 E.16414
G1 X132.665 Y115.335 E.01707
G1 X135.79 Y118.46 E.14
G1 X135.251 Y118.46 E.01707
G1 X132.665 Y115.874 E.11586
G1 X132.665 Y116.412 E.01707
G1 X134.712 Y118.46 E.09173
G1 X134.173 Y118.46 E.01707
G1 X132.665 Y116.951 E.06759
G1 X132.665 Y117.49 E.01707
G1 X133.634 Y118.46 E.04345
G1 X133.096 Y118.46 E.01707
G1 X132.495 Y117.859 E.02691
M204 S1000
; stop printing object motorHolder_Base.stl id:0 copy 0
; printing object motorHolder_Top.stl id:1 copy 0
;WIPE_START
G1 F8640
G1 X133.096 Y118.46 E-.19617
G1 X133.634 Y118.46 E-.12441
G1 X132.665 Y117.49 E-.3167
G1 X132.665 Y116.951 E-.12441
G1 X133.241 Y117.528 E-.18832
;WIPE_END
G1 E-.05 F2100
G1 Z.4 F720
G1 X101.384 Y118.234 F10800
G1 Z.2 F720
G1 E1 F2100
M204 S800
;TYPE:Perimeter
;WIDTH:0.419999
G1 F1200
G1 X101.37 Y118.308 E.00237
G1 X101.37 Y119.743 E.04497
G1 X96.36 Y119.743 E.15707
G1 X96.36 Y90.257 E.92449
G1 X119.899 Y90.257 E.73803
G1 X119.899 Y119.743 E.92449
G1 X115.044 Y119.743 E.15221
G1 X115.044 Y118.308 E.04497
G1 X115.008 Y118.108 E.00637
G1 X114.94 Y117.981 E.00453
G1 X114.751 Y117.813 E.00793
G1 X114.479 Y117.743 E.00882
G1 X101.936 Y117.743 E.39328
G1 X101.764 Y117.769 E.00545
G1 X101.569 Y117.878 E.00699
G1 X101.41 Y118.098 E.00851
G1 X101.396 Y118.175 E.00247
M204 S1000
G1 X101.747 Y118.308 F10800
M204 S800
;TYPE:External perimeter
G1 F1200
G1 X101.747 Y120.12 E.0568
G1 X95.983 Y120.12 E.18072
G1 X95.983 Y89.88 E.94813
G1 X120.276 Y89.88 E.76167
G1 X120.276 Y120.12 E.94813
G1 X114.667 Y120.12 E.17586
G1 X114.667 Y118.308 E.0568
G1 X114.602 Y118.166 E.0049
G1 X114.479 Y118.12 E.00415
G1 X101.936 Y118.12 E.39328
G1 X101.813 Y118.165 E.00408
G1 X101.772 Y118.254 E.00308
M204 S1000
G1 X101.361 Y118.412 F10800
;WIPE_START
G1 F8640
G1 X101.747 Y120.12 E-.43089
G1 X99.499 Y120.12 E-.51911
;WIPE_END
G1 E-.05 F2100
G1 Z.4 F720
G1 X119.786 Y91.139 F10800
G1 Z.2 F720
G1 E1 F2100
M204 S800
;TYPE:Solid infill
;WIDTH:0.422785
G1 F1200
G1 X119.187 Y90.54 E.02673
G1 X118.65 Y90.54 E.01697
G1 X119.616 Y91.506 E.04315
G1 X119.616 Y92.043 E.01697
G1 X118.113 Y90.54 E.06715
G1 X117.575 Y90.54 E.01697
G1 X119.616 Y92.581 E.09114
G1 X119.616 Y93.118 E.01697
G1 X117.038 Y90.54 E.11514
G1 X116.501 Y90.54 E.01697
G1 X119.616 Y93.655 E.13914
G1 X119.616 Y94.192 E.01697
G1 X115.964 Y90.54 E.16314
G1 X115.427 Y90.54 E.01697
G1 X119.616 Y94.729 E.18713
G1 X119.616 Y95.267 E.01697
G1 X114.889 Y90.54 E.21113
G1 X114.352 Y90.54 E.01697
G1 X119.616 Y95.804 E.23513
G1 X119.616 Y96.341 E.01697
G1 X113.815 Y90.54 E.25912
G1 X113.278 Y90.54 E.01697
G1 X119.616 Y96.878 E.28312
G1 X119.616 Y97.415 E.01697
G1 X112.741 Y90.54 E.30712
G1 X112.203 Y90.54 E.01697
M73 P5 R39
M73 Q5 S39
G1 X119.616 Y97.953 E.33111
G1 X119.616 Y98.49 E.01697
G1 X111.666 Y90.54 E.35511
G1 X111.129 Y90.54 E.01697
G1 X119.616 Y99.027 E.37911
G1 X119.616 Y99.564 E.01697
G1 X110.592 Y90.54 E.4031
G1 X110.055 Y90.54 E.01697
G1 X119.616 Y100.102 E.4271
G1 X119.616 Y100.639 E.01697
G1 X109.517 Y90.54 E.4511
G1 X108.98 Y90.54 E.01697
G1 X119.616 Y101.176 E.47509
G1 X119.616 Y101.713 E.01697
G1 X108.443 Y90.54 E.49909
G1 X107.906 Y90.54 E.01697
G1 X119.616 Y102.25 E.52309
G1 X119.616 Y102.788 E.01697
G1 X107.368 Y90.54 E.54708
G1 X106.831 Y90.54 E.01697
G1 X119.616 Y103.325 E.57108
G1 X119.616 Y103.862 E.01697
G1 X106.294 Y90.54 E.59508
G1 X105.757 Y90.54 E.01697
G1 X119.616 Y104.399 E.61907
G1 X119.616 Y104.936 E.01697
G1 X105.22 Y90.54 E.64307
G1 X104.682 Y90.54 E.01697
G1 X119.616 Y105.474 E.66707
G1 X119.616 Y106.011 E.01697
G1 X104.145 Y90.54 E.69106
G1 X103.608 Y90.54 E.01697
G1 X119.616 Y106.548 E.71506
G1 X119.616 Y107.085 E.01697
M73 P5 R38
G1 X103.071 Y90.54 E.73906
G1 X102.534 Y90.54 E.01697
G1 X119.616 Y107.622 E.76305
G1 X119.616 Y108.16 E.01697
G1 X101.996 Y90.54 E.78705
G1 X101.459 Y90.54 E.01697
G1 X119.616 Y108.697 E.81105
G1 X119.616 Y109.234 E.01697
G1 X100.922 Y90.54 E.83504
G1 X100.385 Y90.54 E.01697
G1 X119.616 Y109.771 E.85904
G1 X119.616 Y110.309 E.01697
G1 X99.848 Y90.54 E.88304
G1 X99.31 Y90.54 E.01697
G1 X119.616 Y110.846 E.90703
G1 X119.616 Y111.383 E.01697
M73 P6 R38
M73 Q6 S39
G1 X98.773 Y90.54 E.93103
G1 X98.236 Y90.54 E.01697
G1 X119.616 Y111.92 E.95503
G1 X119.616 Y112.457 E.01697
M73 Q6 S38
G1 X97.699 Y90.54 E.97902
G1 X97.161 Y90.54 E.01697
G1 X119.616 Y112.995 E1.00302
G1 X119.616 Y113.532 E.01697
G1 X96.643 Y90.559 E1.02618
G1 X96.643 Y91.096 E.01697
G1 X119.616 Y114.069 E1.02618
G1 X119.616 Y114.606 E.01697
G1 X96.643 Y91.633 E1.02618
G1 X96.643 Y92.171 E.01697
G1 X119.616 Y115.143 E1.02618
G1 X119.616 Y115.681 E.01697
G1 X96.643 Y92.708 E1.02618
G1 X96.643 Y93.245 E.01697
G1 X119.616 Y116.218 E1.02618
G1 X119.616 Y116.755 E.01697
G1 X96.643 Y93.782 E1.02618
G1 X96.643 Y94.319 E.01697
G1 X119.616 Y117.292 E1.02618
G1 X119.616 Y117.829 E.01697
G1 X96.643 Y94.857 E1.02618
G1 X96.643 Y95.394 E.01697
G1 X119.616 Y118.367 E1.02618
G1 X119.616 Y118.904 E.01697
G1 X96.643 Y95.931 E1.02618
G1 X96.643 Y96.468 E.01697
M73 P7 R38
M73 Q7 S38
G1 X119.616 Y119.441 E1.02618
G1 X119.616 Y119.46 E.00059
G1 X119.097 Y119.46 E.01638
G1 X96.643 Y97.006 E1.00302
G1 X96.643 Y97.543 E.01697
G1 X118.56 Y119.46 E.97902
G1 X118.023 Y119.46 E.01697
G1 X96.643 Y98.08 E.95502
G1 X96.643 Y98.617 E.01697
G1 X117.486 Y119.46 E.93103
G1 X116.949 Y119.46 E.01697
G1 X96.643 Y99.154 E.90703
G1 X96.643 Y99.692 E.01697
G1 X114.411 Y117.46 E.7937
G1 X114.737 Y117.499 E.01036
G1 X114.888 Y117.565 E.0052
G1 X115.037 Y117.668 E.00572
G1 X115.171 Y117.817 E.00633
G1 X115.274 Y118.01 E.00692
G1 X115.327 Y118.375 E.01165
G1 X116.411 Y119.46 E.04844
G1 X115.874 Y119.46 E.01697
G1 X115.327 Y118.913 E.02444
G1 X115.327 Y119.45 E.01697
G1 X115.507 Y119.63 E.00803
M204 S1000
;WIPE_START
G1 F8640
G1 X115.327 Y119.45 E-.05867
G1 X115.327 Y118.913 E-.12404
G1 X115.874 Y119.46 E-.17869
G1 X116.411 Y119.46 E-.12404
G1 X115.327 Y118.375 E-.35411
G1 X115.274 Y118.01 E-.08515
G1 X115.223 Y117.914 E-.0253
;WIPE_END
G1 E-.05 F2100
G1 Z.4 F720
G1 X114.044 Y117.63 F10800
G1 Z.2 F720
G1 E1 F2100
M204 S800
G1 F1200
G1 X96.643 Y100.229 E.77729
G1 X96.643 Y100.766 E.01697
G1 X113.338 Y117.461 E.74573
G1 X112.801 Y117.461 E.01696
G1 X96.643 Y101.303 E.72175
G1 X96.643 Y101.84 E.01697
G1 X112.264 Y117.461 E.69777
G1 X111.727 Y117.462 E.01696
G1 X96.643 Y102.378 E.67379
G1 X96.643 Y102.915 E.01697
G1 X111.19 Y117.462 E.6498
G1 X110.653 Y117.462 E.01696
G1 X96.643 Y103.452 E.62582
G1 X96.643 Y103.989 E.01697
G1 X110.116 Y117.463 E.60184
G1 X109.579 Y117.463 E.01696
G1 X96.643 Y104.526 E.57786
G1 X96.643 Y105.064 E.01697
G1 X109.043 Y117.463 E.55388
G1 X108.506 Y117.464 E.01696
G1 X96.643 Y105.601 E.52989
G1 X96.643 Y106.138 E.01697
G1 X107.969 Y117.464 E.50591
G1 X107.432 Y117.464 E.01696
G1 X96.643 Y106.675 E.48193
G1 X96.643 Y107.213 E.01697
M73 P8 R37
M73 Q8 S38
G1 X106.895 Y117.465 E.45795
G1 X106.358 Y117.465 E.01696
G1 X96.643 Y107.75 E.43397
G1 X96.643 Y108.287 E.01697
G1 X105.821 Y117.465 E.40998
G1 X105.284 Y117.466 E.01696
G1 X96.643 Y108.824 E.386
G1 X96.643 Y109.361 E.01697
G1 X104.748 Y117.466 E.36202
G1 X104.211 Y117.466 E.01696
G1 X96.643 Y109.899 E.33804
G1 X96.643 Y110.436 E.01697
G1 X103.674 Y117.466 E.31406
G1 X103.137 Y117.467 E.01696
G1 X96.643 Y110.973 E.29007
G1 X96.643 Y111.51 E.01697
G1 X102.6 Y117.467 E.26609
G1 X102.063 Y117.467 E.01696
G1 X96.643 Y112.047 E.24211
G1 X96.643 Y112.585 E.01697
G1 X101.597 Y117.539 E.2213
G1 X101.535 Y117.559 E.00207
