; generated by PrusaSlicer 2.5.0+MacOS-arm64 on 2023-06-26 at 14:15:30 UTC


;
;
; 

; external perimeters extrusion width = 0.45mm
; perimeters extrusion width = 0.45mm
; infill extrusion width = 0.45mm
; solid infill extrusion width = 0.45mm
; top infill extrusion width = 0.40mm
; first layer extrusion width = 0.42mm

M73 P0 R5
M73 Q0 S5
M201 X1000 Y1000 Z200 E5000 ; sets maximum accelerations, mm/sec^2
M203 X200 Y200 Z12 E120 ; sets maximum feedrates, mm / sec
M204 P1250 R1250 T1250 ; sets acceleration (P, T) and retract acceleration (R), mm/sec^2
M205 X8.00 Y8.00 Z0.40 E4.50 ; sets the jerk limits, mm/sec
M205 S0 T0 ; sets the minimum extruding and travel feed rate, mm/sec
M107
;TYPE:Custom
M862.3 P "MK3S" ; printer model check
M862.1 P0.4 ; nozzle diameter check
M115 U3.12.1 ; tell printer latest fw version
G90 ; use absolute coordinates
M83 ; extruder relative mode
M104 S240 ; set extruder temp
M140 S85 ; set bed temp
M190 S85 ; wait for bed temp
M109 S240 ; wait for extruder temp
G28 W ; home all without mesh bed level
G80 ; mesh bed leveling

G1 Z0.2 F720
G1 Y-3 F1000 ; go outside print area
G92 E0
G1 X60 E9 F1000 ; intro line
G1 X100 E12.5 F1000 ; intro line

G92 E0
M221 S95

; Don't change E values below. Excessive value can damage the printer.
M907 E430 ; set extruder motor current
G21 ; set units to millimeters
G90 ; use absolute coordinates
M83 ; use relative distances for extrusion
M900 K0.08 ; Filament gcode LA 1.5
M900 K45 ; Filament gcode LA 1.0
M107
;LAYER_CHANGE
;Z:0.2
;HEIGHT:0.2
;BEFORE_LAYER_CHANGE
G92 E0.0
;0.2


M73 P1 R5
M73 Q1 S5
G1 E-1 F2100
G1 Z.2 F720
;AFTER_LAYER_CHANGE
;0.2
G1 Z.4
G1 X119.36 Y100.926 F10800
G1 Z.2 F720
M73 P2 R5
M73 Q2 S5
G1 E1 F2100
M204 S800
;TYPE:Skirt/Brim
;WIDTH:0.42
G1 F962
G1 X120.256 Y99.91 E.0425
G1 X121.347 Y99.078 E.043
G1 X122.575 Y98.479 E.04284
G1 X123.892 Y98.131 E.04271
G1 X125.25 Y98.047 E.04266
G1 X126.601 Y98.229 E.04276
G1 X127.895 Y98.673 E.04287
G1 X129.073 Y99.359 E.04275
G1 X130.091 Y100.258 E.04259
G1 X130.917 Y101.339 E.04265
G1 X131.518 Y102.566 E.04282
G1 X131.867 Y103.882 E.0427
G1 X131.953 Y105.249 E.04295
G1 X131.772 Y106.598 E.04267
G1 X131.33 Y107.887 E.04273
G1 X130.639 Y109.075 E.0431
G1 X129.746 Y110.087 E.04231
G1 X128.651 Y110.923 E.04319
G1 X127.431 Y111.519 E.04261
G1 X126.108 Y111.869 E.04289
G1 X124.75 Y111.953 E.04266
G1 X123.393 Y111.77 E.04294
G1 X122.111 Y111.329 E.04252
G1 X120.927 Y110.641 E.04292
G1 X119.909 Y109.742 E.04259
G1 X119.078 Y108.653 E.04295
G1 X118.479 Y107.427 E.04276
G1 X118.133 Y106.118 E.04247
G1 X118.047 Y104.745 E.04313
M73 Q3 S5
G1 X118.229 Y103.399 E.0426
G1 X118.667 Y102.12 E.04238
G1 X119.329 Y100.978 E.0414
M204 S1000
G1 X119.654 Y101.167 F10800
M204 S800
M73 P3 R5
G1 F962
G1 X120.517 Y100.183 E.04105
G1 X121.549 Y99.397 E.04066
G1 X122.71 Y98.83 E.04052
G1 X123.957 Y98.503 E.0404
G1 X125.241 Y98.424 E.04035
G1 X126.519 Y98.597 E.04042
G1 X127.742 Y99.018 E.04056
G1 X128.856 Y99.667 E.04042
G1 X129.819 Y100.518 E.0403
G1 X130.598 Y101.541 E.04032
G1 X131.166 Y102.701 E.0405
G1 X131.496 Y103.947 E.04039
G1 X131.576 Y105.241 E.04065
G1 X131.404 Y106.516 E.04036
G1 X130.986 Y107.734 E.04038
G1 X130.331 Y108.858 E.04078
G1 X129.486 Y109.815 E.04002
G1 X128.45 Y110.604 E.04084
G1 X127.295 Y111.168 E.04029
G1 X126.043 Y111.497 E.04058
G1 X124.759 Y111.576 E.04035
G1 X123.476 Y111.402 E.0406
G1 X122.263 Y110.985 E.04021
G1 X121.144 Y110.333 E.04061
G1 X120.181 Y109.482 E.04029
G1 X119.397 Y108.451 E.04061
G1 X118.831 Y107.292 E.04045
G1 X118.504 Y106.053 E.04016
G1 X118.424 Y104.755 E.0408
G1 X118.597 Y103.481 E.0403
G1 X119.012 Y102.272 E.04007
G1 X119.624 Y101.219 E.03819
M204 S1000
G1 X119.949 Y101.408 F10800
M204 S800
G1 F962
G1 X120.778 Y100.455 E.03961
G1 X121.751 Y99.715 E.03832
G1 X122.846 Y99.182 E.0382
G1 X124.021 Y98.874 E.03809
G1 X125.232 Y98.801 E.03805
G1 X126.436 Y98.965 E.03809
M73 Q4 S5
G1 X127.589 Y99.363 E.03825
G1 X128.639 Y99.976 E.0381
G1 X129.546 Y100.779 E.03801
G1 X130.28 Y101.743 E.03798
M73 P4 R5
G1 X130.814 Y102.837 E.03818
G1 X131.124 Y104.011 E.03808
G1 X131.199 Y105.232 E.03834
G1 X131.035 Y106.434 E.03805
G1 X130.641 Y107.582 E.03804
G1 X130.023 Y108.641 E.03846
G1 X129.225 Y109.542 E.03774
G1 X128.248 Y110.286 E.0385
G1 X127.159 Y110.816 E.03797
G1 X125.979 Y111.126 E.03826
G1 X124.768 Y111.199 E.03805
G1 X123.558 Y111.034 E.03826
G1 X122.416 Y110.64 E.0379
G1 X121.361 Y110.024 E.03829
G1 X120.454 Y109.221 E.038
G1 X119.715 Y108.249 E.03826
G1 X119.183 Y107.156 E.03813
G1 X118.876 Y105.989 E.03785
G1 X118.801 Y104.764 E.03848
G1 X118.965 Y103.563 E.038
G1 X119.357 Y102.424 E.03776
G1 X119.918 Y101.46 E.03498
M204 S1000
G1 X120.243 Y101.649 F10800
M204 S800
G1 F962
G1 X120.284 Y101.578 E.00259
G1 X121.038 Y100.727 E.03563
G1 X121.952 Y100.034 E.03597
G1 X122.982 Y99.534 E.03588
G1 X124.086 Y99.246 E.03578
G1 X125.224 Y99.178 E.03574
G1 X126.353 Y99.333 E.03575
G1 X127.437 Y99.707 E.03594
G1 X128.422 Y100.284 E.03578
G1 X129.274 Y101.04 E.03572
G1 X129.961 Y101.945 E.03564
G1 X130.462 Y102.973 E.03585
G1 X130.753 Y104.076 E.03577
G1 X130.822 Y105.223 E.03603
G1 X130.667 Y106.353 E.03575
G1 X130.296 Y107.429 E.03569
G1 X129.714 Y108.424 E.03613
G1 X128.964 Y109.27 E.03545
G1 X128.046 Y109.967 E.03615
M73 Q5 S5
G1 X127.023 Y110.464 E.03565
G1 X125.914 Y110.754 E.03595
G1 X124.776 Y110.822 E.03574
G1 X123.641 Y110.666 E.03593
M73 P5 R5
G1 X122.568 Y110.295 E.03559
G1 X121.578 Y109.716 E.03598
G1 X120.726 Y108.96 E.0357
G1 X120.034 Y108.047 E.03592
G1 X119.535 Y107.02 E.03581
G1 X119.247 Y105.924 E.03554
G1 X119.178 Y104.773 E.03615
G1 X119.333 Y103.645 E.0357
G1 X119.702 Y102.576 E.03546
G1 X120.212 Y101.701 E.03176
M204 S1000
; printing object fixer.stl id:0 copy 0
;WIPE_START
G1 F8640
G1 X120.284 Y101.578 E-.03296
G1 X121.038 Y100.727 E-.26239
G1 X121.952 Y100.034 E-.26492
G1 X122.982 Y99.534 E-.26426
G1 X123.508 Y99.397 E-.12547
;WIPE_END
G1 E-.05 F2100
G1 Z.4 F720
G1 X122.431 Y104.874 F10800
G1 Z.2 F720
G1 E1 F2100
M204 S800
;TYPE:Perimeter
;WIDTH:0.595655
G1 F962
G1 X122.505 Y104.375 E.02317
G1 X122.675 Y103.9 E.02317
G1 X122.934 Y103.468 E.02318
G1 X123.273 Y103.094 E.02317
G1 X123.678 Y102.794 E.02317
G1 X124.134 Y102.578 E.02317
G1 X124.623 Y102.456 E.02317
G1 X125.125 Y102.431 E.0231
G1 X125.625 Y102.505 E.02325
G1 X126.1 Y102.675 E.02317
G1 X126.532 Y102.934 E.02318
G1 X126.906 Y103.273 E.02317
G1 X127.206 Y103.678 E.02317
G1 X127.421 Y104.134 E.02317
G1 X127.544 Y104.623 E.02318
G1 X127.569 Y105.126 E.02317
G1 X127.495 Y105.625 E.02317
G1 X127.325 Y106.1 E.02317
G1 X127.066 Y106.532 E.02318
G1 X126.727 Y106.906 E.02317
G1 X126.322 Y107.206 E.02317
G1 X125.866 Y107.422 E.02317
G1 X125.377 Y107.544 E.02317
G1 X124.874 Y107.569 E.02317
G1 X124.375 Y107.495 E.02318
G1 X123.9 Y107.325 E.02317
G1 X123.468 Y107.066 E.02317
G1 X123.094 Y106.727 E.02317
G1 X122.794 Y106.322 E.02317
G1 X122.579 Y105.866 E.02317
G1 X122.456 Y105.377 E.02318
G1 X122.434 Y104.934 E.02041
M204 S1000
G1 X121.967 Y104.837 F10800
M204 S800
;TYPE:External perimeter
;WIDTH:0.419999
G1 F962
G1 X122.052 Y104.262 E.01823
G1 X122.253 Y103.701 E.01868
G1 X122.559 Y103.19 E.01868
G1 X122.959 Y102.748 E.01868
G1 X123.438 Y102.393 E.01868
G1 X123.976 Y102.139 E.01868
G1 X124.554 Y101.994 E.01868
G1 X125.147 Y101.965 E.01862
G1 X125.738 Y102.052 E.01874
G1 X126.299 Y102.253 E.01868
G1 X126.81 Y102.559 E.01868
G1 X127.252 Y102.959 E.01868
G1 X127.607 Y103.438 E.01868
G1 X127.861 Y103.976 E.01868
G1 X128.006 Y104.554 E.01868
G1 X128.035 Y105.149 E.01868
G1 X127.948 Y105.738 E.01868
G1 X127.747 Y106.299 E.01868
G1 X127.441 Y106.81 E.01868
G1 X127.041 Y107.252 E.01868
G1 X126.562 Y107.607 E.01868
M73 Q6 S5
G1 X126.024 Y107.861 E.01868
G1 X125.446 Y108.006 E.01868
G1 X124.851 Y108.035 E.01868
G1 X124.262 Y107.948 E.01868
G1 X123.701 Y107.747 E.01868
G1 X123.19 Y107.441 E.01868
G1 X122.748 Y107.041 E.01868
G1 X122.393 Y106.562 E.01868
G1 X122.139 Y106.024 E.01868
M73 P6 R5
G1 X121.994 Y105.446 E.01868
G1 X121.967 Y104.897 E.01724
M204 S1000
G1 X122.323 Y104.655 F10800
;WIPE_START
G1 F8640
G1 X122.052 Y104.262 E-.14795
G1 X122.253 Y103.701 E-.13756
G1 X122.559 Y103.19 E-.13758
G1 X122.959 Y102.748 E-.13754
G1 X123.438 Y102.393 E-.13756
G1 X123.976 Y102.139 E-.13756
G1 X124.456 Y102.018 E-.11425
;WIPE_END
G1 E-.05 F2100
G1 Z.4 F720
G1 X125.902 Y103.201 F10800
G1 Z.2 F720
G1 E1 F2100
M204 S800
;TYPE:Perimeter
;WIDTH:0.595667
G1 F962
G1 X126.308 Y103.462 E.0222
;WIDTH:0.58908
G1 X126.659 Y103.849 E.02372
;WIDTH:0.595652
G1 X126.9 Y104.32 E.02432
G1 X127.012 Y104.837 E.02433
;WIDTH:0.589059
G1 X126.987 Y105.359 E.02374
;WIDTH:0.595654
G1 X126.824 Y105.863 E.02431
G1 X126.538 Y106.308 E.02431
;WIDTH:0.589059
G1 X126.151 Y106.659 E.02374
;WIDTH:0.595657
G1 X125.68 Y106.9 E.02432
G1 X125.163 Y107.012 E.02432
;WIDTH:0.589058
G1 X124.641 Y106.987 E.02373
;WIDTH:0.595668
G1 X124.137 Y106.824 E.02432
G1 X123.692 Y106.538 E.02432
;WIDTH:0.589083
G1 X123.341 Y106.151 E.02372
;WIDTH:0.595653
G1 X123.1 Y105.68 E.02432
G1 X122.988 Y105.163 E.02433
;WIDTH:0.589059
G1 X123.013 Y104.641 E.02374
;WIDTH:0.595655
G1 X123.176 Y104.137 E.02431
G1 X123.462 Y103.692 E.02431
;WIDTH:0.58906
G1 X123.849 Y103.341 E.02374
;WIDTH:0.595658
G1 X124.32 Y103.1 E.02432
G1 X124.837 Y102.988 E.02432
;WIDTH:0.589076
G1 X125.359 Y103.013 E.02373
;WIDTH:0.595667
G1 X125.85 Y103.172 E.02369
M204 S1000
G1 X125.691 Y103.614 F10800
M204 S800
;TYPE:External perimeter
;WIDTH:0.419999
G1 F962
G1 X126.06 Y103.858 E.01386
G1 X126.332 Y104.202 E.01375
G1 X126.516 Y104.639 E.01489
G1 X126.551 Y105.076 E.01374
G1 X126.461 Y105.543 E.01489
G1 X126.247 Y105.925 E.01375
G1 X125.914 Y106.263 E.01487
G1 X125.523 Y106.462 E.01375
G1 X125.058 Y106.558 E.01489
G1 X124.623 Y106.506 E.01375
G1 X124.183 Y106.327 E.01489
G1 X123.849 Y106.043 E.01375
G1 X123.583 Y105.65 E.01489
G1 X123.464 Y105.228 E.01375
G1 X123.444 Y105.095 E.00421
G1 X123.494 Y104.623 E.01488
G1 X123.673 Y104.183 E.01489
G1 X123.957 Y103.849 E.01375
G1 X124.35 Y103.583 E.01489
G1 X124.772 Y103.464 E.01374
G1 X125.247 Y103.461 E.01489
G1 X125.638 Y103.588 E.01289
M204 S1000
G1 X126.02 Y103.387 F10800
; stop printing object fixer.stl id:0 copy 0
;LAYER_CHANGE
;Z:0.4
;HEIGHT:0.2
;BEFORE_LAYER_CHANGE
G92 E0.0
;0.4


;WIPE_START
G1 F8640
G1 X126.06 Y103.858 E-.11569
G1 X126.332 Y104.202 E-.10123
G1 X126.516 Y104.639 E-.10967
G1 X126.551 Y105.076 E-.10122
G1 X126.461 Y105.543 E-.10962
G1 X126.247 Y105.925 E-.10128
G1 X125.914 Y106.263 E-.10954
G1 X125.523 Y106.462 E-.10124
G1 X125.097 Y106.55 E-.1005
;WIPE_END
G1 E-.05 F2100
G1 Z.4 F720
;AFTER_LAYER_CHANGE
;0.4
M104 S250 ; set temperature
M140 S90 ; set bed temperature
G1 Z.6
G1 X125.43 Y111.911 F10800
G1 Z.4 F720
G1 E1 F2100
;TYPE:Skirt/Brim
;WIDTH:0.42
G1 F1049
G1 X124.75 Y111.953 E.02134
G1 X123.393 Y111.77 E.04294
G1 X122.111 Y111.329 E.04252
G1 X120.927 Y110.641 E.04292
G1 X119.909 Y109.742 E.04259
G1 X119.078 Y108.653 E.04295
G1 X118.479 Y107.427 E.04276
G1 X118.133 Y106.118 E.04247
G1 X118.047 Y104.745 E.04313
M73 Q7 S5
G1 X118.229 Y103.399 E.0426
G1 X118.667 Y102.12 E.04238
G1 X119.36 Y100.926 E.04328
G1 X120.256 Y99.91 E.0425
M73 P7 R5
G1 X121.347 Y99.078 E.043
G1 X122.575 Y98.479 E.04284
G1 X123.892 Y98.131 E.04271
G1 X125.25 Y98.047 E.04266
G1 X126.601 Y98.229 E.04276
G1 X127.895 Y98.673 E.04287
G1 X129.073 Y99.359 E.04275
G1 X130.091 Y100.258 E.04259
G1 X130.917 Y101.339 E.04265
G1 X131.518 Y102.566 E.04282
G1 X131.867 Y103.882 E.0427
G1 X131.953 Y105.249 E.04295
G1 X131.772 Y106.598 E.04267
G1 X131.33 Y107.887 E.04273
G1 X130.639 Y109.075 E.0431
G1 X129.746 Y110.087 E.04231
G1 X128.651 Y110.923 E.04319
G1 X127.431 Y111.519 E.04261
G1 X126.108 Y111.869 E.04289
G1 X125.489 Y111.907 E.01944
G1 X125.466 Y111.533 F10800
G1 F1049
G1 X124.759 Y111.576 E.02223
G1 X123.476 Y111.402 E.0406
G1 X122.263 Y110.985 E.04021
G1 X121.144 Y110.333 E.04061
G1 X120.181 Y109.482 E.04029
G1 X119.397 Y108.451 E.04061
G1 X118.831 Y107.292 E.04045
G1 X118.504 Y106.053 E.04016
G1 X118.424 Y104.755 E.0408
G1 X118.597 Y103.481 E.0403
G1 X119.012 Y102.272 E.04007
G1 X119.668 Y101.143 E.04093
G1 X120.517 Y100.183 E.04021
G1 X121.549 Y99.397 E.04066
G1 X122.71 Y98.83 E.04052
G1 X123.957 Y98.503 E.0404
G1 X125.241 Y98.424 E.04035
G1 X126.519 Y98.597 E.04042
G1 X127.742 Y99.018 E.04056
G1 X128.856 Y99.667 E.04042
M73 Q8 S5
G1 X129.819 Y100.518 E.0403
G1 X130.598 Y101.541 E.04032
G1 X131.166 Y102.701 E.0405
G1 X131.496 Y103.947 E.04039
M73 P8 R5
G1 X131.576 Y105.241 E.04065
G1 X131.404 Y106.516 E.04036
G1 X130.986 Y107.734 E.04038
G1 X130.331 Y108.858 E.04078
G1 X129.486 Y109.815 E.04002
G1 X128.45 Y110.604 E.04084
G1 X127.295 Y111.168 E.04029
G1 X126.043 Y111.497 E.04058
G1 X125.526 Y111.529 E.01625
G1 X125.504 Y111.155 F10800
G1 F1049
G1 X124.768 Y111.199 E.02312
G1 X123.558 Y111.034 E.03826
G1 X122.416 Y110.64 E.0379
G1 X121.361 Y110.024 E.03829
G1 X120.454 Y109.221 E.038
G1 X119.715 Y108.249 E.03826
G1 X119.183 Y107.156 E.03813
G1 X118.876 Y105.989 E.03785
G1 X118.801 Y104.764 E.03848
G1 X118.965 Y103.563 E.038
G1 X119.357 Y102.424 E.03776
G1 X119.976 Y101.361 E.03858
G1 X120.778 Y100.455 E.03792
G1 X121.751 Y99.715 E.03832
G1 X122.846 Y99.182 E.0382
G1 X124.021 Y98.874 E.03809
G1 X125.232 Y98.801 E.03805
G1 X126.436 Y98.965 E.03809
G1 X127.589 Y99.363 E.03825
G1 X128.639 Y99.976 E.0381
G1 X129.546 Y100.779 E.03801
G1 X130.28 Y101.743 E.03798
G1 X130.814 Y102.837 E.03818
G1 X131.124 Y104.011 E.03808
G1 X131.199 Y105.232 E.03834
G1 X131.035 Y106.434 E.03805
G1 X130.641 Y107.582 E.03804
G1 X130.023 Y108.641 E.03846
G1 X129.225 Y109.542 E.03774
G1 X128.248 Y110.286 E.0385
G1 X127.159 Y110.816 E.03797
G1 X125.979 Y111.126 E.03826
G1 X125.564 Y111.151 E.01304
G1 X125.541 Y110.777 F10800
G1 F1049
M73 Q9 S5
G1 X124.776 Y110.822 E.02403
G1 X123.641 Y110.666 E.03593
G1 X122.568 Y110.295 E.03559
G1 X121.578 Y109.716 E.03598
G1 X120.726 Y108.96 E.0357
G1 X120.034 Y108.047 E.03592
M73 P9 R5
G1 X119.535 Y107.02 E.03581
G1 X119.247 Y105.924 E.03554
M73 P9 R4
G1 X119.178 Y104.773 E.03615
G1 X119.333 Y103.645 E.0357
G1 X119.702 Y102.576 E.03546
G1 X120.284 Y101.578 E.03624
G1 X121.038 Y100.727 E.03563
G1 X121.952 Y100.034 E.03597
G1 X122.982 Y99.534 E.03588
G1 X124.086 Y99.246 E.03578
G1 X125.224 Y99.178 E.03574
G1 X126.353 Y99.333 E.03575
G1 X127.437 Y99.707 E.03594
G1 X128.422 Y100.284 E.03578
G1 X129.274 Y101.04 E.03572
G1 X129.961 Y101.945 E.03564
G1 X130.462 Y102.973 E.03585
M73 Q9 S4
G1 X130.753 Y104.076 E.03577
G1 X130.822 Y105.223 E.03603
G1 X130.667 Y106.353 E.03575
G1 X130.296 Y107.429 E.03569
G1 X129.714 Y108.424 E.03613
G1 X128.964 Y109.27 E.03545
G1 X128.046 Y109.967 E.03615
G1 X127.023 Y110.464 E.03565
G1 X125.914 Y110.754 E.03595
G1 X125.601 Y110.773 E.00983
; printing object fixer.stl id:0 copy 0
;WIPE_START
G1 F8640
G1 X124.776 Y110.822 E-.19081
G1 X123.641 Y110.666 E-.2646
G1 X122.568 Y110.295 E-.26208
G1 X121.699 Y109.787 E-.23251
;WIPE_END
G1 E-.05 F2100
G1 Z.6 F720
G1 X122.188 Y104.862 F10800
G1 Z.4 F720
G1 E1 F2100
M204 S800
;TYPE:Perimeter
;WIDTH:0.449999
G1 F1049
G1 X122.269 Y104.316 E.01868
G1 X122.455 Y103.796 E.01868
G1 X122.739 Y103.323 E.01868
G1 X123.11 Y102.914 E.01868
G1 X123.553 Y102.586 E.01868
G1 X124.052 Y102.35 E.01868
G1 X124.587 Y102.215 E.01868
G1 X125.133 Y102.188 E.0185
G1 X125.684 Y102.27 E.01886
G1 X126.204 Y102.455 E.01867
G1 X126.677 Y102.739 E.01868
G1 X127.086 Y103.11 E.01868
G1 X127.414 Y103.553 E.01868
G1 X127.65 Y104.052 E.01868
G1 X127.784 Y104.587 E.01868
G1 X127.812 Y105.138 E.01868
G1 X127.731 Y105.684 E.01868
G1 X127.545 Y106.204 E.01868
G1 X127.261 Y106.677 E.01868
G1 X126.89 Y107.086 E.01868
G1 X126.447 Y107.414 E.01868
G1 X125.948 Y107.65 E.01868
G1 X125.413 Y107.784 E.01868
G1 X124.862 Y107.812 E.01868
G1 X124.316 Y107.731 E.01868
G1 X123.796 Y107.545 E.01868
M73 Q10 S4
G1 X123.323 Y107.261 E.01868
G1 X122.914 Y106.89 E.01868
G1 X122.586 Y106.447 E.01868
G1 X122.35 Y105.948 E.01868
G1 X122.216 Y105.413 E.01868
G1 X122.191 Y104.922 E.01665
M204 S1000
G1 X121.784 Y104.814 F10800
M204 S800
;TYPE:External perimeter
