; generated by PrusaSlicer 2.5.0+MacOS-arm64 on 2023-05-19 at 12:51:27 UTC


;
;
; 

; external perimeters extrusion width = 0.60mm
; perimeters extrusion width = 0.50mm
; infill extrusion width = 0.50mm
; solid infill extrusion width = 0.50mm
; top infill extrusion width = 0.45mm
; first layer extrusion width = 0.42mm

M73 P0 R30
M73 Q0 S30
M201 X1000 Y1000 Z200 E5000 ; sets maximum accelerations, mm/sec^2
M203 X200 Y200 Z12 E120 ; sets maximum feedrates, mm / sec
M204 P1250 R1250 T1250 ; sets acceleration (P, T) and retract acceleration (R), mm/sec^2
M205 X8.00 Y8.00 Z0.40 E4.50 ; sets the jerk limits, mm/sec
M205 S0 T0 ; sets the minimum extruding and travel feed rate, mm/sec
M107
;TYPE:Custom
M862.3 P "MK3S" ; printer model check
M862.1 P0.4 ; nozzle diameter check
M115 U3.12.1 ; tell printer latest fw version
G90 ; use absolute coordinates
M83 ; extruder relative mode
M104 S215 ; set extruder temp
M140 S60 ; set bed temp
M190 S60 ; wait for bed temp
M109 S215 ; wait for extruder temp
G28 W ; home all without mesh bed level
G80 ; mesh bed leveling

G1 Z0.2 F720
G1 Y-3 F1000 ; go outside print area
G92 E0
G1 X60 E9 F1000 ; intro line
G1 X100 E12.5 F1000 ; intro line

G92 E0
M221 S95

; Don't change E values below. Excessive value can damage the printer.

M907 E538 ; set extruder motor current
G21 ; set units to millimeters
G90 ; use absolute coordinates
M83 ; use relative distances for extrusion
M900 K0.05 ; Filament gcode LA 1.5
M900 K30 ; Filament gcode LA 1.0
M107
;LAYER_CHANGE
;Z:0.2
;HEIGHT:0.2
;BEFORE_LAYER_CHANGE
G92 E0.0
;0.2


G1 E-.8 F2100
G1 Z.4 F720
;AFTER_LAYER_CHANGE
;0.2
G1 X112.639 Y83.563 F10800
G1 Z.2 F720
G1 E.8 F2100
M204 S800
;TYPE:Skirt/Brim
;WIDTH:0.42
G1 F1200
G1 X113.705 Y82.55 E.04612
G1 X115 Y82.227 E.04186
G1 X120 Y82.227 E.15677
G1 X121.227 Y82.515 E.03951
G1 X136.227 Y89.978 E.52531
G1 X137.321 Y90.961 E.04612
G1 X137.754 Y92.444 E.04844
G1 X137.754 Y117.556 E.78738
G1 X137.361 Y118.974 E.04612
G1 X136.227 Y120.022 E.04844
G1 X121.227 Y127.485 E.52531
G1 X120 Y127.773 E.03951
G1 X115 Y127.773 E.15677
G1 X113.583 Y127.381 E.04612
G1 X112.569 Y126.314 E.04612
G1 X112.246 Y125.019 E.04186
G1 X112.246 Y84.981 E1.25537
G1 X112.623 Y83.621 E.04424
M204 S1000
G1 X112.997 Y83.733 F10800
M204 S800
G1 F1200
G1 X113.015 Y83.674 E.00195
G1 X114.06 Y82.797 E.04278
G1 X115 Y82.604 E.03008
G1 X120 Y82.604 E.15677
G1 X121.059 Y82.853 E.0341
G1 X136.059 Y90.316 E.52531
G1 X137.055 Y91.248 E.04278
G1 X137.377 Y92.444 E.03882
G1 X137.377 Y117.556 E.78738
G1 X136.985 Y118.863 E.04278
G1 X136.059 Y119.684 E.03882
G1 X121.059 Y127.147 E.52531
G1 X120 Y127.396 E.0341
G1 X115 Y127.396 E.15677
G1 X113.693 Y127.005 E.04278
G1 X112.817 Y125.959 E.04278
G1 X112.623 Y125.019 E.03008
G1 X112.623 Y84.981 E1.25537
G1 X112.979 Y83.791 E.03895
M204 S1000
; printing object motorHolder.stl id:0 copy 0
;WIPE_START
M73 P1 R30
M73 Q1 S30
G1 F8640
G1 X113.015 Y83.674 E-.0282
G1 X114.06 Y82.797 E-.31505
G1 X115 Y82.604 E-.22155
G1 X115.845 Y82.604 E-.1952
;WIPE_END
G1 E-.04 F2100
G1 Z.6 F720
G1 X119.756 Y116.781 F10800
G1 Z.2 F720
G1 E.8 F2100
M204 S800
;TYPE:Perimeter
;WIDTH:0.419999
G1 F1200
G1 X119.658 Y116.782 E.00307
G1 X119.427 Y116.892 E.00801
G1 X119.241 Y117.157 E.01015
G1 X119.213 Y117.335 E.00564
G1 X119.213 Y122.761 E.17015
G1 X115.787 Y122.761 E.10741
G1 X115.787 Y87.239 E1.1138
G1 X119.213 Y87.239 E.10741
G1 X119.213 Y92.665 E.17015
G1 X119.221 Y92.763 E.00308
G1 X119.358 Y93.043 E.00977
G1 X119.494 Y93.154 E.0055
G1 X119.779 Y93.231 E.00925
G1 X134.213 Y93.231 E.45258
G1 X134.213 Y102.527 E.29149
G1 X134.027 Y102.028 E.01672
G1 X133.644 Y101.272 E.02657
G1 X133.164 Y100.554 E.02707
G1 X132.314 Y99.611 E.03982
G1 X131.326 Y98.838 E.03932
G1 X130.474 Y98.368 E.03051
G1 X129.796 Y98.081 E.0231
G1 X128.664 Y97.778 E.03675
G1 X127.725 Y97.668 E.02964
G1 X126.471 Y97.711 E.03932
G1 X125.622 Y97.866 E.02707
G1 X124.434 Y98.266 E.03932
G1 X123.665 Y98.659 E.02707
G1 X122.705 Y99.331 E.03674
G1 X122.028 Y99.968 E.02914
G1 X121.477 Y100.633 E.02707
G1 X120.862 Y101.63 E.03675
G1 X120.492 Y102.483 E.02914
G1 X120.252 Y103.297 E.0266
G1 X120.107 Y104.156 E.02733
G1 X120.064 Y104.977 E.02576
G1 X120.12 Y105.838 E.02707
G1 X120.385 Y107.08 E.03982
G1 X120.854 Y108.243 E.03932
G1 X121.29 Y108.988 E.02707
G1 X122.017 Y109.907 E.03675
G1 X122.705 Y110.556 E.02964
G1 X123.735 Y111.27 E.03932
G1 X124.509 Y111.652 E.02707
G1 X125.702 Y112.041 E.03932
G1 X126.537 Y112.185 E.02657
G1 X127.383 Y112.23 E.02657
G1 X128.244 Y112.174 E.02707
G1 X129.471 Y111.914 E.03932
G1 X130.272 Y111.618 E.02677
G1 X131.035 Y111.228 E.02686
G1 X131.995 Y110.556 E.03675
G1 X132.683 Y109.907 E.02964
G1 X133.456 Y108.92 E.03932
G1 X133.876 Y108.184 E.02657
G1 X134.211 Y107.405 E.02658
G1 X134.213 Y116.769 E.29359
G1 X119.815 Y116.78 E.45142
M204 S1000
G1 X119.779 Y117.146 F10800
M204 S800
;TYPE:External perimeter
G1 F1200
G1 X119.661 Y117.187 E.00389
G1 X119.59 Y117.335 E.00514
G1 X119.59 Y123.139 E.18197
G1 X115.41 Y123.139 E.13106
G1 X115.41 Y86.861 E1.13744
G1 X119.59 Y86.861 E.13106
G1 X119.59 Y92.665 E.18197
G1 X119.638 Y92.791 E.00423
G1 X119.779 Y92.854 E.00482
G1 X134.59 Y92.854 E.4644
G1 X134.59 Y103.279 E.32689
;WIDTH:0.428855
G1 X134.61 Y104.959 E.05392
;WIDTH:0.430143
G1 X134.595 Y105.789 E.0267
;WIDTH:0.46514
G1 X134.568 Y106.723 E.03283
G1 X134.59 Y107.405 E.02396
;WIDTH:0.419999
G1 X134.59 Y117.146 E.30542
G1 X119.839 Y117.146 E.46252
M204 S1000
G1 X119.678 Y117.073 F10800
;WIPE_START
G1 F8640
G1 X119.661 Y117.187 E-.042
G1 X119.59 Y117.335 E-.03786
G1 X119.59 Y120.28 E-.68014
;WIPE_END
G1 E-.04 F2100
G1 Z.6 F720
G1 X133.635 Y107.789 F10800
G1 Z.2 F720
G1 E.8 F2100
M204 S800
G1 F1200
G1 X133.53 Y108.035 E.0084
G1 X133.129 Y108.732 E.02519
G1 X132.387 Y109.674 E.0376
G1 X131.779 Y110.247 E.02621
G1 X130.819 Y110.919 E.03675
G1 X130.103 Y111.281 E.02515
G1 X129.316 Y111.568 E.02626
G1 X128.168 Y111.805 E.03675
G1 X127.361 Y111.854 E.02535
G1 X126.559 Y111.808 E.02519
G1 X125.767 Y111.67 E.02519
G1 X124.628 Y111.294 E.0376
G1 X123.905 Y110.933 E.02535
G1 X122.921 Y110.247 E.0376
G1 X122.313 Y109.673 E.02621
G1 X121.586 Y108.754 E.03675
G1 X121.18 Y108.055 E.02536
G1 X120.735 Y106.941 E.0376
G1 X120.489 Y105.762 E.03776
G1 X120.44 Y104.955 E.02535
G1 X120.483 Y104.178 E.0244
G1 X120.624 Y103.361 E.02598
G1 X120.853 Y102.591 E.0252
G1 X121.183 Y101.828 E.02605
G1 X121.798 Y100.831 E.03675
G1 X122.316 Y100.21 E.02536
G1 X122.921 Y99.64 E.02605
G1 X123.881 Y98.968 E.03674
G1 X124.603 Y98.603 E.02536
G1 X125.741 Y98.224 E.0376
G1 X126.537 Y98.082 E.02535
G1 X127.736 Y98.045 E.0376
G1 X128.566 Y98.142 E.02621
G1 X129.698 Y98.446 E.03675
G1 X130.325 Y98.714 E.02139
G1 X131.138 Y99.165 E.02914
G1 X132.08 Y99.907 E.0376
G1 X132.883 Y100.805 E.03776
G1 X133.329 Y101.479 E.02536
G1 X133.69 Y102.197 E.02519
G1 X133.966 Y102.952 E.0252
;WIDTH:0.456766
G1 X134.169 Y103.729 E.02766
G1 X134.231 Y104.761 E.03558
;WIDTH:0.427869
G1 X134.212 Y105.73 E.031
;WIDTH:0.459501
G1 X134.161 Y106.13 E.01399
;WIDTH:0.491132
G1 X134.111 Y106.531 E.01505
G1 X133.979 Y106.914 E.01509
;WIDTH:0.455566
G1 X133.847 Y107.297 E.01389
;WIDTH:0.419999
G1 X133.659 Y107.734 E.01492
M204 S1000
;WIPE_START
G1 F8640
G1 X133.53 Y108.035 E-.07569
G1 X133.129 Y108.732 E-.18554
G1 X132.387 Y109.674 E-.27692
G1 X131.779 Y110.247 E-.19303
G1 X131.676 Y110.319 E-.02883
;WIPE_END
G1 E-.04 F2100
G1 Z.6 F720
G1 X133.336 Y93.344 F10800
G1 Z.2 F720
G1 E.8 F2100
M204 S800
;TYPE:Solid infill
;WIDTH:0.420939
G1 F1200
G1 X133.93 Y93.939 E.02643
G1 X133.93 Y94.473 E.0168
G1 X132.971 Y93.514 E.04266
G1 X132.436 Y93.514 E.0168
G1 X133.93 Y95.008 E.06642
G1 X133.93 Y95.542 E.0168
M73 Q2 S30
G1 X131.901 Y93.514 E.09019
G1 X131.367 Y93.514 E.0168
G1 X133.93 Y96.077 E.11395
M73 P2 R30
G1 X133.93 Y96.612 E.0168
G1 X130.832 Y93.513 E.13772
G1 X130.297 Y93.513 E.0168
G1 X133.93 Y97.146 E.16149
G1 X133.93 Y97.681 E.0168
G1 X129.763 Y93.513 E.18525
G1 X129.228 Y93.513 E.0168
G1 X133.93 Y98.216 E.20902
G1 X133.93 Y98.75 E.0168
G1 X128.694 Y93.513 E.23278
G1 X128.159 Y93.513 E.0168
G1 X133.93 Y99.285 E.25655
G1 X133.93 Y99.819 E.0168
G1 X127.624 Y93.513 E.28032
G1 X127.09 Y93.513 E.0168
G1 X133.93 Y100.354 E.30408
G1 X133.93 Y100.889 E.0168
G1 X126.555 Y93.513 E.32785
G1 X126.02 Y93.513 E.0168
G1 X130.638 Y98.131 E.20527
G1 X129.875 Y97.81 E.02603
G1 X129.75 Y97.777 E.00407
G1 X125.486 Y93.513 E.18953
G1 X124.951 Y93.513 E.0168
G1 X129.026 Y97.588 E.18113
G1 X128.622 Y97.482 E.01312
G1 X128.356 Y97.453 E.0084
G1 X124.417 Y93.513 E.17513
G1 X123.882 Y93.513 E.0168
G1 X127.755 Y97.386 E.17216
G1 X127.234 Y97.4 E.01638
G1 X123.347 Y93.513 E.17277
G1 X122.813 Y93.513 E.0168
G1 X126.714 Y97.415 E.17343
G1 X126.539 Y97.42 E.00553
G1 X126.235 Y97.47 E.00966
G1 X122.278 Y93.513 E.17591
G1 X121.743 Y93.513 E.0168
G1 X125.777 Y97.547 E.17932
G1 X125.647 Y97.569 E.00416
G1 X125.358 Y97.662 E.00954
G1 X121.209 Y93.513 E.18445
G1 X120.674 Y93.513 E.0168
G1 X124.955 Y97.793 E.19027
G1 X124.551 Y97.924 E.01334
G1 X119.97 Y93.343 E.20364
M204 S1000
;WIPE_START
G1 F8640
G1 X122.297 Y95.671 E-.76
;WIPE_END
G1 E-.04 F2100
G1 Z.6 F720
G1 X119.1 Y88.196 F10800
G1 Z.2 F720
G1 E.8 F2100
M204 S800
G1 F1200
G1 X118.425 Y87.521 E.03001
G1 X117.89 Y87.521 E.0168
G1 X118.93 Y88.561 E.04623
G1 X118.93 Y89.096 E.0168
G1 X117.356 Y87.521 E.06999
G1 X116.821 Y87.521 E.0168
G1 X118.93 Y89.631 E.09376
G1 X118.93 Y90.165 E.0168
G1 X116.286 Y87.521 E.11752
M73 P2 R29
G1 X116.07 Y87.521 E.0068
G1 X116.07 Y87.839 E.01
G1 X118.93 Y90.7 E.12714
G1 X118.93 Y91.234 E.0168
G1 X116.07 Y88.374 E.12714
G1 X116.07 Y88.909 E.0168
G1 X118.93 Y91.769 E.12714
G1 X118.93 Y92.304 E.0168
G1 X116.07 Y89.443 E.12714
G1 X116.07 Y89.978 E.0168
G1 X124.179 Y98.087 E.36047
G1 X123.823 Y98.266 E.01252
G1 X116.07 Y90.512 E.34465
G1 X116.07 Y91.047 E.0168
G1 X123.472 Y98.449 E.32905
G1 X123.159 Y98.671 E.01205
G1 X116.07 Y91.582 E.31515
G1 X116.07 Y92.116 E.0168
G1 X122.847 Y98.893 E.30124
G1 X122.534 Y99.115 E.01205
G1 X116.07 Y92.651 E.28734
G1 X116.07 Y93.185 E.0168
G1 X122.249 Y99.365 E.27468
G1 X121.974 Y99.624 E.01189
G1 X116.07 Y93.72 E.26245
G1 X116.07 Y94.255 E.0168
G1 X121.718 Y99.903 E.25106
G1 X121.472 Y100.192 E.01192
G1 X116.07 Y94.789 E.24015
G1 X116.07 Y95.324 E.0168
G1 X121.239 Y100.493 E.2298
G1 X121.034 Y100.822 E.01219
M73 Q2 S29
G1 X116.07 Y95.858 E.22065
G1 X116.07 Y96.393 E.0168
G1 X120.828 Y101.151 E.21151
G1 X120.622 Y101.48 E.01219
G1 X116.07 Y96.928 E.20236
G1 X116.07 Y97.462 E.0168
G1 X120.459 Y101.852 E.19512
G1 X120.297 Y102.224 E.01277
G1 X116.07 Y97.997 E.18792
G1 X116.07 Y98.531 E.0168
G1 X120.157 Y102.619 E.1817
G1 X120.036 Y103.032 E.01354
G1 X116.07 Y99.066 E.17632
G1 X116.07 Y99.601 E.0168
G1 X119.937 Y103.468 E.1719
G1 X119.86 Y103.925 E.01459
M73 Q3 S29
G1 X116.07 Y100.135 E.16848
G1 X116.07 Y100.67 E.0168
M73 P3 R29
G1 X119.81 Y104.41 E.16624
G1 X119.781 Y104.916 E.01594
G1 X116.07 Y101.204 E.16499
G1 X116.07 Y101.739 E.0168
G1 X119.813 Y105.483 E.16641
G1 X119.837 Y105.867 E.01211
G1 X119.885 Y106.089 E.00713
G1 X116.07 Y102.274 E.1696
G1 X116.07 Y102.808 E.0168
G1 X120.032 Y106.77 E.17611
G1 X120.119 Y107.177 E.0131
G1 X120.265 Y107.538 E.01224
G1 X115.9 Y103.173 E.19404
M204 S1000
;WIPE_START
G1 F8640
G1 X118.228 Y105.501 E-.76
;WIPE_END
G1 E-.04 F2100
G1 Z.6 F720
G1 X134.1 Y109.077 F10800
G1 Z.2 F720
G1 E.8 F2100
M204 S800
G1 F1200
G1 X133.837 Y108.814 E.01168
G1 X133.64 Y109.151 E.01228
G1 X133.93 Y109.442 E.01292
G1 X133.93 Y109.977 E.0168
G1 X133.403 Y109.449 E.02345
G1 X133.165 Y109.746 E.01195
G1 X133.93 Y110.511 E.03402
G1 X133.93 Y111.046 E.0168
G1 X132.927 Y110.043 E.04459
G1 X132.826 Y110.17 E.00511
G1 X132.667 Y110.317 E.00681
G1 X133.93 Y111.58 E.05617
G1 X133.93 Y112.115 E.0168
G1 X132.389 Y110.574 E.0685
G1 X132.105 Y110.824 E.01191
G1 X133.93 Y112.65 E.08114
G1 X133.93 Y113.184 E.0168
G1 X131.791 Y111.044 E.09511
G1 X131.476 Y111.265 E.01207
G1 X133.93 Y113.719 E.10909
G1 X133.93 Y114.253 E.0168
G1 X131.158 Y111.481 E.12323
G1 X130.805 Y111.662 E.01248
G1 X133.93 Y114.788 E.13893
G1 X133.93 Y115.323 E.0168
G1 X130.451 Y111.844 E.15464
G1 X130.066 Y111.993 E.013
G1 X133.93 Y115.857 E.17179
G1 X133.93 Y116.392 E.0168
G1 X129.673 Y112.134 E.18925
G1 X129.456 Y112.213 E.00725
G1 X129.256 Y112.252 E.00639
G1 X133.49 Y116.486 E.18821
G1 X132.956 Y116.486 E.0168
G1 X128.811 Y112.342 E.18425
G1 X128.365 Y112.431 E.01428
G1 X132.421 Y116.486 E.18029
G1 X131.886 Y116.486 E.0168
G1 X127.884 Y112.484 E.17793
G1 X127.378 Y112.512 E.01593
G1 X131.352 Y116.486 E.17665
G1 X130.817 Y116.486 E.0168
G1 X126.814 Y112.484 E.17793
G1 X126.515 Y112.467 E.00942
G1 X126.211 Y112.415 E.0097
G1 X130.283 Y116.486 E.18099
G1 X129.748 Y116.486 E.0168
G1 X125.549 Y112.287 E.18668
G1 X124.757 Y112.03 E.02615
G1 X129.213 Y116.486 E.19809
G1 X128.679 Y116.486 E.0168
G1 X123.819 Y111.626 E.21604
G1 X123.603 Y111.52 E.00756
G1 X122.537 Y110.784 E.04072
G1 X121.8 Y110.088 E.03187
G1 X121.065 Y109.158 E.03726
G1 X120.654 Y108.461 E.02542
G1 X116.07 Y103.877 E.20377
G1 X116.07 Y104.412 E.0168
G1 X128.144 Y116.486 E.53673
G1 X127.61 Y116.486 E.0168
G1 X116.07 Y104.947 E.51297
G1 X116.07 Y105.481 E.0168
G1 X127.075 Y116.486 E.4892
G1 X126.54 Y116.486 E.0168
G1 X116.07 Y106.016 E.46544
G1 X116.07 Y106.55 E.0168
G1 X126.006 Y116.486 E.44167
G1 X125.471 Y116.486 E.0168
G1 X116.07 Y107.085 E.41791
G1 X116.07 Y107.62 E.0168
G1 X124.937 Y116.486 E.39414
G1 X124.402 Y116.486 E.0168
G1 X116.07 Y108.154 E.37038
G1 X116.07 Y108.689 E.0168
G1 X123.867 Y116.486 E.34662
G1 X123.333 Y116.486 E.0168
G1 X116.07 Y109.223 E.32285
G1 X116.07 Y109.758 E.0168
G1 X122.798 Y116.486 E.29909
G1 X122.264 Y116.486 E.0168
G1 X116.07 Y110.293 E.27532
G1 X116.07 Y110.827 E.0168
G1 X121.729 Y116.486 E.25156
G1 X121.194 Y116.486 E.0168
G1 X116.07 Y111.362 E.2278
G1 X116.07 Y111.896 E.0168
G1 X120.66 Y116.486 E.20403
G1 X120.125 Y116.486 E.0168
M73 P4 R29
M73 Q4 S29
G1 X116.07 Y112.431 E.18027
G1 X116.07 Y112.966 E.0168
G1 X119.608 Y116.504 E.1573
G1 X119.426 Y116.562 E.00601
G1 X119.245 Y116.675 E.00672
G1 X116.07 Y113.5 E.14114
G1 X116.07 Y114.035 E.0168
G1 X119.016 Y116.981 E.13097
G1 X118.972 Y117.069 E.00308
G1 X118.93 Y117.43 E.01143
G1 X116.07 Y114.569 E.12714
G1 X116.07 Y115.104 E.0168
G1 X118.93 Y117.964 E.12714
G1 X118.93 Y118.499 E.0168
G1 X116.07 Y115.639 E.12714
G1 X116.07 Y116.173 E.0168
G1 X118.93 Y119.033 E.12714
G1 X118.93 Y119.568 E.0168
G1 X116.07 Y116.708 E.12714
G1 X116.07 Y117.242 E.0168
G1 X118.93 Y120.103 E.12714
G1 X118.93 Y120.637 E.0168
G1 X116.07 Y117.777 E.12714
G1 X116.07 Y118.312 E.0168
G1 X118.93 Y121.172 E.12714
G1 X118.93 Y121.706 E.0168
G1 X116.07 Y118.846 E.12714
G1 X116.07 Y119.381 E.0168
G1 X118.93 Y122.241 E.12714
G1 X118.93 Y122.479 E.00747
G1 X118.633 Y122.479 E.00934
G1 X116.07 Y119.915 E.11394
G1 X116.07 Y120.45 E.0168
G1 X118.099 Y122.479 E.09018
G1 X117.564 Y122.479 E.0168
G1 X116.07 Y120.985 E.06641
G1 X116.07 Y121.519 E.0168
G1 X117.029 Y122.479 E.04265
G1 X116.495 Y122.479 E.0168
G1 X115.9 Y121.884 E.02643
M204 S1000
; stop printing object motorHolder.stl id:0 copy 0
M106 S84.15
;LAYER_CHANGE
;Z:0.5
;HEIGHT:0.3
;BEFORE_LAYER_CHANGE
G92 E0.0
;0.5


;WIPE_START
G1 F8640
G1 X116.495 Y122.479 E-.19415
G1 X117.029 Y122.479 E-.12344
G1 X116.07 Y121.519 E-.31331
G1 X116.07 Y120.985 E-.12344
G1 X116.087 Y121.002 E-.00567
;WIPE_END
G1 E-.04 F2100
G1 Z.6 F720
;AFTER_LAYER_CHANGE
;0.5
M104 S210 ; set temperature
G1 X112.246 Y121.002 F10800
G1 Z.5 F720
G1 E.8 F2100
;TYPE:Skirt/Brim
;WIDTH:0.42
G1 F2700
G1 X112.246 Y84.981 E1.59771
G1 X112.639 Y83.563 E.06524
G1 X113.705 Y82.55 E.06524
G1 X115 Y82.227 E.05921
G1 X120 Y82.227 E.22177
G1 X121.227 Y82.515 E.0559
G1 X136.227 Y89.978 E.74312
G1 X137.321 Y90.961 E.06524
G1 X137.754 Y92.444 E.06852
G1 X137.754 Y117.556 E1.11386
G1 X137.361 Y118.974 E.06524
G1 X136.227 Y120.022 E.06852
G1 X121.227 Y127.485 E.74312
G1 X120 Y127.773 E.0559
G1 X115 Y127.773 E.22177
G1 X113.583 Y127.381 E.06524
G1 X112.569 Y126.314 E.06524
G1 X112.246 Y125.019 E.05921
G1 X112.246 Y121.062 E.17552
