; generated by PrusaSlicer 2.5.0+MacOS-arm64 on 2023-07-04 at 18:58:02 UTC


;
;
; 

; external perimeters extrusion width = 0.45mm
; perimeters extrusion width = 0.45mm
; infill extrusion width = 0.45mm
; solid infill extrusion width = 0.45mm
; top infill extrusion width = 0.40mm
; support material extrusion width = 0.35mm
; first layer extrusion width = 0.42mm

M73 P0 R15
M73 Q0 S15
M201 X1000 Y1000 Z200 E5000 ; sets maximum accelerations, mm/sec^2
M203 X200 Y200 Z12 E120 ; sets maximum feedrates, mm / sec
M204 P1250 R1250 T1250 ; sets acceleration (P, T) and retract acceleration (R), mm/sec^2
M205 X8.00 Y8.00 Z0.40 E4.50 ; sets the jerk limits, mm/sec
M205 S0 T0 ; sets the minimum extruding and travel feed rate, mm/sec
M107
;TYPE:Custom
M862.3 P "MK3S" ; printer model check
M862.1 P0.4 ; nozzle diameter check
M115 U3.12.1 ; tell printer latest fw version
G90 ; use absolute coordinates
M83 ; extruder relative mode
M104 S240 ; set extruder temp
M140 S85 ; set bed temp
M190 S85 ; wait for bed temp
M109 S240 ; wait for extruder temp
G28 W ; home all without mesh bed level
G80 ; mesh bed leveling

G1 Z0.2 F720
G1 Y-3 F1000 ; go outside print area
G92 E0
G1 X60 E9 F1000 ; intro line
G1 X100 E12.5 F1000 ; intro line

G92 E0
M221 S95

; Don't change E values below. Excessive value can damage the printer.
M907 E430 ; set extruder motor current
G21 ; set units to millimeters
G90 ; use absolute coordinates
M83 ; use relative distances for extrusion
M900 K0.08 ; Filament gcode LA 1.5
M900 K45 ; Filament gcode LA 1.0
M107
;LAYER_CHANGE
;Z:0.2
;HEIGHT:0.2
;BEFORE_LAYER_CHANGE
G92 E0.0
;0.2


G1 E-1 F2100
G1 Z.2 F720
;AFTER_LAYER_CHANGE
;0.2
G1 Z.4
G1 X117.9 Y100.161 F10800
G1 Z.2 F720
M73 P0 R14
G1 E1 F2100
M204 S800
;TYPE:Skirt/Brim
;WIDTH:0.42
G1 F1032
G1 X119.265 Y98.796 E.06052
G1 X120.567 Y97.917 E.04927
G1 X121.637 Y97.41 E.03712
G1 X122.377 Y97.153 E.02457
G1 X123.976 Y96.827 E.05115
G1 X125.21 Y96.772 E.03874
G1 X126.024 Y96.827 E.02559
G1 X127.622 Y97.153 E.05113
G1 X128.363 Y97.41 E.02458
G1 X129.433 Y97.917 E.03713
G1 X130.735 Y98.796 E.04927
G1 X132.1 Y100.161 E.06052
G1 X132.98 Y101.464 E.04929
G1 X133.486 Y102.533 E.0371
G1 X133.744 Y103.274 E.02458
G1 X134.069 Y104.872 E.05113
G1 X134.124 Y105.686 E.02559
G1 X134.069 Y106.922 E.03878
G1 X133.744 Y108.519 E.05113
G1 X133.486 Y109.26 E.02458
G1 X132.98 Y110.329 E.0371
G1 X132.1 Y111.632 E.04929
M73 Q1 S15
G1 X130.735 Y112.997 E.06052
G1 X129.433 Y113.876 E.04927
G1 X128.363 Y114.383 E.03713
G1 X127.622 Y114.64 E.02458
M73 P1 R14
G1 X126.024 Y114.966 E.05112
G1 X125.21 Y115.021 E.02559
G1 X123.976 Y114.966 E.03875
G1 X122.377 Y114.64 E.05114
G1 X121.637 Y114.383 E.02457
G1 X120.567 Y113.876 E.03712
G1 X119.265 Y112.997 E.04927
G1 X117.9 Y111.632 E.06052
G1 X117.02 Y110.329 E.04929
G1 X116.514 Y109.26 E.0371
G1 X116.256 Y108.519 E.02458
G1 X115.931 Y106.922 E.05113
G1 X115.876 Y106.107 E.02559
G1 X115.931 Y104.872 E.03878
G1 X116.256 Y103.274 E.05113
G1 X116.514 Y102.533 E.02458
G1 X117.02 Y101.464 E.0371
G1 X117.866 Y100.211 E.04741
M204 S1000
G1 X118.176 Y100.42 F10800
M204 S800
G1 F1032
G1 X119.514 Y99.079 E.05938
G1 X120.736 Y98.254 E.04625
G1 X121.761 Y97.766 E.03557
G1 X122.501 Y97.509 E.02457
G1 X124.001 Y97.203 E.048
G1 X125.185 Y97.149 E.03715
G1 X125.999 Y97.203 E.02559
G1 X127.498 Y97.509 E.04798
G1 X128.239 Y97.766 E.02458
G1 X129.264 Y98.254 E.03558
G1 X130.486 Y99.079 E.04625
G1 X131.817 Y100.41 E.05902
G1 X132.643 Y101.633 E.04626
G1 X133.13 Y102.657 E.03556
G1 X133.387 Y103.398 E.02458
G1 X133.693 Y104.897 E.04798
G1 X133.748 Y105.711 E.02559
G1 X133.693 Y106.896 E.03719
G1 X133.387 Y108.396 E.04798
G1 X133.13 Y109.136 E.02458
G1 X132.643 Y110.16 E.03556
G1 X131.817 Y111.383 E.04626
G1 X130.486 Y112.714 E.05902
G1 X129.264 Y113.539 E.04625
G1 X128.239 Y114.027 E.03558
G1 X127.498 Y114.284 E.02458
G1 X125.999 Y114.59 E.04797
G1 X125.185 Y114.645 E.02559
G1 X124.001 Y114.59 E.03716
M73 Q1 S14
G1 X122.501 Y114.284 E.04799
G1 X121.761 Y114.027 E.02457
G1 X120.736 Y113.539 E.03557
G1 X119.514 Y112.714 E.04625
G1 X118.183 Y111.383 E.05902
G1 X117.357 Y110.16 E.04626
G1 X116.87 Y109.136 E.03556
G1 X116.613 Y108.396 E.02458
G1 X116.307 Y106.896 E.04798
G1 X116.252 Y106.082 E.02559
G1 X116.307 Y104.897 E.03719
G1 X116.613 Y103.398 E.04798
G1 X116.87 Y102.657 E.02458
G1 X117.357 Y101.633 E.03556
G1 X118.143 Y100.47 E.04401
M204 S1000
G1 X118.453 Y100.679 F10800
M204 S800
G1 F1032
G1 X119.763 Y99.363 E.05824
G1 X120.905 Y98.591 E.04322
G1 X121.884 Y98.123 E.03403
G1 X122.625 Y97.865 E.02457
G1 X124.026 Y97.58 E.04485
G1 X125.159 Y97.525 E.03557
G1 X125.974 Y97.58 E.02559
G1 X127.375 Y97.865 E.04483
G1 X128.115 Y98.123 E.02458
G1 X129.095 Y98.591 E.03404
G1 X130.237 Y99.363 E.04322
G1 X131.534 Y100.66 E.05751
G1 X132.306 Y101.802 E.04323
G1 X132.774 Y102.781 E.03402
G1 X133.031 Y103.521 E.02458
G1 X133.317 Y104.922 E.04483
G1 X133.372 Y105.737 E.02559
G1 X133.317 Y106.871 E.0356
G1 X133.031 Y108.272 E.04483
G1 X132.774 Y109.012 E.02458
G1 X132.306 Y109.991 E.03402
G1 X131.534 Y111.134 E.04323
G1 X130.237 Y112.431 E.05751
G1 X129.095 Y113.202 E.04322
G1 X128.115 Y113.671 E.03404
G1 X127.375 Y113.928 E.02458
G1 X125.974 Y114.214 E.04483
G1 X125.16 Y114.268 E.02559
G1 X124.026 Y114.214 E.03558
G1 X122.625 Y113.928 E.04484
G1 X121.884 Y113.671 E.02457
G1 X120.905 Y113.202 E.03403
G1 X119.763 Y112.431 E.04322
G1 X118.466 Y111.134 E.05751
G1 X117.694 Y109.991 E.04323
G1 X117.226 Y109.012 E.03402
G1 X116.969 Y108.272 E.02458
G1 X116.683 Y106.871 E.04483
G1 X116.628 Y106.057 E.02559
G1 X116.683 Y104.922 E.0356
G1 X116.969 Y103.521 E.04483
G1 X117.226 Y102.781 E.02458
G1 X117.694 Y101.802 E.03402
G1 X118.419 Y100.729 E.04061
M204 S1000
; printing object tube.stl id:0 copy 0
;WIPE_START
G1 F8640
G1 X119.763 Y99.363 E-.44255
G1 X120.905 Y98.591 E-.3183
G1 X121.644 Y98.238 E-.18915
;WIPE_END
G1 E-.05 F2100
G1 Z.4 F720
G1 X128.516 Y101.428 F10800
G1 Z.2 F720
G1 E1 F2100
M204 S800
;TYPE:External perimeter
;WIDTH:0.419789
G1 F1032
G1 X129.046 Y101.901 E.02227
G1 X129.523 Y102.45 E.02279
G1 X129.928 Y103.058 E.02288
G1 X130.254 Y103.717 E.02304
G1 X130.493 Y104.422 E.02333
G1 X130.639 Y105.164 E.02369
;WIDTH:0.419895
G1 X130.686 Y105.935 E.02421
G1 X130.629 Y106.704 E.02419
G1 X130.473 Y107.444 E.02368
;WIDTH:0.419791
G1 X130.225 Y108.144 E.02328
G1 X129.891 Y108.798 E.02302
G1 X129.479 Y109.4 E.02285
G1 X128.995 Y109.943 E.02278
G1 X128.447 Y110.42 E.02279
G1 X127.839 Y110.825 E.02288
G1 X127.179 Y111.15 E.02305
M73 Q2 S14
G1 X126.475 Y111.39 E.02331
G1 X125.733 Y111.536 E.0237
;WIDTH:0.419898
G1 X124.962 Y111.583 E.0242
G1 X124.192 Y111.526 E.0242
G1 X123.453 Y111.37 E.02369
;WIDTH:0.419789
G1 X122.753 Y111.122 E.02328
M73 P2 R14
G1 X122.098 Y110.788 E.02302
G1 X121.496 Y110.376 E.02286
G1 X120.954 Y109.892 E.02278
G1 X120.477 Y109.343 E.02279
G1 X120.072 Y108.735 E.02288
G1 X119.746 Y108.076 E.02304
G1 X119.507 Y107.371 E.02333
G1 X119.361 Y106.629 E.02369
;WIDTH:0.420236
G1 X119.312 Y105.897 E.02305
G1 X119.314 Y105.859 E.0012
;WIDTH:0.419896
G1 X119.371 Y105.089 E.02419
G1 X119.527 Y104.349 E.02368
;WIDTH:0.419793
G1 X119.775 Y103.649 E.02328
G1 X120.109 Y102.995 E.02302
G1 X120.521 Y102.393 E.02285
G1 X121.005 Y101.85 E.02278
G1 X121.553 Y101.373 E.02279
G1 X122.161 Y100.968 E.02288
G1 X122.821 Y100.643 E.02305
G1 X123.525 Y100.404 E.02331
G1 X124.267 Y100.257 E.0237
;WIDTH:0.419905
G1 X125.038 Y100.21 E.0242
G1 X125.808 Y100.267 E.0242
G1 X126.547 Y100.423 E.02368
;WIDTH:0.419789
G1 X127.247 Y100.672 E.02328
G1 X127.902 Y101.005 E.02302
G1 X128.467 Y101.393 E.02149
M204 S1000
G1 X128.459 Y101.824 F10800
;WIPE_START
G1 F8640
G1 X129.046 Y101.901 E-.17789
G1 X129.523 Y102.45 E-.16791
G1 X129.928 Y103.058 E-.16863
G1 X130.254 Y103.717 E-.1698
G1 X130.493 Y104.422 E-.17191
G1 X130.572 Y104.821 E-.09386
;WIPE_END
G1 E-.05 F2100
G1 Z.4 F720
G1 X124.971 Y100.588 F10800
G1 Z.2 F720
G1 E1 F2100
M204 S800
;WIDTH:0.419807
G1 F1032
G1 X125.707 Y100.633 E.02313
G1 X126.399 Y100.773 E.02212
G1 X127.056 Y100.999 E.02175
G1 X127.67 Y101.305 E.02151
G1 X128.236 Y101.686 E.02137
G1 X128.746 Y102.133 E.02128
G1 X129.196 Y102.642 E.02128
G1 X129.579 Y103.206 E.02135
G1 X129.888 Y103.818 E.0215
G1 X130.117 Y104.473 E.02175
G1 X130.26 Y105.164 E.02211
G1 X130.31 Y105.884 E.02261
G1 X130.263 Y106.604 E.02262
G1 X130.124 Y107.296 E.02211
G1 X129.898 Y107.952 E.02176
G1 X129.591 Y108.566 E.02151
G1 X129.211 Y109.132 E.02136
G1 X128.763 Y109.643 E.02129
G1 X128.255 Y110.093 E.02128
G1 X127.691 Y110.476 E.02136
G1 X127.078 Y110.785 E.0215
G1 X126.424 Y111.014 E.02174
G1 X125.732 Y111.157 E.02211
G1 X125.013 Y111.207 E.02261
G1 X124.293 Y111.16 E.02261
G1 X123.601 Y111.02 E.02212
G1 X122.944 Y110.794 E.02175
G1 X122.33 Y110.488 E.02151
G1 X121.764 Y110.108 E.02136
G1 X121.254 Y109.66 E.02129
G1 X120.804 Y109.151 E.02128
G1 X120.421 Y108.587 E.02135
G1 X120.112 Y107.975 E.0215
G1 X119.883 Y107.32 E.02175
G1 X119.74 Y106.629 E.02211
G1 X119.69 Y105.909 E.02261
G1 X119.737 Y105.189 E.02262
G1 X119.876 Y104.497 E.02211
G1 X120.102 Y103.841 E.02176
G1 X120.409 Y103.227 E.02151
G1 X120.789 Y102.661 E.02136
G1 X121.237 Y102.15 E.02129
G1 X121.745 Y101.7 E.02128
G1 X122.309 Y101.318 E.02136
G1 X122.922 Y101.008 E.0215
G1 X123.576 Y100.779 E.02174
G1 X124.268 Y100.637 E.02211
G1 X124.911 Y100.592 E.02021
M204 S1000
G1 X125.169 Y100.24 F10800
; stop printing object tube.stl id:0 copy 0
;LAYER_CHANGE
;Z:0.4
;HEIGHT:0.2
;BEFORE_LAYER_CHANGE
G92 E0.0
;0.4


;WIPE_START
G1 F8640
G1 X125.707 Y100.633 E-.18415
G1 X126.399 Y100.773 E-.16299
G1 X127.056 Y100.999 E-.16025
G1 X127.67 Y101.305 E-.1585
G1 X128.236 Y101.686 E-.15742
G1 X128.648 Y102.047 E-.12669
;WIPE_END
G1 E-.05 F2100
G1 Z.4 F720
;AFTER_LAYER_CHANGE
;0.4
M104 S250 ; set temperature
M140 S90 ; set bed temperature
G1 Z.6
G1 X131.317 Y99.378 F10800
G1 Z.4 F720
G1 E1 F2100
;TYPE:Skirt/Brim
;WIDTH:0.42
G1 F975
G1 X132.1 Y100.161 E.03472
G1 X132.98 Y101.464 E.04929
G1 X133.486 Y102.533 E.0371
G1 X133.744 Y103.274 E.02458
G1 X134.069 Y104.872 E.05113
G1 X134.124 Y105.686 E.02559
G1 X134.069 Y106.922 E.03878
G1 X133.744 Y108.519 E.05113
G1 X133.486 Y109.26 E.02458
G1 X132.98 Y110.329 E.0371
G1 X132.1 Y111.632 E.04929
G1 X130.735 Y112.997 E.06052
G1 X129.433 Y113.876 E.04927
G1 X128.363 Y114.383 E.03713
G1 X127.622 Y114.64 E.02458
G1 X126.024 Y114.966 E.05112
G1 X125.21 Y115.021 E.02559
G1 X123.976 Y114.966 E.03875
G1 X122.377 Y114.64 E.05114
G1 X121.637 Y114.383 E.02457
G1 X120.567 Y113.876 E.03712
G1 X119.265 Y112.997 E.04927
G1 X117.9 Y111.632 E.06052
G1 X117.02 Y110.329 E.04929
G1 X116.514 Y109.26 E.0371
G1 X116.256 Y108.519 E.02458
G1 X115.931 Y106.922 E.05113
G1 X115.876 Y106.107 E.02559
G1 X115.931 Y104.872 E.03878
G1 X116.256 Y103.274 E.05113
G1 X116.514 Y102.533 E.02458
G1 X117.02 Y101.464 E.0371
G1 X117.9 Y100.161 E.04929
G1 X119.265 Y98.796 E.06052
G1 X120.567 Y97.917 E.04927
G1 X121.637 Y97.41 E.03712
G1 X122.377 Y97.153 E.02457
G1 X123.976 Y96.827 E.05115
G1 X125.21 Y96.772 E.03874
G1 X126.024 Y96.827 E.02559
G1 X127.622 Y97.153 E.05113
G1 X128.363 Y97.41 E.02458
G1 X129.433 Y97.917 E.03713
G1 X130.735 Y98.796 E.04927
G1 X131.275 Y99.336 E.02392
G1 X131.009 Y99.602 F10800
G1 F975
G1 X131.817 Y100.41 E.03585
G1 X132.643 Y101.633 E.04626
G1 X133.13 Y102.657 E.03556
G1 X133.387 Y103.398 E.02458
G1 X133.693 Y104.897 E.04798
G1 X133.748 Y105.711 E.02559
G1 X133.693 Y106.896 E.03719
G1 X133.387 Y108.396 E.04798
G1 X133.13 Y109.136 E.02458
G1 X132.643 Y110.16 E.03556
G1 X131.817 Y111.383 E.04626
G1 X130.486 Y112.714 E.05902
G1 X129.264 Y113.539 E.04625
G1 X128.239 Y114.027 E.03558
G1 X127.498 Y114.284 E.02458
G1 X125.999 Y114.59 E.04797
G1 X125.185 Y114.645 E.02559
G1 X124.001 Y114.59 E.03716
M73 Q3 S14
G1 X122.501 Y114.284 E.04799
G1 X121.761 Y114.027 E.02457
G1 X120.736 Y113.539 E.03557
M73 P3 R14
G1 X119.514 Y112.714 E.04625
G1 X118.183 Y111.383 E.05902
G1 X117.357 Y110.16 E.04626
G1 X116.87 Y109.136 E.03556
G1 X116.613 Y108.396 E.02458
G1 X116.307 Y106.896 E.04798
G1 X116.252 Y106.082 E.02559
G1 X116.307 Y104.897 E.03719
G1 X116.613 Y103.398 E.04798
G1 X116.87 Y102.657 E.02458
G1 X117.357 Y101.633 E.03556
G1 X118.183 Y100.41 E.04626
G1 X119.514 Y99.079 E.05901
G1 X120.736 Y98.254 E.04625
G1 X121.761 Y97.766 E.03557
G1 X122.501 Y97.509 E.02457
G1 X124.001 Y97.203 E.048
G1 X125.185 Y97.149 E.03715
G1 X125.999 Y97.203 E.02559
G1 X127.498 Y97.509 E.04798
G1 X128.239 Y97.766 E.02458
G1 X129.264 Y98.254 E.03558
G1 X130.486 Y99.079 E.04625
G1 X130.966 Y99.56 E.02129
G1 X130.7 Y99.826 F10800
G1 F975
G1 X131.534 Y100.66 E.03698
G1 X132.306 Y101.802 E.04323
G1 X132.774 Y102.781 E.03402
G1 X133.031 Y103.521 E.02458
G1 X133.317 Y104.922 E.04483
G1 X133.372 Y105.737 E.02559
G1 X133.317 Y106.871 E.0356
G1 X133.031 Y108.272 E.04483
G1 X132.774 Y109.012 E.02458
G1 X132.306 Y109.991 E.03402
G1 X131.534 Y111.134 E.04323
G1 X130.237 Y112.431 E.05751
G1 X129.095 Y113.202 E.04322
G1 X128.115 Y113.671 E.03404
G1 X127.375 Y113.928 E.02458
G1 X125.974 Y114.214 E.04483
G1 X125.16 Y114.268 E.02559
G1 X124.026 Y114.214 E.03558
G1 X122.625 Y113.928 E.04484
G1 X121.884 Y113.671 E.02457
G1 X120.905 Y113.202 E.03403
G1 X119.763 Y112.431 E.04322
G1 X118.466 Y111.134 E.05751
G1 X117.694 Y109.991 E.04323
G1 X117.226 Y109.012 E.03402
G1 X116.969 Y108.272 E.02458
G1 X116.683 Y106.871 E.04483
G1 X116.628 Y106.057 E.02559
G1 X116.683 Y104.922 E.0356
G1 X116.969 Y103.521 E.04483
G1 X117.226 Y102.781 E.02458
G1 X117.694 Y101.802 E.03402
G1 X118.466 Y100.66 E.04323
G1 X119.763 Y99.363 E.05751
G1 X120.905 Y98.591 E.04322
G1 X121.884 Y98.123 E.03403
G1 X122.625 Y97.865 E.02457
G1 X124.026 Y97.58 E.04485
G1 X125.159 Y97.525 E.03557
G1 X125.974 Y97.58 E.02559
G1 X127.375 Y97.865 E.04483
G1 X128.115 Y98.123 E.02458
G1 X129.095 Y98.591 E.03404
G1 X130.237 Y99.363 E.04322
G1 X130.658 Y99.783 E.01865
; printing object tube.stl id:0 copy 0
;WIPE_START
G1 F8640
G1 X131.534 Y100.66 E-.28617
G1 X132.306 Y101.802 E-.31839
G1 X132.774 Y102.781 E-.2505
G1 X132.909 Y103.169 E-.09494
;WIPE_END
G1 E-.05 F2100
G1 Z.6 F720
G1 X128.549 Y101.39 F10800
G1 Z.4 F720
G1 E1 F2100
M204 S800
;TYPE:External perimeter
;WIDTH:0.520473
G1 F975
G1 X129.088 Y101.873 E.02876
G1 X129.569 Y102.427 E.02913
;WIDTH:0.520604
G1 X129.976 Y103.041 E.02927
G1 X130.304 Y103.707 E.02947
G1 X130.544 Y104.419 E.02984
;WIDTH:0.520475
G1 X130.69 Y105.167 E.03028
;WIDTH:0.520356
G1 X130.736 Y105.945 E.03093
;WIDTH:0.520474
G1 X130.677 Y106.721 E.03092
G1 X130.519 Y107.467 E.03027
;WIDTH:0.520621
G1 X130.267 Y108.172 E.02976
G1 X129.93 Y108.832 E.02944
G1 X129.513 Y109.438 E.02922
;WIDTH:0.520444
G1 X129.024 Y109.985 E.02912
G1 X128.469 Y110.465 E.02913
G1 X127.856 Y110.873 E.02925
G1 X127.19 Y111.2 E.02947
G1 X126.478 Y111.44 E.0298
G1 X125.729 Y111.587 E.03031
;WIDTH:0.520344
G1 X124.952 Y111.633 E.03092
;WIDTH:0.520457
G1 X124.175 Y111.574 E.03092
G1 X123.43 Y111.415 E.03026
G1 X122.724 Y111.164 E.02975
G1 X122.065 Y110.826 E.02942
G1 X121.458 Y110.409 E.02922
G1 X120.912 Y109.921 E.02911
G1 X120.431 Y109.366 E.02913
;WIDTH:0.520589
G1 X120.024 Y108.752 E.02926
G1 X119.696 Y108.086 E.02947
G1 X119.456 Y107.375 E.02984
;WIDTH:0.520476
G1 X119.31 Y106.626 E.03028
;WIDTH:0.520899
G1 X119.261 Y105.897 E.02906
G1 X119.264 Y105.848 E.00192
;WIDTH:0.520474
G1 X119.323 Y105.072 E.03092
G1 X119.481 Y104.326 E.03027
;WIDTH:0.520621
G1 X119.733 Y103.621 E.02976
G1 X120.07 Y102.961 E.02943
G1 X120.487 Y102.355 E.02922
;WIDTH:0.520445
G1 X120.976 Y101.808 E.02912
G1 X121.531 Y101.328 E.02913
G1 X122.144 Y100.92 E.02925
G1 X122.81 Y100.593 E.02947
G1 X123.523 Y100.352 E.02984
G1 X124.281 Y100.206 E.03066
;WIDTH:0.520326
G1 X125.048 Y100.161 E.03052
;WIDTH:0.520473
G1 X125.825 Y100.219 E.03093
G1 X126.57 Y100.378 E.03026
G1 X127.276 Y100.629 E.02975
G1 X127.935 Y100.967 E.02942
G1 X128.5 Y101.355 E.0272
M204 S1000
G1 X128.492 Y101.786 F10800
;WIPE_START
G1 F8640
G1 X129.088 Y101.873 E-.18099
G1 X129.569 Y102.427 E-.1694
G1 X129.976 Y103.041 E-.17013
G1 X130.304 Y103.707 E-.17131
G1 X130.544 Y104.419 E-.17348
