; generated by PrusaSlicer 2.5.0+MacOS-arm64 on 2023-07-06 at 13:02:40 UTC


;
;
; 

; external perimeters extrusion width = 0.45mm
; perimeters extrusion width = 0.45mm
; infill extrusion width = 0.45mm
; solid infill extrusion width = 0.45mm
; top infill extrusion width = 0.40mm
; first layer extrusion width = 0.42mm

M73 P0 R8
M73 Q0 S8
M201 X1000 Y1000 Z200 E5000 ; sets maximum accelerations, mm/sec^2
M203 X200 Y200 Z12 E120 ; sets maximum feedrates, mm / sec
M204 P1250 R1250 T1250 ; sets acceleration (P, T) and retract acceleration (R), mm/sec^2
M205 X8.00 Y8.00 Z0.40 E4.50 ; sets the jerk limits, mm/sec
M205 S0 T0 ; sets the minimum extruding and travel feed rate, mm/sec
M107
;TYPE:Custom
M862.3 P "MK3S" ; printer model check
M862.1 P0.4 ; nozzle diameter check
M115 U3.12.1 ; tell printer latest fw version
G90 ; use absolute coordinates
M83 ; extruder relative mode
M104 S240 ; set extruder temp
M140 S85 ; set bed temp
M190 S85 ; wait for bed temp
M109 S240 ; wait for extruder temp
G28 W ; home all without mesh bed level
G80 ; mesh bed leveling

G1 Z0.2 F720
G1 Y-3 F1000 ; go outside print area
G92 E0
G1 X60 E9 F1000 ; intro line
G1 X100 E12.5 F1000 ; intro line

G92 E0
M221 S95

; Don't change E values below. Excessive value can damage the printer.
M907 E430 ; set extruder motor current
G21 ; set units to millimeters
G90 ; use absolute coordinates
M83 ; use relative distances for extrusion
M900 K0.08 ; Filament gcode LA 1.5
M900 K45 ; Filament gcode LA 1.0
M107
;LAYER_CHANGE
;Z:0.2
;HEIGHT:0.2
;BEFORE_LAYER_CHANGE
G92 E0.0
;0.2


G1 E-1 F2100
M73 P1 R8
M73 Q1 S8
G1 Z.2 F720
;AFTER_LAYER_CHANGE
;0.2
G1 Z.4
G1 X115.959 Y96.391 F10800
G1 Z.2 F720
G1 E1 F2100
M204 S800
;TYPE:Skirt/Brim
;WIDTH:0.42
G1 F1200
G1 X116.951 Y95.53 E.0412
G1 X120.808 Y93.3 E.1397
G1 X122.065 Y92.866 E.04169
G1 X122.778 Y92.772 E.02254
G1 X127.222 Y92.772 E.13934
G1 X127.935 Y92.866 E.02254
G1 X129.19 Y93.299 E.04163
G1 X133.038 Y95.521 E.13934
G1 X133.609 Y95.959 E.02254
G1 X134.479 Y96.961 E.04162
G1 X136.701 Y100.81 E.13934
G1 X137.131 Y102.053 E.04124
G1 X137.225 Y102.765 E.0225
G1 X137.228 Y107.22 E.1397
G1 X137.134 Y107.935 E.02261
G1 X136.701 Y109.19 E.04162
G1 X134.479 Y113.039 E.13934
G1 X133.609 Y114.041 E.04162
G1 X133.038 Y114.479 E.02254
G1 X129.19 Y116.701 E.13934
G1 X127.935 Y117.134 E.04163
G1 X127.222 Y117.228 E.02254
G1 X122.778 Y117.228 E.13934
G1 X122.065 Y117.134 E.02254
G1 X120.81 Y116.701 E.04163
G1 X116.962 Y114.479 E.13934
G1 X116.391 Y114.041 E.02254
G1 X115.521 Y113.039 E.04162
G1 X113.299 Y109.19 E.13934
G1 X112.869 Y107.947 E.04124
M73 Q2 S8
G1 X112.775 Y107.235 E.0225
G1 X112.772 Y102.78 E.1397
G1 X112.866 Y102.065 E.02261
M73 P2 R8
G1 X113.299 Y100.81 E.04162
G1 X115.521 Y96.961 E.13934
G1 X115.922 Y96.439 E.02066
M204 S1000
G1 X116.232 Y96.71 F10800
M204 S800
G1 F1200
G1 X116.649 Y96.234 E.01985
G1 X117.15 Y95.848 E.01982
G1 X120.999 Y93.626 E.13934
G1 X122.163 Y93.23 E.03855
G1 X122.778 Y93.149 E.01945
G1 X127.222 Y93.149 E.13934
G1 X127.837 Y93.23 E.01945
G1 X129.001 Y93.626 E.03855
G1 X132.85 Y95.848 E.13934
G1 X133.342 Y96.225 E.01946
G1 X134.152 Y97.15 E.03854
G1 X136.374 Y100.999 E.13934
G1 X136.77 Y102.163 E.03856
G1 X136.851 Y102.778 E.01944
G1 X136.851 Y107.222 E.13934
G1 X136.77 Y107.838 E.01947
G1 X136.374 Y109.001 E.03854
G1 X134.152 Y112.85 E.13934
G1 X133.342 Y113.775 E.03854
G1 X132.85 Y114.152 E.01946
G1 X129.001 Y116.374 E.13934
G1 X127.837 Y116.77 E.03855
G1 X127.222 Y116.851 E.01945
G1 X122.778 Y116.851 E.13934
G1 X122.163 Y116.77 E.01945
G1 X120.999 Y116.374 E.03855
G1 X117.15 Y114.152 E.13934
G1 X116.658 Y113.775 E.01946
G1 X115.848 Y112.85 E.03854
G1 X113.626 Y109.001 E.13934
G1 X113.233 Y107.849 E.03817
G1 X113.152 Y107.235 E.01942
G1 X113.149 Y102.78 E.1397
G1 X113.23 Y102.162 E.01952
G1 X113.626 Y100.999 E.03854
G1 X115.848 Y97.15 E.13934
G1 X116.193 Y96.755 E.01644
M204 S1000
; printing object gear_small.stl id:0 copy 0
;WIPE_START
G1 F8640
G1 X116.649 Y96.234 E-.16007
G1 X117.15 Y95.848 E-.14597
G1 X119.565 Y94.453 E-.64396
;WIPE_END
G1 E-.05 F2100
G1 Z.4 F720
G1 X131.536 Y103.52 F10800
G1 Z.2 F720
G1 E1 F2100
M204 S800
;TYPE:Perimeter
;WIDTH:0.51621
G1 F1200
G1 X131.399 Y103.529 E.00542
G1 X131.302 Y103.62 E.00521
;WIDTH:0.468105
G1 X131.205 Y103.71 E.00468
;WIDTH:0.419999
G1 X131.084 Y103.896 E.00695
G1 X131.043 Y104.106 E.00673
G1 X131.05 Y105.979 E.05872
G1 X131.186 Y106.27 E.01007
M73 Q3 S8
G1 X131.552 Y106.457 E.01289
G1 X132.461 Y106.57 E.02871
G1 X132.91 Y106.802 E.01585
G1 X133.448 Y107.264 E.02223
G1 X133.286 Y107.315 E.00532
G1 X132.725 Y107.399 E.01781
G1 X132.207 Y107.369 E.01624
G1 X131.405 Y107.016 E.02749
G1 X130.992 Y106.994 E.01297
G1 X130.801 Y107.102 E.0069
G1 X130.68 Y107.248 E.00592
G1 X129.745 Y108.886 E.05914
G1 X129.727 Y109.212 E.01023
M73 P3 R8
G1 X129.946 Y109.538 E.01232
G1 X130.676 Y110.09 E.0287
G1 X130.95 Y110.515 E.01586
G1 X131.184 Y111.184 E.02222
G1 X131.019 Y111.148 E.00532
G1 X130.49 Y110.94 E.01781
G1 X130.057 Y110.655 E.01624
G1 X129.539 Y109.948 E.02749
G1 X129.211 Y109.727 E.01239
G1 X128.99 Y109.718 E.00694
G1 X128.795 Y109.787 E.00649
G1 X127.161 Y110.742 E.05937
G1 X126.985 Y111.021 E.01031
G1 X127.013 Y111.398 E.01187
G1 X127.369 Y112.207 E.02772
G1 X127.395 Y112.751 E.01707
G1 X127.264 Y113.448 E.02222
G1 X127.138 Y113.334 E.00532
G1 X126.802 Y112.91 E.01695
G1 X126.627 Y112.608 E.01094
G1 X126.539 Y112.365 E.0081
G1 X126.457 Y111.552 E.02563
G1 X126.291 Y111.206 E.01201
G1 X126.106 Y111.084 E.00695
G1 X125.894 Y111.043 E.00678
G1 X124 Y111.053 E.05938
G1 X123.709 Y111.206 E.01031
G1 X123.543 Y111.552 E.01202
G1 X123.43 Y112.461 E.0287
G1 X123.198 Y112.91 E.01585
G1 X122.736 Y113.448 E.02222
G1 X122.685 Y113.286 E.00532
G1 X122.601 Y112.725 E.0178
G1 X122.631 Y112.207 E.01625
G1 X122.984 Y111.405 E.02749
G1 X123.015 Y111.02 E.0121
G1 X122.916 Y110.822 E.00695
G1 X122.752 Y110.68 E.00678
G1 X121.107 Y109.742 E.05939
G1 X120.778 Y109.729 E.01031
G1 X120.462 Y109.946 E.01201
G1 X119.91 Y110.676 E.02871
G1 X119.484 Y110.95 E.01586
G1 X118.816 Y111.184 E.02222
G1 X118.852 Y111.018 E.00532
G1 X119.06 Y110.49 E.0178
G1 X119.345 Y110.057 E.01624
G1 X120.052 Y109.539 E.0275
G1 X120.271 Y109.222 E.01209
G1 X120.284 Y109 E.00695
G1 X120.213 Y108.795 E.00679
G1 X119.257 Y107.16 E.05938
G1 X118.979 Y106.985 E.01031
G1 X118.602 Y107.013 E.01186
G1 X117.793 Y107.369 E.02772
G1 X117.249 Y107.395 E.01707
G1 X116.552 Y107.264 E.02223
G1 X116.666 Y107.138 E.00532
G1 X117.09 Y106.802 E.01696
G1 X117.392 Y106.627 E.01094
G1 X117.634 Y106.539 E.00809
G1 X118.448 Y106.457 E.02564
G1 X118.793 Y106.292 E.012
G1 X118.915 Y106.106 E.00695
G1 X118.957 Y105.894 E.00679
G1 X118.947 Y104 E.05938
G1 X118.794 Y103.709 E.01031
;WIDTH:0.468111
G1 X118.697 Y103.619 E.00465
;WIDTH:0.516223
G1 X118.601 Y103.529 E.00518
G1 X118.452 Y103.503 E.00596
;WIDTH:0.500871
G1 X118.066 Y103.484 E.01471
;WIDTH:0.460435
G1 X117.68 Y103.466 E.01341
;WIDTH:0.419999
G1 X117.539 Y103.43 E.00456
G1 X117.09 Y103.198 E.01585
G1 X116.552 Y102.736 E.02223
G1 X116.714 Y102.685 E.00532
G1 X117.249 Y102.605 E.01696
G1 X117.598 Y102.605 E.01094
G1 X117.889 Y102.674 E.00938
;WIDTH:0.468111
G1 X118.306 Y102.874 E.01636
;WIDTH:0.516223
G1 X118.723 Y103.074 E.01821
G1 X118.851 Y103.045 E.00518
;WIDTH:0.468111
G1 X118.98 Y103.015 E.00465
;WIDTH:0.419999
G1 X119.178 Y102.916 E.00695
G1 X119.32 Y102.752 E.00678
G1 X120.258 Y101.107 E.05938
G1 X120.271 Y100.778 E.01031
;WIDTH:0.468145
G1 X120.232 Y100.653 E.00465
;WIDTH:0.516291
G1 X120.194 Y100.527 E.00518
G1 X120.078 Y100.43 E.00596
;WIDTH:0.500934
G1 X119.753 Y100.221 E.01471
;WIDTH:0.460467
G1 X119.428 Y100.011 E.01341
;WIDTH:0.419999
G1 X119.324 Y99.91 E.00456
G1 X119.05 Y99.485 E.01586
G1 X118.816 Y98.816 E.02222
G1 X118.981 Y98.852 E.00532
G1 X119.484 Y99.05 E.01695
G1 X119.787 Y99.225 E.01095
G1 X120.005 Y99.43 E.00938
;WIDTH:0.468145
G1 X120.266 Y99.812 E.01636
;WIDTH:0.516291
G1 X120.527 Y100.194 E.01821
G1 X120.653 Y100.232 E.00518
;WIDTH:0.468145
G1 X120.779 Y100.271 E.00465
;WIDTH:0.419999
G1 X121 Y100.284 E.00695
G1 X121.205 Y100.213 E.00679
G1 X122.107 Y99.692 E.03266
G1 X122.84 Y99.257 E.02673
G1 X123.016 Y98.976 E.01039
;WIDTH:0.468063
G1 X123.045 Y98.85 E.0046
;WIDTH:0.516127
G1 X123.074 Y98.723 E.00512
G1 X123.022 Y98.581 E.00596
;WIDTH:0.500817
G1 X122.846 Y98.238 E.0147
;WIDTH:0.460408
G1 X122.669 Y97.894 E.0134
;WIDTH:0.419999
G1 X122.614 Y97.675 E.0071
G1 X122.605 Y97.249 E.01336
G1 X122.736 Y96.552 E.02222
G1 X122.862 Y96.666 E.00532
G1 X123.198 Y97.09 E.01695
G1 X123.373 Y97.392 E.01094
G1 X123.466 Y97.681 E.00952
;WIDTH:0.468063
G1 X123.498 Y98.141 E.0163
;WIDTH:0.516127
G1 X123.529 Y98.601 E.01815
G1 X123.618 Y98.696 E.00512
;WIDTH:0.468063
G1 X123.706 Y98.792 E.0046
;WIDTH:0.419999
G1 X123.893 Y98.915 E.00701
G1 X124.106 Y98.957 E.00682
G1 X126 Y98.947 E.05938
G1 X126.291 Y98.794 E.01031
;WIDTH:0.468064
G1 X126.381 Y98.697 E.00465
;WIDTH:0.516129
G1 X126.47 Y98.601 E.00518
G1 X126.497 Y98.45 E.00604
;WIDTH:0.500848
G1 X126.525 Y98.012 E.01671
;WIDTH:0.460424
G1 X126.552 Y97.574 E.01524
;WIDTH:0.419999
G1 X126.802 Y97.09 E.01707
G1 X127.264 Y96.552 E.02222
G1 X127.315 Y96.714 E.00532
G1 X127.395 Y97.249 E.01696
G1 X127.395 Y97.598 E.01094
G1 X127.331 Y97.894 E.0095
;WIDTH:0.468064
G1 X127.128 Y98.309 E.01631
;WIDTH:0.516129
G1 X126.926 Y98.723 E.01816
G1 X126.955 Y98.851 E.00518
;WIDTH:0.468064
G1 X126.985 Y98.98 E.00465
;WIDTH:0.419999
G1 X127.084 Y99.178 E.00695
G1 X127.247 Y99.32 E.00678
G1 X128.893 Y100.258 E.05939
G1 X129.221 Y100.271 E.01031
;WIDTH:0.468107
G1 X129.347 Y100.232 E.00465
;WIDTH:0.516214
G1 X129.473 Y100.194 E.00518
G1 X129.57 Y100.078 E.00596
;WIDTH:0.500896
G1 X129.779 Y99.753 E.01471
;WIDTH:0.460448
G1 X129.989 Y99.428 E.01342
;WIDTH:0.419999
G1 X130.09 Y99.324 E.00455
G1 X130.516 Y99.05 E.01586
G1 X131.184 Y98.816 E.02222
G1 X131.148 Y98.982 E.00532
G1 X130.95 Y99.485 E.01695
G1 X130.775 Y99.787 E.01094
G1 X130.57 Y100.005 E.00938
;WIDTH:0.468107
G1 X130.188 Y100.266 E.01636
;WIDTH:0.516214
G1 X129.806 Y100.527 E.01821
G1 X129.768 Y100.653 E.00518
;WIDTH:0.468107
G1 X129.729 Y100.779 E.00465
;WIDTH:0.419999
G1 X129.716 Y101 E.00695
G1 X129.787 Y101.205 E.00678
G1 X130.742 Y102.838 E.05933
G1 X131.019 Y103.014 E.0103
;WIDTH:0.468105
G1 X131.148 Y103.044 E.00468
;WIDTH:0.51621
G1 X131.277 Y103.074 E.00521
G1 X131.421 Y103.021 E.00603
;WIDTH:0.500937
G1 X131.814 Y102.826 E.01672
;WIDTH:0.460468
G1 X132.207 Y102.631 E.01524
;WIDTH:0.419999
G1 X132.751 Y102.605 E.01707
G1 X133.448 Y102.736 E.02223
G1 X133.334 Y102.862 E.00532
G1 X132.91 Y103.198 E.01696
G1 X132.608 Y103.373 E.01094
G1 X132.32 Y103.466 E.0095
;WIDTH:0.468105
G1 X131.859 Y103.498 E.01632
;WIDTH:0.51621
G1 X131.596 Y103.516 E.01038
M204 S1000
G1 X131.59 Y103.919 F10800
M204 S800
;TYPE:External perimeter
;WIDTH:0.419999
G1 F1200
G1 X131.474 Y103.974 E.00402
G1 X131.42 Y104.106 E.00447
G1 X131.42 Y105.894 E.05605
G1 X131.468 Y106.019 E.0042
G1 X131.588 Y106.081 E.00425
G1 X132.358 Y106.159 E.02424
G1 X132.656 Y106.238 E.00969
G1 X133.1 Y106.471 E.01571
G1 X133.592 Y106.862 E.01971
G1 X134.02 Y107.332 E.01994
G1 X133.978 Y107.49 E.00513
G1 X133.333 Y107.689 E.02115
G1 X132.693 Y107.775 E.02027
G1 X132.098 Y107.733 E.0187
G1 X131.253 Y107.361 E.02894
G1 X131.111 Y107.351 E.00447
G1 X131.007 Y107.436 E.0042
G1 X130.113 Y108.984 E.05605
G1 X130.093 Y109.123 E.00439
G1 X130.165 Y109.231 E.00405
G1 X130.792 Y109.683 E.02424
G1 X131.011 Y109.9 E.00969
G1 X131.279 Y110.324 E.01571
G1 X131.51 Y110.908 E.01971
G1 X131.645 Y111.53 E.01994
M73 Q4 S8
G1 X131.53 Y111.645 E.00513
G1 X130.872 Y111.496 E.02114
G1 X130.274 Y111.25 E.02027
G1 X129.781 Y110.915 E.0187
G1 X129.235 Y110.171 E.02894
G1 X129.123 Y110.093 E.00429
G1 X128.984 Y110.113 E.00439
G1 X127.436 Y111.007 E.05604
G1 X127.349 Y111.12 E.00449
G1 X127.361 Y111.253 E.00417
M73 P4 R8
G1 X127.749 Y112.194 E.03191
G1 X127.776 Y112.75 E.01747
G1 X127.684 Y113.372 E.01971
G1 X127.49 Y113.978 E.01994
G1 X127.332 Y114.02 E.00513
G1 X126.862 Y113.592 E.01995
G1 X126.506 Y113.145 E.01791
G1 X126.298 Y112.792 E.01283
G1 X126.168 Y112.445 E.01164
G1 X126.082 Y111.59 E.02695
G1 X126.026 Y111.475 E.004
G1 X125.894 Y111.42 E.00449
G1 X124.106 Y111.42 E.05606
G1 X123.974 Y111.475 E.00449
G1 X123.919 Y111.588 E.00396
G1 X123.841 Y112.357 E.02423
G1 X123.762 Y112.656 E.0097
G1 X123.529 Y113.1 E.0157
G1 X123.138 Y113.592 E.01971
G1 X122.668 Y114.02 E.01995
G1 X122.51 Y113.978 E.00513
G1 X122.311 Y113.333 E.02115
G1 X122.225 Y112.693 E.02026
G1 X122.267 Y112.098 E.0187
G1 X122.639 Y111.253 E.02894
G1 X122.652 Y111.12 E.00419
G1 X122.564 Y111.007 E.00449
G1 X121.016 Y110.113 E.05605
G1 X120.874 Y110.094 E.00449
G1 X120.769 Y110.165 E.00395
G1 X120.317 Y110.792 E.02425
G1 X120.099 Y111.011 E.00969
G1 X119.676 Y111.279 E.0157
G1 X119.092 Y111.51 E.01971
G1 X118.47 Y111.645 E.01994
G1 X118.355 Y111.53 E.00513
G1 X118.504 Y110.872 E.02115
G1 X118.75 Y110.274 E.02027
G1 X119.085 Y109.781 E.0187
G1 X119.829 Y109.235 E.02895
G1 X119.906 Y109.126 E.00418
G1 X119.887 Y108.984 E.00449
G1 X118.993 Y107.436 E.05605
G1 X118.879 Y107.349 E.00449
G1 X118.747 Y107.361 E.00416
G1 X117.806 Y107.749 E.03191
G1 X117.25 Y107.776 E.01747
G1 X116.628 Y107.684 E.01971
G1 X116.022 Y107.49 E.01994
G1 X115.98 Y107.332 E.00513
G1 X116.408 Y106.862 E.01994
G1 X116.855 Y106.506 E.01791
G1 X117.208 Y106.298 E.01283
G1 X117.555 Y106.168 E.01163
G1 X118.41 Y106.081 E.02695
G1 X118.525 Y106.026 E.004
G1 X118.58 Y105.894 E.0045
G1 X118.58 Y104.123 E.05553
G1 X118.525 Y103.974 E.00498
G1 X118.412 Y103.919 E.00396
G1 X117.642 Y103.841 E.02424
G1 X117.344 Y103.762 E.00969
G1 X116.9 Y103.529 E.01571
G1 X116.408 Y103.138 E.01971
G1 X115.98 Y102.668 E.01994
G1 X116.022 Y102.51 E.00513
G1 X116.667 Y102.311 E.02115
G1 X117.307 Y102.225 E.02027
G1 X117.902 Y102.267 E.0187
G1 X118.747 Y102.639 E.02894
G1 X118.88 Y102.651 E.00419
G1 X118.993 Y102.564 E.00449
G1 X119.887 Y101.016 E.05605
G1 X119.906 Y100.874 E.00449
G1 X119.835 Y100.769 E.00395
G1 X119.208 Y100.317 E.02424
G1 X118.989 Y100.099 E.00969
G1 X118.721 Y99.676 E.01571
G1 X118.49 Y99.092 E.0197
G1 X118.355 Y98.47 E.01994
G1 X118.47 Y98.355 E.00513
G1 X119.128 Y98.504 E.02114
G1 X119.726 Y98.75 E.02027
G1 X120.219 Y99.085 E.0187
G1 X120.765 Y99.829 E.02894
G1 X120.874 Y99.906 E.00418
G1 X121.016 Y99.887 E.00449
G1 X122.564 Y98.993 E.05604
G1 X122.652 Y98.878 E.00452
G1 X122.642 Y98.752 E.00397
G1 X122.325 Y98.049 E.02417
G1 X122.244 Y97.75 E.00971
G1 X122.224 Y97.25 E.0157
G1 X122.316 Y96.628 E.01971
G1 X122.51 Y96.022 E.01994
G1 X122.668 Y95.98 E.00513
G1 X123.138 Y96.408 E.01995
G1 X123.494 Y96.855 E.01791
G1 X123.702 Y97.208 E.01283
G1 X123.832 Y97.555 E.01164
G1 X123.918 Y98.41 E.02694
G1 X123.973 Y98.525 E.00398
G1 X124.106 Y98.58 E.00452
G1 X125.878 Y98.58 E.05555
G1 X126.026 Y98.525 E.00495
G1 X126.082 Y98.404 E.00417
G1 X126.216 Y97.396 E.03191
G1 X126.471 Y96.9 E.01747
G1 X126.862 Y96.408 E.01971
G1 X127.332 Y95.98 E.01995
G1 X127.49 Y96.022 E.00513
G1 X127.684 Y96.628 E.01994
G1 X127.768 Y97.193 E.01791
G1 X127.772 Y97.603 E.01284
G1 X127.711 Y97.969 E.01163
G1 X127.358 Y98.752 E.02695
G1 X127.348 Y98.88 E.00401
G1 X127.436 Y98.993 E.00449
G1 X128.984 Y99.887 E.05606
G1 X129.126 Y99.906 E.00449
G1 X129.231 Y99.835 E.00396
G1 X129.683 Y99.207 E.02425
G1 X129.901 Y98.989 E.00968
G1 X130.324 Y98.721 E.0157
G1 X130.908 Y98.49 E.01971
G1 X131.53 Y98.355 E.01994
G1 X131.645 Y98.47 E.00513
G1 X131.496 Y99.128 E.02115
G1 X131.25 Y99.726 E.02027
G1 X130.915 Y100.219 E.0187
G1 X130.171 Y100.765 E.02895
G1 X130.094 Y100.874 E.00418
G1 X130.113 Y101.016 E.00449
G1 X131.007 Y102.564 E.05605
G1 X131.12 Y102.651 E.00447
G1 X131.253 Y102.639 E.00418
G1 X132.194 Y102.251 E.03191
G1 X132.75 Y102.224 E.01747
G1 X133.372 Y102.316 E.01971
G1 X133.978 Y102.51 E.01994
G1 X134.02 Y102.668 E.00513
G1 X133.592 Y103.138 E.01994
G1 X133.145 Y103.494 E.01791
G1 X132.792 Y103.702 E.01283
G1 X132.445 Y103.832 E.01163
G1 X131.649 Y103.913 E.02507
M204 S1000
G1 X131.491 Y103.837 F10800
;WIPE_START
G1 F8640
