; generated by PrusaSlicer 2.5.0+MacOS-arm64 on 2023-07-07 at 13:49:35 UTC


;
;
; 

; external perimeters extrusion width = 0.45mm
; perimeters extrusion width = 0.45mm
; infill extrusion width = 0.45mm
; solid infill extrusion width = 0.45mm
; top infill extrusion width = 0.40mm
; first layer extrusion width = 0.42mm

M73 P0 R51
M73 Q0 S51
M201 X1000 Y1000 Z200 E5000 ; sets maximum accelerations, mm/sec^2
M203 X200 Y200 Z12 E120 ; sets maximum feedrates, mm / sec
M204 P1250 R1250 T1250 ; sets acceleration (P, T) and retract acceleration (R), mm/sec^2
M205 X8.00 Y8.00 Z0.40 E4.50 ; sets the jerk limits, mm/sec
M205 S0 T0 ; sets the minimum extruding and travel feed rate, mm/sec
M107
;TYPE:Custom
M862.3 P "MK3S" ; printer model check
M862.1 P0.4 ; nozzle diameter check
M115 U3.12.1 ; tell printer latest fw version
G90 ; use absolute coordinates
M83 ; extruder relative mode
M104 S240 ; set extruder temp
M140 S85 ; set bed temp
M190 S85 ; wait for bed temp
M109 S240 ; wait for extruder temp
G28 W ; home all without mesh bed level
G80 ; mesh bed leveling

G1 Z0.2 F720
G1 Y-3 F1000 ; go outside print area
G92 E0
G1 X60 E9 F1000 ; intro line
G1 X100 E12.5 F1000 ; intro line

G92 E0
M221 S95

; Don't change E values below. Excessive value can damage the printer.
M907 E430 ; set extruder motor current
G21 ; set units to millimeters
G90 ; use absolute coordinates
M83 ; use relative distances for extrusion
M900 K0.08 ; Filament gcode LA 1.5
M900 K45 ; Filament gcode LA 1.0
M107
;LAYER_CHANGE
;Z:0.2
;HEIGHT:0.2
;BEFORE_LAYER_CHANGE
G92 E0.0
;0.2


G1 E-1 F2100
G1 Z.2 F720
;AFTER_LAYER_CHANGE
;0.2
G1 Z.4
G1 X83.077 Y83.264 F10800
G1 Z.2 F720
G1 E1 F2100
M204 S800
;TYPE:Skirt/Brim
;WIDTH:0.42
G1 F1200
G1 X84.123 Y82.387 E.04278
G1 X85.063 Y82.194 E.03008
G1 X164.938 Y82.194 E2.50442
G1 X166.245 Y82.585 E.04278
M73 P0 R50
G1 X167.121 Y83.631 E.04278
G1 X167.315 Y84.571 E.03008
G1 X167.315 Y125.429 E1.28108
G1 X166.923 Y126.736 E.04278
G1 X165.877 Y127.613 E.04278
G1 X164.938 Y127.806 E.03008
G1 X85.063 Y127.806 E2.50442
G1 X83.755 Y127.415 E.04278
G1 X82.879 Y126.369 E.04278
G1 X82.685 Y125.429 E.03008
G1 X82.685 Y84.571 E1.28108
G1 X83.06 Y83.321 E.0409
M204 S1000
; printing object basePlate_left.stl id:0 copy 0
;WIPE_START
M73 Q0 S50
G1 F8640
G1 X84.123 Y82.387 E-.32671
G1 X85.063 Y82.194 E-.22155
G1 X86.802 Y82.194 E-.40174
;WIPE_END
G1 E-.05 F2100
G1 Z.4 F720
G1 X164.15 Y124.642 F10800
G1 Z.2 F720
G1 E1 F2100
M204 S800
;TYPE:Perimeter
;WIDTH:0.419999
G1 F1200
G1 X85.85 Y124.642 E2.45506
G1 X85.85 Y85.358 E1.23172
G1 X164.15 Y85.358 E2.45506
G1 X164.15 Y124.582 E1.22984
M204 S1000
M73 P1 R50
M73 Q1 S50
G1 X164.528 Y125.019 F10800
M204 S800
;TYPE:External perimeter
G1 F1200
G1 X85.472 Y125.019 E2.47871
G1 X85.472 Y84.981 E1.25537
G1 X164.528 Y84.981 E2.47871
G1 X164.528 Y124.959 E1.25348
M204 S1000
G1 X164.132 Y124.957 F10800
;WIPE_START
G1 F8640
G1 X160.413 Y124.962 E-.95
;WIPE_END
G1 E-.05 F2100
G1 Z.4 F720
G1 X163.272 Y85.471 F10800
G1 Z.2 F720
G1 E1 F2100
M204 S800
;TYPE:Solid infill
;WIDTH:0.42136
G1 F1200
G1 X163.868 Y86.067 E.0265
G1 X163.868 Y86.602 E.01684
G1 X162.907 Y85.641 E.04277
G1 X162.371 Y85.641 E.01684
G1 X163.868 Y87.137 E.06658
G1 X163.868 Y87.672 E.01684
G1 X161.836 Y85.641 E.0904
G1 X161.301 Y85.641 E.01684
G1 X163.868 Y88.207 E.11422
G1 X163.868 Y88.743 E.01684
G1 X160.766 Y85.641 E.13803
G1 X160.231 Y85.641 E.01684
G1 X163.868 Y89.278 E.16185
G1 X163.868 Y89.813 E.01684
G1 X159.695 Y85.641 E.18567
G1 X159.16 Y85.641 E.01684
G1 X163.868 Y90.348 E.20948
G1 X163.868 Y90.883 E.01684
G1 X158.625 Y85.641 E.2333
G1 X158.09 Y85.641 E.01684
G1 X163.868 Y91.419 E.25712
G1 X163.868 Y91.954 E.01684
G1 X157.555 Y85.641 E.28094
G1 X157.019 Y85.641 E.01684
G1 X163.868 Y92.489 E.30475
G1 X163.868 Y93.024 E.01684
G1 X156.484 Y85.641 E.32857
G1 X155.949 Y85.641 E.01684
G1 X163.868 Y93.559 E.35239
G1 X163.868 Y94.095 E.01684
G1 X155.414 Y85.641 E.3762
G1 X154.879 Y85.641 E.01684
G1 X163.868 Y94.63 E.40002
G1 X163.868 Y95.165 E.01684
G1 X154.344 Y85.641 E.42384
G1 X153.808 Y85.641 E.01684
G1 X163.868 Y95.7 E.44766
G1 X163.868 Y96.235 E.01684
G1 X153.273 Y85.641 E.47147
G1 X152.738 Y85.641 E.01684
G1 X163.868 Y96.77 E.49529
G1 X163.868 Y97.306 E.01684
G1 X152.203 Y85.641 E.51911
G1 X151.668 Y85.641 E.01684
G1 X163.868 Y97.841 E.54292
G1 X163.868 Y98.376 E.01684
G1 X151.132 Y85.641 E.56674
G1 X150.597 Y85.641 E.01684
G1 X163.868 Y98.911 E.59056
G1 X163.868 Y99.446 E.01684
G1 X150.062 Y85.641 E.61437
G1 X149.527 Y85.641 E.01684
G1 X163.868 Y99.982 E.63819
G1 X163.868 Y100.517 E.01684
G1 X148.992 Y85.641 E.66201
G1 X148.456 Y85.641 E.01684
M73 P2 R50
M73 Q2 S50
G1 X163.868 Y101.052 E.68583
G1 X163.868 Y101.587 E.01684
G1 X147.921 Y85.641 E.70964
G1 X147.386 Y85.641 E.01684
G1 X163.868 Y102.122 E.73346
G1 X163.868 Y102.658 E.01684
G1 X146.851 Y85.641 E.75728
G1 X146.316 Y85.641 E.01684
G1 X163.868 Y103.193 E.78109
G1 X163.868 Y103.728 E.01684
G1 X145.78 Y85.641 E.80491
G1 X145.245 Y85.641 E.01684
M73 P2 R49
G1 X163.868 Y104.263 E.82873
G1 X163.868 Y104.798 E.01684
G1 X144.71 Y85.641 E.85255
G1 X144.175 Y85.641 E.01684
G1 X163.868 Y105.334 E.87636
G1 X163.868 Y105.869 E.01684
G1 X143.64 Y85.641 E.90018
G1 X143.104 Y85.641 E.01684
G1 X163.868 Y106.404 E.924
G1 X163.868 Y106.939 E.01684
G1 X142.569 Y85.641 E.94781
G1 X142.034 Y85.641 E.01684
G1 X163.868 Y107.474 E.97163
G1 X163.868 Y108.01 E.01684
G1 X141.499 Y85.641 E.99545
G1 X140.964 Y85.641 E.01684
M73 Q2 S49
G1 X163.868 Y108.545 E1.01926
G1 X163.868 Y109.08 E.01684
G1 X140.428 Y85.641 E1.04308
G1 X139.893 Y85.641 E.01684
G1 X163.868 Y109.615 E1.0669
G1 X163.868 Y110.15 E.01684
G1 X139.358 Y85.641 E1.09072
G1 X138.823 Y85.641 E.01684
G1 X163.868 Y110.686 E1.11453
G1 X163.868 Y111.221 E.01684
G1 X138.288 Y85.641 E1.13835
G1 X137.752 Y85.641 E.01684
G1 X163.868 Y111.756 E1.16217
G1 X163.868 Y112.291 E.01684
M73 P3 R49
M73 Q3 S49
G1 X137.217 Y85.641 E1.18598
G1 X136.682 Y85.641 E.01684
G1 X163.868 Y112.826 E1.2098
G1 X163.868 Y113.362 E.01684
G1 X136.147 Y85.641 E1.23362
G1 X135.612 Y85.641 E.01684
G1 X163.868 Y113.897 E1.25744
G1 X163.868 Y114.432 E.01684
G1 X135.077 Y85.641 E1.28125
G1 X134.541 Y85.641 E.01684
G1 X163.868 Y114.967 E1.30507
G1 X163.868 Y115.502 E.01684
G1 X134.006 Y85.641 E1.32889
G1 X133.471 Y85.641 E.01684
G1 X163.868 Y116.038 E1.3527
G1 X163.868 Y116.573 E.01684
G1 X132.936 Y85.641 E1.37652
G1 X132.401 Y85.641 E.01684
G1 X163.868 Y117.108 E1.40034
G1 X163.868 Y117.643 E.01684
G1 X131.865 Y85.641 E1.42415
G1 X131.33 Y85.641 E.01684
G1 X163.868 Y118.178 E1.44797
G1 X163.868 Y118.713 E.01684
G1 X130.795 Y85.641 E1.47179
G1 X130.26 Y85.641 E.01684
G1 X163.868 Y119.249 E1.49561
G1 X163.868 Y119.784 E.01684
M73 P4 R49
M73 Q4 S49
G1 X129.725 Y85.641 E1.51942
G1 X129.189 Y85.641 E.01684
G1 X163.868 Y120.319 E1.54324
G1 X163.868 Y120.854 E.01684
G1 X128.654 Y85.641 E1.56706
G1 X128.119 Y85.641 E.01684
M73 P4 R48
G1 X163.868 Y121.389 E1.59087
G1 X163.868 Y121.925 E.01684
G1 X127.584 Y85.641 E1.61469
G1 X127.049 Y85.641 E.01684
G1 X163.868 Y122.46 E1.63851
G1 X163.868 Y122.995 E.01684
G1 X126.513 Y85.641 E1.66233
G1 X125.978 Y85.641 E.01684
M73 Q4 S48
G1 X163.868 Y123.53 E1.68614
G1 X163.868 Y124.065 E.01684
G1 X125.443 Y85.641 E1.70996
G1 X124.908 Y85.641 E.01684
G1 X163.626 Y124.359 E1.72303
G1 X163.091 Y124.359 E.01684
G1 X124.373 Y85.641 E1.72303
G1 X123.837 Y85.641 E.01684
G1 X162.556 Y124.359 E1.72303
G1 X162.021 Y124.359 E.01684
M73 P5 R48
M73 Q5 S48
G1 X123.302 Y85.641 E1.72303
G1 X122.767 Y85.641 E.01684
G1 X161.485 Y124.359 E1.72303
G1 X160.95 Y124.359 E.01684
G1 X122.232 Y85.641 E1.72303
G1 X121.697 Y85.641 E.01684
G1 X160.415 Y124.359 E1.72303
G1 X159.88 Y124.359 E.01684
G1 X121.161 Y85.641 E1.72303
G1 X120.626 Y85.641 E.01684
G1 X159.345 Y124.359 E1.72303
G1 X158.809 Y124.359 E.01684
G1 X120.091 Y85.641 E1.72303
G1 X119.556 Y85.641 E.01684
G1 X158.274 Y124.359 E1.72303
G1 X157.739 Y124.359 E.01684
G1 X119.021 Y85.641 E1.72303
G1 X118.485 Y85.641 E.01684
G1 X157.204 Y124.359 E1.72303
G1 X156.669 Y124.359 E.01684
G1 X117.95 Y85.641 E1.72303
G1 X117.415 Y85.641 E.01684
M73 P6 R48
M73 Q6 S48
G1 X156.133 Y124.359 E1.72303
G1 X155.598 Y124.359 E.01684
G1 X116.88 Y85.641 E1.72303
G1 X116.345 Y85.641 E.01684
M73 P6 R47
G1 X155.063 Y124.359 E1.72303
G1 X154.528 Y124.359 E.01684
G1 X115.809 Y85.641 E1.72303
G1 X115.274 Y85.641 E.01684
G1 X153.993 Y124.359 E1.72303
G1 X153.458 Y124.359 E.01684
M73 Q6 S47
G1 X114.739 Y85.641 E1.72303
G1 X114.204 Y85.641 E.01684
G1 X152.922 Y124.359 E1.72303
G1 X152.387 Y124.359 E.01684
G1 X113.669 Y85.641 E1.72303
G1 X113.134 Y85.641 E.01684
G1 X151.852 Y124.359 E1.72303
G1 X151.317 Y124.359 E.01684
G1 X112.598 Y85.641 E1.72303
G1 X112.063 Y85.641 E.01684
G1 X150.782 Y124.359 E1.72303
G1 X150.246 Y124.359 E.01684
M73 P7 R47
M73 Q7 S47
G1 X111.528 Y85.641 E1.72303
G1 X110.993 Y85.641 E.01684
G1 X149.711 Y124.359 E1.72303
G1 X149.176 Y124.359 E.01684
G1 X110.458 Y85.641 E1.72303
G1 X109.922 Y85.641 E.01684
G1 X148.641 Y124.359 E1.72303
G1 X148.106 Y124.359 E.01684
G1 X109.387 Y85.641 E1.72303
G1 X108.852 Y85.641 E.01684
G1 X147.57 Y124.359 E1.72303
G1 X147.035 Y124.359 E.01684
G1 X108.317 Y85.641 E1.72303
G1 X107.782 Y85.641 E.01684
G1 X146.5 Y124.359 E1.72303
G1 X145.965 Y124.359 E.01684
G1 X107.246 Y85.641 E1.72303
G1 X106.711 Y85.641 E.01684
G1 X145.43 Y124.359 E1.72303
G1 X144.894 Y124.359 E.01684
G1 X106.176 Y85.641 E1.72303
G1 X105.641 Y85.641 E.01684
M73 P8 R47
M73 Q8 S47
G1 X144.359 Y124.359 E1.72303
G1 X143.824 Y124.359 E.01684
M73 P8 R46
G1 X105.106 Y85.641 E1.72303
G1 X104.57 Y85.641 E.01684
G1 X143.289 Y124.359 E1.72303
G1 X142.754 Y124.359 E.01684
G1 X104.035 Y85.641 E1.72303
G1 X103.5 Y85.641 E.01684
G1 X142.218 Y124.359 E1.72303
G1 X141.683 Y124.359 E.01684
M73 Q8 S46
G1 X102.965 Y85.641 E1.72303
G1 X102.43 Y85.641 E.01684
G1 X141.148 Y124.359 E1.72303
G1 X140.613 Y124.359 E.01684
G1 X101.894 Y85.641 E1.72303
G1 X101.359 Y85.641 E.01684
G1 X140.078 Y124.359 E1.72303
G1 X139.542 Y124.359 E.01684
G1 X100.824 Y85.641 E1.72303
G1 X100.289 Y85.641 E.01684
G1 X139.007 Y124.359 E1.72303
G1 X138.472 Y124.359 E.01684
M73 P9 R46
M73 Q9 S46
G1 X99.754 Y85.641 E1.72303
G1 X99.218 Y85.641 E.01684
G1 X137.937 Y124.359 E1.72303
G1 X137.402 Y124.359 E.01684
G1 X98.683 Y85.641 E1.72303
G1 X98.148 Y85.641 E.01684
G1 X136.866 Y124.359 E1.72303
G1 X136.331 Y124.359 E.01684
G1 X97.613 Y85.641 E1.72303
G1 X97.078 Y85.641 E.01684
G1 X135.796 Y124.359 E1.72303
G1 X135.261 Y124.359 E.01684
G1 X96.542 Y85.641 E1.72303
G1 X96.007 Y85.641 E.01684
G1 X134.726 Y124.359 E1.72303
G1 X134.19 Y124.359 E.01684
G1 X95.472 Y85.641 E1.72303
G1 X94.937 Y85.641 E.01684
G1 X133.655 Y124.359 E1.72303
G1 X133.12 Y124.359 E.01684
G1 X94.402 Y85.641 E1.72303
G1 X93.866 Y85.641 E.01684
M73 P10 R46
M73 Q10 S46
G1 X132.585 Y124.359 E1.72303
G1 X132.05 Y124.359 E.01684
M73 P10 R45
G1 X93.331 Y85.641 E1.72303
G1 X92.796 Y85.641 E.01684
G1 X131.515 Y124.359 E1.72303
G1 X130.979 Y124.359 E.01684
G1 X92.261 Y85.641 E1.72303
G1 X91.726 Y85.641 E.01684
G1 X130.444 Y124.359 E1.72303
G1 X129.909 Y124.359 E.01684
M73 Q10 S45
G1 X91.191 Y85.641 E1.72303
G1 X90.655 Y85.641 E.01684
G1 X129.374 Y124.359 E1.72303
G1 X128.839 Y124.359 E.01684
G1 X90.12 Y85.641 E1.72303
G1 X89.585 Y85.641 E.01684
G1 X128.303 Y124.359 E1.72303
G1 X127.768 Y124.359 E.01684
G1 X89.05 Y85.641 E1.72303
G1 X88.515 Y85.641 E.01684
G1 X127.233 Y124.359 E1.72303
G1 X126.698 Y124.359 E.01684
M73 P11 R45
M73 Q11 S45
G1 X87.979 Y85.641 E1.72303
G1 X87.444 Y85.641 E.01684
G1 X126.163 Y124.359 E1.72303
G1 X125.627 Y124.359 E.01684
G1 X86.909 Y85.641 E1.72303
G1 X86.374 Y85.641 E.01684
G1 X125.092 Y124.359 E1.72303
G1 X124.557 Y124.359 E.01684
G1 X86.132 Y85.935 E1.70996
G1 X86.132 Y86.47 E.01684
G1 X124.022 Y124.359 E1.68614
G1 X123.487 Y124.359 E.01684
G1 X86.132 Y87.005 E1.66232
G1 X86.132 Y87.54 E.01684
G1 X122.951 Y124.359 E1.63851
G1 X122.416 Y124.359 E.01684
G1 X86.132 Y88.075 E1.61469
G1 X86.132 Y88.611 E.01684
G1 X121.881 Y124.359 E1.59087
G1 X121.346 Y124.359 E.01684
G1 X86.132 Y89.146 E1.56706
G1 X86.132 Y89.681 E.01684
M73 P12 R45
G1 X120.811 Y124.359 E1.54324
G1 X120.275 Y124.359 E.01684
M73 P12 R44
M73 Q12 S45
G1 X86.132 Y90.216 E1.51942
G1 X86.132 Y90.751 E.01684
G1 X119.74 Y124.359 E1.4956
G1 X119.205 Y124.359 E.01684
G1 X86.132 Y91.287 E1.47179
G1 X86.132 Y91.822 E.01684
G1 X118.67 Y124.359 E1.44797
G1 X118.135 Y124.359 E.01684
M73 Q12 S44
G1 X86.132 Y92.357 E1.42415
G1 X86.132 Y92.892 E.01684
G1 X117.599 Y124.359 E1.40034
G1 X117.064 Y124.359 E.01684
G1 X86.132 Y93.427 E1.37652
G1 X86.132 Y93.963 E.01684
G1 X116.529 Y124.359 E1.3527
G1 X115.994 Y124.359 E.01684
G1 X86.132 Y94.498 E1.32888
G1 X86.132 Y95.033 E.01684
G1 X115.459 Y124.359 E1.30507
G1 X114.923 Y124.359 E.01684
G1 X86.132 Y95.568 E1.28125
G1 X86.132 Y96.103 E.01684
G1 X114.388 Y124.359 E1.25743
G1 X113.853 Y124.359 E.01684
G1 X86.132 Y96.639 E1.23362
G1 X86.132 Y97.174 E.01684
M73 P13 R44
M73 Q13 S44
G1 X113.318 Y124.359 E1.2098
G1 X112.783 Y124.359 E.01684
G1 X86.132 Y97.709 E1.18598
G1 X86.132 Y98.244 E.01684
G1 X112.247 Y124.359 E1.16217
G1 X111.712 Y124.359 E.01684
G1 X86.132 Y98.779 E1.13835
G1 X86.132 Y99.314 E.01684
G1 X111.177 Y124.359 E1.11453
G1 X110.642 Y124.359 E.01684
G1 X86.132 Y99.85 E1.09071
G1 X86.132 Y100.385 E.01684
G1 X110.107 Y124.359 E1.0669
G1 X109.572 Y124.359 E.01684
G1 X86.132 Y100.92 E1.04308
G1 X86.132 Y101.455 E.01684
G1 X109.036 Y124.359 E1.01926
G1 X108.501 Y124.359 E.01684
G1 X86.132 Y101.99 E.99545
G1 X86.132 Y102.526 E.01684
G1 X107.966 Y124.359 E.97163
G1 X107.431 Y124.359 E.01684
G1 X86.132 Y103.061 E.94781
G1 X86.132 Y103.596 E.01684
G1 X106.896 Y124.359 E.92399
G1 X106.36 Y124.359 E.01684
G1 X86.132 Y104.131 E.90018
G1 X86.132 Y104.666 E.01684
G1 X105.825 Y124.359 E.87636
G1 X105.29 Y124.359 E.01684
G1 X86.132 Y105.202 E.85254
G1 X86.132 Y105.737 E.01684
G1 X104.755 Y124.359 E.82873
G1 X104.22 Y124.359 E.01684
G1 X86.132 Y106.272 E.80491
G1 X86.132 Y106.807 E.01684
M73 P13 R43
G1 X103.684 Y124.359 E.78109
G1 X103.149 Y124.359 E.01684
M73 P14 R43
M73 Q14 S44
G1 X86.132 Y107.342 E.75728
G1 X86.132 Y107.878 E.01684
G1 X102.614 Y124.359 E.73346
G1 X102.079 Y124.359 E.01684
G1 X86.132 Y108.413 E.70964
G1 X86.132 Y108.948 E.01684
G1 X101.544 Y124.359 E.68582
G1 X101.008 Y124.359 E.01684
G1 X86.132 Y109.483 E.66201
G1 X86.132 Y110.018 E.01684
G1 X100.473 Y124.359 E.63819
G1 X99.938 Y124.359 E.01684
G1 X86.132 Y110.554 E.61437
G1 X86.132 Y111.089 E.01684
G1 X99.403 Y124.359 E.59056
G1 X98.868 Y124.359 E.01684
M73 Q14 S43
G1 X86.132 Y111.624 E.56674
G1 X86.132 Y112.159 E.01684
G1 X98.332 Y124.359 E.54292
G1 X97.797 Y124.359 E.01684
G1 X86.132 Y112.694 E.5191
G1 X86.132 Y113.23 E.01684
G1 X97.262 Y124.359 E.49529
G1 X96.727 Y124.359 E.01684
G1 X86.132 Y113.765 E.47147
G1 X86.132 Y114.3 E.01684
G1 X96.192 Y124.359 E.44765
G1 X95.656 Y124.359 E.01684
G1 X86.132 Y114.835 E.42384
G1 X86.132 Y115.37 E.01684
G1 X95.121 Y124.359 E.40002
G1 X94.586 Y124.359 E.01684
G1 X86.132 Y115.906 E.3762
G1 X86.132 Y116.441 E.01684
G1 X94.051 Y124.359 E.35239
G1 X93.516 Y124.359 E.01684
G1 X86.132 Y116.976 E.32857
G1 X86.132 Y117.511 E.01684
G1 X92.98 Y124.359 E.30475
G1 X92.445 Y124.359 E.01684
G1 X86.132 Y118.046 E.28093
G1 X86.132 Y118.582 E.01684
G1 X91.91 Y124.359 E.25712
G1 X91.375 Y124.359 E.01684
G1 X86.132 Y119.117 E.2333
G1 X86.132 Y119.652 E.01684
G1 X90.84 Y124.359 E.20948
G1 X90.304 Y124.359 E.01684
G1 X86.132 Y120.187 E.18567
G1 X86.132 Y120.722 E.01684
G1 X89.769 Y124.359 E.16185
G1 X89.234 Y124.359 E.01684
G1 X86.132 Y121.257 E.13803
G1 X86.132 Y121.793 E.01684
G1 X88.699 Y124.359 E.11421
G1 X88.164 Y124.359 E.01684
G1 X86.132 Y122.328 E.0904
G1 X86.132 Y122.863 E.01684
G1 X87.629 Y124.359 E.06658
G1 X87.093 Y124.359 E.01684
G1 X86.132 Y123.398 E.04276
G1 X86.132 Y123.933 E.01684
G1 X86.728 Y124.529 E.0265
M204 S1000
; stop printing object basePlate_left.stl id:0 copy 0
;LAYER_CHANGE
;Z:0.4
;HEIGHT:0.2
;BEFORE_LAYER_CHANGE
G92 E0.0
;0.4


;WIPE_START
G1 F8640
G1 X86.132 Y123.933 E-.19444
