; generated by PrusaSlicer 2.5.0+MacOS-arm64 on 2023-06-08 at 15:32:29 UTC


;
;
; 

; external perimeters extrusion width = 0.45mm
; perimeters extrusion width = 0.45mm
; infill extrusion width = 0.45mm
; solid infill extrusion width = 0.45mm
; top infill extrusion width = 0.40mm
; first layer extrusion width = 0.42mm

M73 P0 R48
M73 Q0 S49
M201 X1000 Y1000 Z200 E5000 ; sets maximum accelerations, mm/sec^2
M203 X200 Y200 Z12 E120 ; sets maximum feedrates, mm / sec
M204 P1250 R1250 T1250 ; sets acceleration (P, T) and retract acceleration (R), mm/sec^2
M205 X8.00 Y8.00 Z0.40 E4.50 ; sets the jerk limits, mm/sec
M205 S0 T0 ; sets the minimum extruding and travel feed rate, mm/sec
M107
;TYPE:Custom
M862.3 P "MK3S" ; printer model check
M862.1 P0.4 ; nozzle diameter check
M115 U3.12.1 ; tell printer latest fw version
G90 ; use absolute coordinates
M83 ; extruder relative mode
M104 S215 ; set extruder temp
M140 S60 ; set bed temp
M190 S60 ; wait for bed temp
M109 S215 ; wait for extruder temp
G28 W ; home all without mesh bed level
G80 ; mesh bed leveling

G1 Z0.2 F720
G1 Y-3 F1000 ; go outside print area
G92 E0
G1 X60 E9 F1000 ; intro line
G1 X100 E12.5 F1000 ; intro line

G92 E0
M221 S95

; Don't change E values below. Excessive value can damage the printer.
M907 E430 ; set extruder motor current
G21 ; set units to millimeters
G90 ; use absolute coordinates
M83 ; use relative distances for extrusion
M900 K0.05 ; Filament gcode LA 1.5
M900 K30 ; Filament gcode LA 1.0
M107
;LAYER_CHANGE
;Z:0.2
;HEIGHT:0.2
;BEFORE_LAYER_CHANGE
G92 E0.0
;0.2


M73 Q0 S48
G1 E-.8 F2100
G1 Z.4 F720
;AFTER_LAYER_CHANGE
;0.2
G1 X96.573 Y98.28 F10800
G1 Z.2 F720
G1 E.8 F2100
M204 S800
;TYPE:Skirt/Brim
;WIDTH:0.42
G1 F1200
G1 X97.37 Y97.528 E.03434
G1 X119.118 Y84.972 E.78739
G1 X120.306 Y84.653 E.03858
G1 X151.442 Y84.653 E.97622
G1 X152.749 Y85.045 E.04278
G1 X153.625 Y86.091 E.04278
G1 X153.819 Y87.031 E.03008
G1 X153.819 Y110.413 E.73315
G1 X153.427 Y111.72 E.04278
G1 X152.164 Y112.678 E.04971
G1 X112.78 Y125.234 E1.29607
G1 X112.058 Y125.347 E.02291
G1 X98.558 Y125.347 E.42328
G1 X97.251 Y124.955 E.04278
G1 X96.375 Y123.909 E.04278
G1 X96.181 Y122.969 E.03008
G1 X96.181 Y99.587 E.73315
G1 X96.556 Y98.337 E.0409
M204 S1000
; printing object motorHolder.stl id:0 copy 0
;WIPE_START
G1 F8640
G1 X97.37 Y97.528 E-.26502
G1 X99.226 Y96.456 E-.49498
;WIPE_END
G1 E-.04 F2100
G1 Z.6 F720
G1 X150.654 Y109.626 F10800
G1 Z.2 F720
G1 E.8 F2100
M204 S800
;TYPE:Perimeter
;WIDTH:0.419999
G1 F1200
G1 X133.709 Y109.627 E.5313
G1 X133.464 Y109.702 E.00803
G1 X111.848 Y122.182 E.78263
G1 X99.346 Y122.182 E.39199
G1 X99.346 Y100.041 E.69422
G1 X120.517 Y87.818 E.76652
G1 X150.654 Y87.818 E.94493
G1 X150.654 Y109.566 E.68191
M204 S1000
G1 X151.032 Y110.003 F10800
M204 S800
;TYPE:External perimeter
G1 F1200
G1 X133.747 Y110.003 E.54194
G1 X133.653 Y110.028 E.00306
G1 X111.949 Y122.559 E.7858
G1 X98.968 Y122.559 E.40698
G1 X98.968 Y99.823 E.71287
G1 X120.416 Y87.441 E.77652
G1 X151.032 Y87.441 E.95992
M73 P1 R48
M73 Q1 S48
G1 X151.032 Y109.943 E.70555
M204 S1000
G1 X150.64 Y109.919 F10800
;WIPE_START
G1 F8640
G1 X147.74 Y109.955 E-.76
;WIPE_END
G1 E-.04 F2100
G1 Z.6 F720
G1 X149.774 Y87.931 F10800
G1 Z.2 F720
G1 E.8 F2100
M204 S800
;TYPE:Solid infill
;WIDTH:0.422252
G1 F1200
G1 X150.372 Y88.528 E.02665
G1 X150.372 Y89.065 E.01692
G1 X149.408 Y88.1 E.04301
G1 X148.871 Y88.1 E.01692
G1 X150.372 Y89.601 E.06694
G1 X150.372 Y90.137 E.01692
G1 X148.335 Y88.1 E.09087
G1 X147.798 Y88.1 E.01692
G1 X150.372 Y90.674 E.1148
G1 X150.372 Y91.21 E.01692
G1 X147.262 Y88.1 E.13872
G1 X146.725 Y88.1 E.01692
G1 X150.372 Y91.747 E.16265
G1 X150.372 Y92.283 E.01692
G1 X146.189 Y88.1 E.18658
G1 X145.652 Y88.1 E.01692
G1 X150.372 Y92.82 E.21051
G1 X150.372 Y93.356 E.01692
G1 X145.116 Y88.1 E.23444
G1 X144.579 Y88.1 E.01692
G1 X150.372 Y93.893 E.25837
G1 X150.372 Y94.429 E.01692
G1 X144.043 Y88.1 E.2823
G1 X143.507 Y88.1 E.01692
G1 X150.372 Y94.966 E.30623
G1 X150.372 Y95.502 E.01692
G1 X142.97 Y88.1 E.33016
G1 X142.434 Y88.1 E.01692
G1 X150.372 Y96.038 E.35409
G1 X150.372 Y96.575 E.01692
G1 X141.897 Y88.1 E.37802
G1 X141.361 Y88.1 E.01692
G1 X150.372 Y97.111 E.40195
G1 X150.372 Y97.648 E.01692
G1 X140.824 Y88.1 E.42588
G1 X140.288 Y88.1 E.01692
G1 X150.372 Y98.184 E.44981
G1 X150.372 Y98.721 E.01692
G1 X139.751 Y88.1 E.47374
G1 X139.215 Y88.1 E.01692
G1 X150.372 Y99.257 E.49767
G1 X150.372 Y99.794 E.01692
G1 X138.678 Y88.1 E.5216
G1 X138.142 Y88.1 E.01692
G1 X150.372 Y100.33 E.54553
G1 X150.372 Y100.867 E.01692
G1 X137.605 Y88.1 E.56946
G1 X137.069 Y88.1 E.01692
G1 X150.372 Y101.403 E.59338
G1 X150.372 Y101.94 E.01692
G1 X136.533 Y88.1 E.61731
G1 X135.996 Y88.1 E.01692
G1 X150.372 Y102.476 E.64124
G1 X150.372 Y103.012 E.01692
G1 X135.46 Y88.1 E.66517
G1 X134.923 Y88.1 E.01692
G1 X150.372 Y103.549 E.6891
G1 X150.372 Y104.085 E.01692
M73 P1 R47
G1 X134.387 Y88.1 E.71303
G1 X133.85 Y88.1 E.01692
G1 X150.372 Y104.622 E.73696
G1 X150.372 Y105.158 E.01692
G1 X133.314 Y88.1 E.76089
G1 X132.777 Y88.1 E.01692
G1 X150.372 Y105.695 E.78482
G1 X150.372 Y106.231 E.01692
G1 X132.241 Y88.1 E.80875
G1 X131.704 Y88.1 E.01692
G1 X150.372 Y106.768 E.83268
G1 X150.372 Y107.304 E.01692
G1 X131.168 Y88.1 E.85661
G1 X130.632 Y88.1 E.01692
M73 P2 R47
M73 Q2 S48
G1 X150.372 Y107.841 E.88054
G1 X150.372 Y108.377 E.01692
G1 X130.095 Y88.1 E.90447
G1 X129.559 Y88.1 E.01692
G1 X150.372 Y108.913 E.9284
G1 X150.372 Y109.343 E.01356
M73 Q2 S47
G1 X150.265 Y109.343 E.00336
G1 X129.022 Y88.1 E.94757
G1 X128.486 Y88.1 E.01692
G1 X149.729 Y109.343 E.94757
G1 X149.192 Y109.343 E.01692
G1 X127.949 Y88.1 E.94757
G1 X127.413 Y88.1 E.01692
G1 X148.656 Y109.343 E.94757
G1 X148.119 Y109.343 E.01692
G1 X126.876 Y88.1 E.94757
G1 X126.34 Y88.1 E.01692
G1 X147.583 Y109.343 E.94757
G1 X147.046 Y109.343 E.01692
G1 X125.803 Y88.1 E.94757
G1 X125.267 Y88.1 E.01692
G1 X146.51 Y109.343 E.94757
G1 X145.973 Y109.343 E.01692
G1 X124.731 Y88.1 E.94757
G1 X124.194 Y88.1 E.01692
G1 X145.437 Y109.343 E.94757
G1 X144.901 Y109.343 E.01692
G1 X123.658 Y88.1 E.94757
G1 X123.121 Y88.1 E.01692
G1 X144.364 Y109.343 E.94757
G1 X143.828 Y109.343 E.01692
G1 X122.585 Y88.1 E.94757
G1 X122.048 Y88.1 E.01692
G1 X143.291 Y109.343 E.94757
G1 X142.755 Y109.343 E.01692
G1 X121.512 Y88.1 E.94757
G1 X120.975 Y88.1 E.01692
G1 X142.218 Y109.343 E.94757
G1 X141.682 Y109.343 E.01692
M73 P3 R47
M73 Q3 S47
G1 X120.495 Y88.157 E.94505
G1 X120.155 Y88.353 E.01239
G1 X141.145 Y109.343 E.9363
G1 X140.609 Y109.343 E.01692
G1 X119.815 Y88.55 E.92754
G1 X119.475 Y88.746 E.01239
G1 X140.072 Y109.343 E.91878
G1 X139.536 Y109.343 E.01692
G1 X119.135 Y88.942 E.91002
G1 X118.795 Y89.139 E.01239
G1 X139 Y109.343 E.90126
G1 X138.463 Y109.343 E.01692
G1 X118.455 Y89.335 E.8925
G1 X118.115 Y89.531 E.01239
G1 X137.927 Y109.343 E.88374
G1 X137.39 Y109.343 E.01692
G1 X117.775 Y89.728 E.87498
G1 X117.434 Y89.924 E.01239
G1 X136.854 Y109.343 E.86623
G1 X136.317 Y109.343 E.01692
G1 X117.094 Y90.12 E.85747
G1 X116.754 Y90.317 E.01239
G1 X135.781 Y109.343 E.84871
G1 X135.244 Y109.343 E.01692
G1 X116.414 Y90.513 E.83995
G1 X116.074 Y90.71 E.01239
G1 X134.708 Y109.343 E.83119
G1 X134.171 Y109.343 E.01692
G1 X115.734 Y90.906 E.82243
G1 X115.394 Y91.102 E.01239
G1 X133.647 Y109.356 E.81423
G1 X133.524 Y109.372 E.00394
M73 P3 R46
G1 X133.253 Y109.498 E.00942
G1 X115.054 Y91.299 E.81179
G1 X114.714 Y91.495 E.01239
G1 X132.913 Y109.694 E.81179
G1 X132.573 Y109.89 E.01239
G1 X114.374 Y91.691 E.81179
G1 X114.033 Y91.888 E.01239
G1 X132.232 Y110.087 E.81179
G1 X131.892 Y110.283 E.01239
G1 X113.693 Y92.084 E.81179
G1 X113.353 Y92.28 E.01239
M73 P4 R46
M73 Q4 S47
G1 X131.552 Y110.479 E.81179
G1 X131.212 Y110.676 E.01239
G1 X113.013 Y92.477 E.81179
G1 X112.673 Y92.673 E.01239
G1 X130.872 Y110.872 E.81179
G1 X130.532 Y111.068 E.01239
G1 X112.333 Y92.869 E.81179
G1 X111.993 Y93.066 E.01239
M73 Q4 S46
G1 X130.192 Y111.265 E.81179
G1 X129.852 Y111.461 E.01239
G1 X111.653 Y93.262 E.81179
G1 X111.313 Y93.459 E.01239
G1 X129.512 Y111.657 E.81179
G1 X129.172 Y111.854 E.01239
G1 X110.973 Y93.655 E.81179
G1 X110.632 Y93.851 E.01239
G1 X128.831 Y112.05 E.81179
G1 X128.491 Y112.247 E.01239
G1 X110.292 Y94.048 E.81179
G1 X109.952 Y94.244 E.01239
G1 X128.151 Y112.443 E.81179
G1 X127.811 Y112.639 E.01239
G1 X109.612 Y94.44 E.81179
G1 X109.272 Y94.637 E.01239
G1 X127.471 Y112.836 E.81179
G1 X127.131 Y113.032 E.01239
G1 X108.932 Y94.833 E.81179
G1 X108.592 Y95.029 E.01239
G1 X126.791 Y113.228 E.81179
G1 X126.451 Y113.425 E.01239
G1 X108.252 Y95.226 E.81179
G1 X107.912 Y95.422 E.01239
G1 X126.111 Y113.621 E.81179
G1 X125.771 Y113.817 E.01239
G1 X107.572 Y95.618 E.81179
G1 X107.231 Y95.815 E.01239
G1 X125.43 Y114.014 E.81179
G1 X125.09 Y114.21 E.01239
G1 X106.891 Y96.011 E.81179
G1 X106.551 Y96.208 E.01239
G1 X124.75 Y114.406 E.81179
G1 X124.41 Y114.603 E.01239
G1 X106.211 Y96.404 E.81179
G1 X105.871 Y96.6 E.01239
M73 P5 R46
M73 Q5 S46
G1 X124.07 Y114.799 E.81179
G1 X123.73 Y114.996 E.01239
G1 X105.531 Y96.797 E.81179
G1 X105.191 Y96.993 E.01239
G1 X123.39 Y115.192 E.81179
G1 X123.05 Y115.388 E.01239
G1 X104.851 Y97.189 E.81179
G1 X104.511 Y97.386 E.01239
G1 X122.71 Y115.585 E.81179
G1 X122.37 Y115.781 E.01239
G1 X104.171 Y97.582 E.81179
G1 X103.83 Y97.778 E.01239
G1 X122.029 Y115.977 E.81179
G1 X121.689 Y116.174 E.01239
G1 X103.49 Y97.975 E.81179
G1 X103.15 Y98.171 E.01239
G1 X121.349 Y116.37 E.81179
G1 X121.009 Y116.566 E.01239
G1 X102.81 Y98.367 E.81179
G1 X102.47 Y98.564 E.01239
G1 X120.669 Y116.763 E.81179
G1 X120.329 Y116.959 E.01239
G1 X102.13 Y98.76 E.81179
G1 X101.79 Y98.956 E.01239
G1 X119.989 Y117.155 E.81179
G1 X119.649 Y117.352 E.01239
G1 X101.45 Y99.153 E.81179
G1 X101.11 Y99.349 E.01239
G1 X119.309 Y117.548 E.81179
G1 X118.969 Y117.745 E.01239
G1 X100.77 Y99.546 E.81179
G1 X100.429 Y99.742 E.01239
G1 X118.628 Y117.941 E.81179
G1 X118.288 Y118.137 E.01239
G1 X100.089 Y99.938 E.81179
G1 X99.749 Y100.135 E.01239
M73 P5 R45
G1 X117.948 Y118.334 E.81179
G1 X117.608 Y118.53 E.01239
G1 X99.628 Y100.55 E.80202
G1 X99.628 Y101.087 E.01692
G1 X117.268 Y118.726 E.78685
G1 X116.928 Y118.923 E.01239
G1 X99.628 Y101.623 E.77168
G1 X99.628 Y102.16 E.01692
G1 X116.588 Y119.119 E.75651
G1 X116.248 Y119.315 E.01239
M73 P6 R45
M73 Q6 S46
G1 X99.628 Y102.696 E.74133
G1 X99.628 Y103.232 E.01692
G1 X115.908 Y119.512 E.72616
G1 X115.568 Y119.708 E.01239
G1 X99.628 Y103.769 E.71099
G1 X99.628 Y104.305 E.01692
G1 X115.227 Y119.904 E.69582
G1 X114.887 Y120.101 E.01239
G1 X99.628 Y104.842 E.68065
G1 X99.628 Y105.378 E.01692
M73 Q6 S45
G1 X114.547 Y120.297 E.66548
G1 X114.207 Y120.494 E.01239
G1 X99.628 Y105.915 E.65031
G1 X99.628 Y106.451 E.01692
G1 X113.867 Y120.69 E.63514
G1 X113.527 Y120.886 E.01239
G1 X99.628 Y106.988 E.61997
G1 X99.628 Y107.524 E.01692
G1 X113.187 Y121.083 E.6048
G1 X112.847 Y121.279 E.01239
G1 X99.628 Y108.061 E.58963
G1 X99.628 Y108.597 E.01692
G1 X112.507 Y121.475 E.57446
G1 X112.167 Y121.672 E.01239
G1 X99.628 Y109.133 E.55929
G1 X99.628 Y109.67 E.01692
G1 X111.826 Y121.868 E.54412
G1 X111.772 Y121.9 E.00199
G1 X111.322 Y121.9 E.0142
G1 X99.628 Y110.206 E.52159
G1 X99.628 Y110.743 E.01692
G1 X110.785 Y121.9 E.49766
G1 X110.249 Y121.9 E.01692
G1 X99.628 Y111.279 E.47374
G1 X99.628 Y111.816 E.01692
G1 X109.712 Y121.9 E.44981
G1 X109.176 Y121.9 E.01692
G1 X99.628 Y112.352 E.42588
G1 X99.628 Y112.889 E.01692
G1 X108.639 Y121.9 E.40195
G1 X108.103 Y121.9 E.01692
G1 X99.628 Y113.425 E.37802
G1 X99.628 Y113.962 E.01692
G1 X107.566 Y121.9 E.35409
G1 X107.03 Y121.9 E.01692
G1 X99.628 Y114.498 E.33016
G1 X99.628 Y115.034 E.01692
G1 X106.493 Y121.9 E.30623
G1 X105.957 Y121.9 E.01692
G1 X99.628 Y115.571 E.2823
G1 X99.628 Y116.107 E.01692
G1 X105.421 Y121.9 E.25837
G1 X104.884 Y121.9 E.01692
G1 X99.628 Y116.644 E.23444
G1 X99.628 Y117.18 E.01692
G1 X104.348 Y121.9 E.21051
G1 X103.811 Y121.9 E.01692
G1 X99.628 Y117.717 E.18658
G1 X99.628 Y118.253 E.01692
G1 X103.275 Y121.9 E.16265
G1 X102.738 Y121.9 E.01692
G1 X99.628 Y118.79 E.13872
G1 X99.628 Y119.326 E.01692
G1 X102.202 Y121.9 E.11479
G1 X101.665 Y121.9 E.01692
G1 X99.628 Y119.863 E.09086
G1 X99.628 Y120.399 E.01692
G1 X101.129 Y121.9 E.06693
G1 X100.592 Y121.9 E.01692
G1 X99.628 Y120.935 E.043
G1 X99.628 Y121.472 E.01692
G1 X100.226 Y122.069 E.02664
M204 S1000
; stop printing object motorHolder.stl id:0 copy 0
M106 S84.15
;LAYER_CHANGE
;Z:0.4
;HEIGHT:0.2
;BEFORE_LAYER_CHANGE
G92 E0.0
;0.4


;WIPE_START
G1 F8640
G1 X99.628 Y121.472 E-.19505
G1 X99.628 Y120.935 E-.12387
G1 X100.592 Y121.9 E-.31482
G1 X101.129 Y121.9 E-.12387
G1 X101.122 Y121.892 E-.00239
;WIPE_END
G1 E-.04 F2100
G1 Z.6 F720
;AFTER_LAYER_CHANGE
;0.4
M104 S210 ; set temperature
G1 X101.122 Y125.347 F10800
G1 Z.4 F720
G1 E.8 F2100
;TYPE:Skirt/Brim
;WIDTH:0.42
G1 F3000
G1 X98.558 Y125.347 E.08036
G1 X97.251 Y124.955 E.04278
G1 X96.375 Y123.909 E.04278
G1 X96.181 Y122.969 E.03008
G1 X96.181 Y99.587 E.73315
G1 X96.573 Y98.28 E.04278
G1 X97.37 Y97.528 E.03434
G1 X119.118 Y84.972 E.78739
G1 X120.306 Y84.653 E.03858
G1 X151.442 Y84.653 E.97622
G1 X152.749 Y85.045 E.04278
G1 X153.625 Y86.091 E.04278
G1 X153.819 Y87.031 E.03008
G1 X153.819 Y110.413 E.73315
G1 X153.427 Y111.72 E.04278
G1 X152.164 Y112.678 E.04971
G1 X112.78 Y125.234 E1.29607
G1 X112.058 Y125.347 E.02291
M73 P7 R45
M73 Q7 S45
G1 X101.182 Y125.347 E.34104
; printing object motorHolder.stl id:0 copy 0
;WIPE_START
G1 F8640
G1 X98.558 Y125.347 E-.60568
G1 X97.918 Y125.155 E-.15432
;WIPE_END
G1 E-.04 F2100
G1 Z.8 F720
G1 X150.809 Y109.781 F10800
G1 Z.4 F720
G1 E.8 F2100
M204 S800
;TYPE:Perimeter
;WIDTH:0.449999
G1 F2700
G1 X133.76 Y109.783 E.57711
G1 X133.495 Y109.863 E.00936
G1 X111.889 Y122.337 E.84449
G1 X99.191 Y122.337 E.42983
G1 X99.191 Y99.952 E.75773
G1 X120.476 Y87.663 E.83194
G1 X150.809 Y87.663 E1.02676
G1 X150.809 Y109.721 E.74665
M204 S1000
G1 X151.217 Y110.188 F10800
M204 S800
;TYPE:External perimeter
G1 F1500
G1 X133.801 Y110.188 E.5895
G1 X133.699 Y110.215 E.00357
G1 X111.998 Y122.744 E.84818
G1 X98.783 Y122.744 E.4473
G1 X98.783 Y99.717 E.77946
G1 X120.367 Y87.256 E.84359
G1 X151.217 Y87.256 E1.04423
G1 X151.217 Y110.128 E.77421
M204 S1000
G1 X150.826 Y110.104 F10800
;WIPE_START
G1 F8640
G1 X147.925 Y110.14 E-.76
;WIPE_END
G1 E-.04 F2100
G1 Z.8 F720
G1 X150.687 Y108.835 F10800
G1 Z.4 F720
G1 E.8 F2100
;TYPE:Solid infill
;WIDTH:0.450402
G1 F4800
G1 X150.047 Y109.476 E.03069
G1 X149.471 Y109.476 E.01953
G1 X150.504 Y108.442 E.04953
G1 X150.504 Y107.866 E.01953
G1 X148.894 Y109.476 E.07714
G1 X148.318 Y109.476 E.01953
G1 X150.504 Y107.29 E.10476
G1 X150.504 Y106.713 E.01953
G1 X147.742 Y109.476 E.13237
G1 X147.165 Y109.476 E.01953
G1 X150.504 Y106.137 E.15998
G1 X150.504 Y105.561 E.01953
G1 X146.589 Y109.476 E.18759
G1 X146.013 Y109.476 E.01953
G1 X150.504 Y104.985 E.21521
G1 X150.504 Y104.408 E.01953
G1 X145.437 Y109.476 E.24282
G1 X144.86 Y109.476 E.01953
G1 X150.504 Y103.832 E.27043
G1 X150.504 Y103.256 E.01953
G1 X144.284 Y109.476 E.29804
G1 X143.708 Y109.476 E.01953
G1 X150.504 Y102.68 E.32566
G1 X150.504 Y102.103 E.01953
G1 X143.132 Y109.476 E.35327
G1 X142.555 Y109.476 E.01953
G1 X150.504 Y101.527 E.38088
G1 X150.504 Y100.951 E.01953
G1 X141.979 Y109.476 E.4085
G1 X141.403 Y109.476 E.01953
G1 X150.504 Y100.374 E.43611
G1 X150.504 Y99.798 E.01953
G1 X140.827 Y109.476 E.46372
G1 X140.25 Y109.476 E.01953
G1 X150.504 Y99.222 E.49133
G1 X150.504 Y98.646 E.01953
G1 X139.674 Y109.476 E.51895
G1 X139.098 Y109.476 E.01953
G1 X150.504 Y98.069 E.54656
G1 X150.504 Y97.493 E.01953
G1 X138.521 Y109.476 E.57417
G1 X137.945 Y109.476 E.01953
G1 X150.504 Y96.917 E.60179
G1 X150.504 Y96.341 E.01953
G1 X137.369 Y109.476 E.6294
G1 X136.793 Y109.476 E.01953
G1 X150.504 Y95.764 E.65701
G1 X150.504 Y95.188 E.01953
G1 X136.216 Y109.476 E.68462
G1 X135.64 Y109.476 E.01953
G1 X150.504 Y94.612 E.71224
G1 X150.504 Y94.036 E.01953
G1 X135.064 Y109.476 E.73985
G1 X134.488 Y109.476 E.01953
G1 X150.504 Y93.459 E.76746
G1 X150.504 Y92.883 E.01953
G1 X133.911 Y109.476 E.79508
G1 X133.56 Y109.507 E.01196
G1 X133.348 Y109.595 E.00775
