; generated by PrusaSlicer 2.5.0+MacOS-arm64 on 2023-06-21 at 12:48:20 UTC


;
;
; 

; external perimeters extrusion width = 0.45mm
; perimeters extrusion width = 0.45mm
; infill extrusion width = 0.45mm
; solid infill extrusion width = 0.45mm
; top infill extrusion width = 0.40mm
; first layer extrusion width = 0.42mm

M73 P0 R73
M73 Q0 S74
M201 X1000 Y1000 Z200 E5000 ; sets maximum accelerations, mm/sec^2
M203 X200 Y200 Z12 E120 ; sets maximum feedrates, mm / sec
M204 P1250 R1250 T1250 ; sets acceleration (P, T) and retract acceleration (R), mm/sec^2
M205 X8.00 Y8.00 Z0.40 E4.50 ; sets the jerk limits, mm/sec
M205 S0 T0 ; sets the minimum extruding and travel feed rate, mm/sec
M107
;TYPE:Custom
M862.3 P "MK3S" ; printer model check
M862.1 P0.4 ; nozzle diameter check
M115 U3.12.1 ; tell printer latest fw version
G90 ; use absolute coordinates
M83 ; extruder relative mode
M104 S240 ; set extruder temp
M140 S85 ; set bed temp
M190 S85 ; wait for bed temp
M109 S240 ; wait for extruder temp
G28 W ; home all without mesh bed level
G80 ; mesh bed leveling

G1 Z0.2 F720
G1 Y-3 F1000 ; go outside print area
G92 E0
G1 X60 E9 F1000 ; intro line
G1 X100 E12.5 F1000 ; intro line

G92 E0
M221 S95

; Don't change E values below. Excessive value can damage the printer.
M907 E430 ; set extruder motor current
G21 ; set units to millimeters
G90 ; use absolute coordinates
M83 ; use relative distances for extrusion
M900 K0.08 ; Filament gcode LA 1.5
M900 K45 ; Filament gcode LA 1.0
M107
;LAYER_CHANGE
;Z:0.2
;HEIGHT:0.2
;BEFORE_LAYER_CHANGE
G92 E0.0
;0.2


G1 E-1 F2100
G1 Z.2 F720
;AFTER_LAYER_CHANGE
;0.2
G1 Z.4
G1 X96.554 Y75.007 F10800
G1 Z.2 F720
G1 E1 F2100
M204 S800
;TYPE:Skirt/Brim
;WIDTH:0.42
G1 F1200
G1 X97.6 Y74.131 E.04278
G1 X98.485 Y73.938 E.0284
G1 X131.461 Y73.18 E1.03421
G1 X151.461 Y73.18 E.62709
G1 X152.768 Y73.572 E.04278
G1 X153.644 Y74.618 E.04278
G1 X153.838 Y75.557 E.03008
G1 X153.838 Y110.057 E1.08172
G1 X153.411 Y111.416 E.04464
G1 X136.429 Y135.801 E.93173
G1 X135.361 Y136.65 E.04278
G1 X134.478 Y136.82 E.02817
G1 X111.096 Y136.82 E.73315
G1 X109.789 Y136.428 E.04278
G1 X109.037 Y135.631 E.03434
G1 X96.481 Y113.883 E.78739
G1 X96.162 Y112.695 E.03858
G1 X96.162 Y76.314 E1.14069
G1 X96.537 Y75.065 E.0409
M204 S1000
; printing object parts.stl id:0 copy 0
;WIPE_START
G1 F8640
G1 X97.6 Y74.131 E-.32671
G1 X98.485 Y73.938 E-.20918
G1 X100.278 Y73.896 E-.41411
;WIPE_END
G1 E-.05 F2100
G1 Z.4 F720
G1 X121.153 Y99.348 F10800
G1 Z.2 F720
G1 E1 F2100
M204 S800
;TYPE:Perimeter
;WIDTH:0.419999
G1 F1200
G1 X121.211 Y99.537 E.0062
G1 X133.691 Y121.154 E.78263
G1 X133.691 Y133.656 E.39199
G1 X111.55 Y133.656 E.69422
G1 X99.326 Y112.484 E.76652
G1 X99.326 Y77.101 E1.1094
G1 X121.135 Y77.101 E.68379
G1 X121.136 Y99.29 E.69572
M204 S1000
G1 X121.512 Y99.224 F10800
M204 S800
;TYPE:External perimeter
M73 Q0 S73
G1 F1200
G1 X121.537 Y99.348 E.00398
G1 X134.068 Y121.053 E.7858
G1 X134.068 Y134.033 E.40698
G1 X111.332 Y134.033 E.71287
G1 X98.949 Y112.585 E.77652
G1 X98.949 Y76.724 E1.12439
G1 X121.512 Y76.724 E.70744
G1 X121.512 Y99.164 E.70358
M204 S1000
G1 X121.435 Y99.325 F10800
;WIPE_START
G1 F8640
G1 X121.537 Y99.348 E-.04298
G1 X123.501 Y102.75 E-.90702
;WIPE_END
G1 E-.05 F2100
G1 Z.4 F720
G1 X121.022 Y77.979 F10800
G1 Z.2 F720
G1 E1 F2100
M204 S800
;TYPE:Solid infill
;WIDTH:0.421206
G1 F1200
G1 X120.427 Y77.384 E.02647
G1 X119.892 Y77.384 E.01683
G1 X120.852 Y78.344 E.04272
G1 X120.852 Y78.879 E.01683
G1 X119.357 Y77.384 E.06652
G1 X118.822 Y77.384 E.01683
G1 X120.852 Y79.414 E.09032
G1 X120.852 Y79.949 E.01683
G1 X118.287 Y77.384 E.11412
G1 X117.752 Y77.384 E.01683
G1 X120.852 Y80.484 E.13791
G1 X120.852 Y81.019 E.01683
G1 X117.217 Y77.384 E.16171
G1 X116.682 Y77.384 E.01683
G1 X120.852 Y81.554 E.18551
G1 X120.852 Y82.089 E.01683
G1 X116.147 Y77.384 E.20931
G1 X115.612 Y77.384 E.01683
G1 X120.852 Y82.624 E.2331
G1 X120.852 Y83.159 E.01683
G1 X115.077 Y77.384 E.2569
G1 X114.542 Y77.384 E.01683
G1 X120.852 Y83.694 E.2807
G1 X120.852 Y84.229 E.01683
G1 X114.007 Y77.384 E.3045
G1 X113.472 Y77.384 E.01683
G1 X120.852 Y84.764 E.3283
G1 X120.852 Y85.299 E.01683
G1 X112.937 Y77.384 E.35209
G1 X112.402 Y77.384 E.01683
G1 X120.852 Y85.834 E.37589
G1 X120.852 Y86.369 E.01683
G1 X111.867 Y77.384 E.39969
G1 X111.332 Y77.384 E.01683
G1 X120.852 Y86.904 E.42349
G1 X120.852 Y87.439 E.01683
G1 X110.797 Y77.384 E.44728
G1 X110.262 Y77.384 E.01683
G1 X120.852 Y87.974 E.47108
G1 X120.852 Y88.509 E.01683
M73 Q1 S73
G1 X109.727 Y77.384 E.49488
G1 X109.192 Y77.384 E.01683
M73 P1 R73
G1 X120.852 Y89.044 E.51868
G1 X120.852 Y89.579 E.01683
G1 X108.657 Y77.384 E.54247
G1 X108.122 Y77.384 E.01683
G1 X120.852 Y90.114 E.56627
G1 X120.852 Y90.649 E.01683
G1 X107.587 Y77.384 E.59007
G1 X107.052 Y77.384 E.01683
G1 X120.852 Y91.184 E.61387
G1 X120.852 Y91.719 E.01683
G1 X106.517 Y77.384 E.63767
G1 X105.982 Y77.384 E.01683
G1 X120.852 Y92.254 E.66146
G1 X120.852 Y92.789 E.01683
G1 X105.447 Y77.384 E.68526
G1 X104.912 Y77.384 E.01683
G1 X120.852 Y93.324 E.70906
G1 X120.852 Y93.859 E.01683
G1 X104.377 Y77.384 E.73286
G1 X103.842 Y77.384 E.01683
G1 X120.852 Y94.394 E.75665
G1 X120.852 Y94.929 E.01683
G1 X103.307 Y77.384 E.78045
G1 X102.773 Y77.384 E.01683
G1 X120.852 Y95.464 E.80425
G1 X120.852 Y95.999 E.01683
M73 P1 R72
G1 X102.238 Y77.384 E.82805
G1 X101.703 Y77.384 E.01683
G1 X120.852 Y96.534 E.85184
G1 X120.852 Y97.069 E.01683
G1 X101.168 Y77.384 E.87564
G1 X100.633 Y77.384 E.01683
G1 X120.852 Y97.604 E.89944
G1 X120.852 Y98.139 E.01683
G1 X100.098 Y77.384 E.92324
G1 X99.609 Y77.384 E.01536
G1 X99.609 Y77.431 E.00146
G1 X120.852 Y98.674 E.94496
G1 X120.852 Y99.209 E.01683
G1 X99.609 Y77.966 E.94496
G1 X99.609 Y78.5 E.01683
G1 X121.21 Y100.102 E.96089
G1 X121.941 Y101.367 E.04597
G1 X99.609 Y79.035 E.9934
G1 X99.609 Y79.57 E.01683
G1 X122.672 Y102.633 E1.02591
G1 X123.403 Y103.899 E.04597
G1 X99.609 Y80.105 E1.05842
G1 X99.609 Y80.64 E.01683
G1 X124.133 Y105.165 E1.09092
G1 X124.864 Y106.43 E.04597
G1 X99.609 Y81.175 E1.12343
G1 X99.609 Y81.71 E.01683
G1 X125.595 Y107.696 E1.15594
G1 X126.326 Y108.962 E.04597
G1 X99.609 Y82.245 E1.18845
G1 X99.609 Y82.78 E.01683
G1 X127.057 Y110.228 E1.22096
G1 X127.787 Y111.494 E.04597
M73 Q1 S72
G1 X99.609 Y83.315 E1.25347
G1 X99.609 Y83.85 E.01683
G1 X128.518 Y112.759 E1.28598
G1 X129.249 Y114.025 E.04597
M73 P2 R72
M73 Q2 S72
G1 X99.609 Y84.385 E1.31849
G1 X99.609 Y84.92 E.01683
G1 X129.98 Y115.291 E1.35099
G1 X130.711 Y116.557 E.04597
G1 X99.609 Y85.455 E1.3835
G1 X99.609 Y85.99 E.01683
G1 X131.441 Y117.822 E1.41601
G1 X132.172 Y119.088 E.04597
G1 X99.609 Y86.525 E1.44852
G1 X99.609 Y87.06 E.01683
G1 X132.903 Y120.354 E1.48103
G1 X133.409 Y121.229 E.0318
G1 X133.409 Y121.394 E.00519
G1 X99.609 Y87.595 E1.50351
G1 X99.609 Y88.13 E.01683
G1 X133.409 Y121.929 E1.50351
G1 X133.409 Y122.464 E.01683
G1 X99.609 Y88.665 E1.50351
G1 X99.609 Y89.2 E.01683
G1 X133.409 Y122.999 E1.50351
G1 X133.409 Y123.534 E.01683
G1 X99.609 Y89.735 E1.50351
G1 X99.609 Y90.27 E.01683
G1 X133.409 Y124.069 E1.50351
G1 X133.409 Y124.604 E.01683
G1 X99.609 Y90.805 E1.50351
G1 X99.609 Y91.34 E.01683
M73 P2 R71
G1 X133.409 Y125.139 E1.50351
G1 X133.409 Y125.674 E.01683
G1 X99.609 Y91.875 E1.50351
G1 X99.609 Y92.41 E.01683
G1 X133.409 Y126.209 E1.50351
G1 X133.409 Y126.744 E.01683
G1 X99.609 Y92.945 E1.50351
G1 X99.609 Y93.48 E.01683
G1 X133.409 Y127.279 E1.50351
G1 X133.409 Y127.814 E.01683
G1 X99.609 Y94.015 E1.50351
G1 X99.609 Y94.55 E.01683
M73 P3 R71
M73 Q3 S72
G1 X133.409 Y128.349 E1.50351
G1 X133.409 Y128.884 E.01683
G1 X99.609 Y95.085 E1.50351
G1 X99.609 Y95.62 E.01683
G1 X133.409 Y129.419 E1.50351
G1 X133.409 Y129.954 E.01683
G1 X99.609 Y96.155 E1.50351
G1 X99.609 Y96.69 E.01683
G1 X133.409 Y130.489 E1.50351
G1 X133.409 Y131.024 E.01683
M73 Q3 S71
G1 X99.609 Y97.225 E1.50351
G1 X99.609 Y97.76 E.01683
G1 X133.409 Y131.559 E1.50351
G1 X133.409 Y132.094 E.01683
G1 X99.609 Y98.295 E1.50351
G1 X99.609 Y98.83 E.01683
G1 X133.409 Y132.629 E1.50351
G1 X133.409 Y133.164 E.01683
G1 X99.609 Y99.365 E1.50351
G1 X99.609 Y99.9 E.01683
G1 X133.083 Y133.373 E1.48901
G1 X132.548 Y133.373 E.01683
G1 X99.609 Y100.435 E1.46521
G1 X99.609 Y100.97 E.01683
G1 X132.013 Y133.373 E1.44142
G1 X131.478 Y133.373 E.01683
G1 X99.609 Y101.505 E1.41762
G1 X99.609 Y102.039 E.01683
G1 X130.943 Y133.373 E1.39382
G1 X130.408 Y133.373 E.01683
G1 X99.609 Y102.574 E1.37002
G1 X99.609 Y103.109 E.01683
G1 X129.873 Y133.373 E1.34622
G1 X129.338 Y133.373 E.01683
G1 X99.609 Y103.644 E1.32243
G1 X99.609 Y104.179 E.01683
M73 P4 R71
G1 X128.803 Y133.373 E1.29863
G1 X128.268 Y133.373 E.01683
M73 P4 R70
M73 Q4 S71
G1 X99.609 Y104.714 E1.27483
G1 X99.609 Y105.249 E.01683
G1 X127.733 Y133.373 E1.25103
G1 X127.198 Y133.373 E.01683
G1 X99.609 Y105.784 E1.22724
G1 X99.609 Y106.319 E.01683
G1 X126.663 Y133.373 E1.20344
G1 X126.128 Y133.373 E.01683
G1 X99.609 Y106.854 E1.17964
G1 X99.609 Y107.389 E.01683
G1 X125.593 Y133.373 E1.15584
G1 X125.058 Y133.373 E.01683
G1 X99.609 Y107.924 E1.13205
G1 X99.609 Y108.459 E.01683
G1 X124.523 Y133.373 E1.10825
G1 X123.988 Y133.373 E.01683
G1 X99.609 Y108.994 E1.08445
G1 X99.609 Y109.529 E.01683
G1 X123.453 Y133.373 E1.06065
G1 X122.918 Y133.373 E.01683
G1 X99.609 Y110.064 E1.03685
G1 X99.609 Y110.599 E.01683
G1 X122.383 Y133.373 E1.01306
G1 X121.848 Y133.373 E.01683
G1 X99.609 Y111.134 E.98926
G1 X99.609 Y111.669 E.01683
G1 X121.313 Y133.373 E.96546
G1 X120.778 Y133.373 E.01683
G1 X99.609 Y112.204 E.94166
G1 X99.609 Y112.408 E.00642
M73 Q4 S70
G1 X100.061 Y113.191 E.02845
G1 X120.243 Y133.373 E.89775
G1 X119.708 Y133.373 E.01683
G1 X100.792 Y114.457 E.84145
G1 X101.523 Y115.723 E.04597
G1 X119.173 Y133.373 E.78514
G1 X118.638 Y133.373 E.01683
G1 X102.254 Y116.989 E.72883
G1 X102.985 Y118.254 E.04597
G1 X118.103 Y133.373 E.67253
G1 X117.568 Y133.373 E.01683
G1 X103.715 Y119.52 E.61622
G1 X104.446 Y120.786 E.04597
G1 X117.033 Y133.373 E.55991
G1 X116.498 Y133.373 E.01683
G1 X105.177 Y122.052 E.50361
G1 X105.908 Y123.317 E.04597
G1 X115.963 Y133.373 E.4473
G1 X115.428 Y133.373 E.01683
G1 X106.639 Y124.583 E.391
G1 X107.369 Y125.849 E.04597
G1 X114.893 Y133.373 E.33469
G1 X114.358 Y133.373 E.01683
G1 X108.1 Y127.115 E.27838
G1 X108.831 Y128.381 E.04597
G1 X113.823 Y133.373 E.22208
G1 X113.288 Y133.373 E.01683
G1 X109.562 Y129.646 E.16577
G1 X110.293 Y130.912 E.04597
G1 X112.753 Y133.373 E.10946
G1 X112.218 Y133.373 E.01683
G1 X110.56 Y131.714 E.07378
M204 S1000
;WIPE_START
G1 F8640
G1 X112.218 Y133.373 E-.54161
G1 X112.753 Y133.373 E-.12353
G1 X111.881 Y132.501 E-.28486
;WIPE_END
G1 E-.05 F2100
G1 Z.4 F720
G1 X139.501 Y115.763 F10800
G1 Z.2 F720
G1 E1 F2100
M204 S800
;TYPE:Perimeter
;WIDTH:0.44959
G1 F1200
G1 X139.632 Y115.133 E.02177
G1 X139.92 Y114.581 E.02107
G1 X140.236 Y114.233 E.01588
G1 X140.757 Y113.891 E.02108
G1 X141.352 Y113.705 E.02109
G1 X141.82 Y113.681 E.01583
G1 X142.432 Y113.809 E.02113
G1 X142.984 Y114.098 E.02108
G1 X143.332 Y114.413 E.01588
G1 X143.674 Y114.935 E.02108
G1 X143.861 Y115.53 E.02109
G1 X143.884 Y115.999 E.01588
G1 X143.756 Y116.609 E.02109
G1 X143.468 Y117.162 E.02107
G1 X143.152 Y117.51 E.01588
G1 X142.631 Y117.851 E.02108
G1 X142.036 Y118.038 E.02108
G1 X141.566 Y118.061 E.01588
G1 X140.956 Y117.934 E.02109
G1 X140.403 Y117.645 E.02108
G1 X140.055 Y117.329 E.01588
G1 X139.714 Y116.808 E.02108
G1 X139.527 Y116.213 E.02109
G1 X139.505 Y115.823 E.01319
M204 S1000
G1 X139.109 Y115.737 F10800
M204 S800
;TYPE:External perimeter
;WIDTH:0.419999
G1 F1200
G1 X139.182 Y115.242 E.01567
G1 X139.354 Y114.764 E.01592
G1 X139.614 Y114.329 E.01591
G1 X139.955 Y113.953 E.01592
G1 X140.363 Y113.651 E.01591
G1 X140.822 Y113.434 E.01591
G1 X141.314 Y113.31 E.01591
G1 X141.82 Y113.285 E.01587
G1 X142.323 Y113.36 E.01596
G1 X142.801 Y113.531 E.01591
G1 X143.236 Y113.792 E.01592
G1 X143.612 Y114.133 E.01591
G1 X143.915 Y114.54 E.01591
G1 X144.132 Y114.999 E.01591
G1 X144.255 Y115.491 E.01591
G1 X144.28 Y115.998 E.01591
G1 X144.205 Y116.5 E.01591
G1 X144.034 Y116.978 E.01591
G1 X143.773 Y117.413 E.01591
G1 X143.433 Y117.79 E.01592
G1 X143.025 Y118.092 E.01591
G1 X142.566 Y118.309 E.01591
G1 X142.074 Y118.432 E.01591
G1 X141.567 Y118.457 E.01592
M73 P5 R70
G1 X141.065 Y118.383 E.01591
G1 X140.587 Y118.212 E.01591
G1 X140.152 Y117.951 E.01591
G1 X139.776 Y117.61 E.01592
G1 X139.473 Y117.202 E.01591
G1 X139.256 Y116.743 E.01591
G1 X139.133 Y116.251 E.01591
G1 X139.111 Y115.797 E.01427
M204 S1000
G1 X139.465 Y115.554 F10800
G1 X139.95 Y115.562
M204 S800
;TYPE:Perimeter
;WIDTH:0.44959
G1 F1200
G1 X140.003 Y115.266 E.01017
G1 X140.269 Y114.79 E.01844
G1 X140.478 Y114.559 E.01052
G1 X140.926 Y114.248 E.01845
G1 X141.451 Y114.099 E.01845
G1 X141.761 Y114.084 E.01047
G1 X142.299 Y114.181 E.0185
G1 X142.775 Y114.447 E.01845
G1 X143.006 Y114.655 E.01052
G1 X143.317 Y115.103 E.01845
G1 X143.466 Y115.628 E.01845
G1 X143.481 Y115.939 E.01052
G1 X143.385 Y116.476 E.01846
G1 X143.119 Y116.953 E.01844
G1 X142.91 Y117.183 E.01052
G1 X142.462 Y117.494 E.01845
G1 X141.937 Y117.643 E.01845
G1 X141.626 Y117.659 E.01052
G1 X141.089 Y117.562 E.01846
G1 X140.613 Y117.296 E.01845
G1 X140.382 Y117.087 E.01052
G1 X140.071 Y116.639 E.01845
G1 X139.913 Y116.072 E.0199
G1 X139.907 Y115.803 E.00908
G1 X139.939 Y115.621 E.00626
M204 S1000
G1 X140.301 Y115.899 F10800
M204 S800
;TYPE:External perimeter
;WIDTH:0.419999
G1 F1200
G1 X140.351 Y115.475 E.01338
G1 X140.405 Y115.326 E.00495
G1 X140.677 Y114.9 E.01586
G1 X141.091 Y114.597 E.01609
G1 X141.588 Y114.469 E.01609
G1 X142.09 Y114.529 E.01586
G1 X142.239 Y114.582 E.00495
M73 Q5 S70
G1 X142.663 Y114.851 E.01573
G1 X142.968 Y115.268 E.01623
G1 X143.096 Y115.765 E.01609
G1 X143.036 Y116.268 E.01586
G1 X142.983 Y116.416 E.00495
G1 X142.714 Y116.84 E.01574
G1 X142.297 Y117.145 E.01622
G1 X141.8 Y117.274 E.01609
G1 X141.298 Y117.214 E.01585
G1 X141.149 Y117.161 E.00495
G1 X140.723 Y116.888 E.01586
G1 X140.42 Y116.474 E.01609
G1 X140.294 Y115.958 E.01665
M204 S1000
G1 X139.944 Y115.718 F10800
;WIPE_START
G1 F8640
G1 X140.351 Y115.475 E-.11238
G1 X140.405 Y115.326 E-.03648
G1 X140.677 Y114.9 E-.11681
G1 X141.091 Y114.597 E-.11849
G1 X141.588 Y114.469 E-.11851
G1 X142.09 Y114.529 E-.11678
G1 X142.239 Y114.582 E-.03644
G1 X142.663 Y114.851 E-.11587
G1 X142.968 Y115.268 E-.11949
G1 X143.032 Y115.515 E-.05875
;WIPE_END
G1 E-.05 F2100
G1 Z.4 F720
G1 X132.248 Y109.27 F10800
G1 Z.2 F720
G1 E1 F2100
M204 S800
;TYPE:Perimeter
G1 F1200
G1 X132.248 Y103.057 E.1948
;WIDTH:0.444365
G1 X132.248 Y78.957 E.80446
;WIDTH:0.419999
G1 X132.248 Y77.757 E.03763
G1 X132.248 Y76.344 E.0443
G1 X150.674 Y76.344 E.57773
G1 X150.674 Y78.957 E.08193
;WIDTH:0.444366
G1 X150.661 Y102.279 E.77848
;WIDTH:0.450264
G1 X150.674 Y103.057 E.02637
;WIDTH:0.419999
G1 X150.674 Y109.27 E.1948
G1 X132.308 Y109.27 E.57585
M204 S1000
G1 X131.871 Y109.647 F10800
M204 S800
;TYPE:External perimeter
G1 F1200
G1 X131.871 Y75.967 E1.05601
G1 X151.051 Y75.967 E.60137
G1 X151.051 Y109.647 E1.05601
G1 X131.931 Y109.647 E.59949
M204 S1000
G1 X131.939 Y109.253 F10800
;WIPE_START
G1 F8640
G1 X131.923 Y105.533 E-.95
;WIPE_END
G1 E-.05 F2100
G1 Z.4 F720
G1 X149.778 Y79.202 F10800
G1 Z.2 F720
G1 E1 F2100
M204 S800
;TYPE:Perimeter
G1 F1200
G1 X150.022 Y79.283 E.00805
;WIDTH:0.444366
G1 X150.26 Y79.736 E.01707
G1 X150.26 Y102.279 E.75249
;WIDTH:0.450264
G1 X150.254 Y102.379 E.0034
G1 X150.022 Y102.731 E.0143
;WIDTH:0.419999
G1 X149.682 Y102.844 E.01122
G1 X133.239 Y102.844 E.51556
G1 X132.9 Y102.731 E.01122
;WIDTH:0.450265
G1 X132.667 Y102.379 E.0143
G1 X132.661 Y102.279 E.0034
;WIDTH:0.444365
G1 X132.661 Y79.736 E.75249
G1 X132.9 Y79.283 E.01707
;WIDTH:0.419999
G1 X133.239 Y79.17 E.01122
G1 X149.682 Y79.17 E.51556
G1 X149.721 Y79.183 E.00128
M204 S1000
M73 P5 R69
G1 X149.682 Y79.547 F10800
M204 S800
;TYPE:External perimeter
G1 F1200
G1 X149.795 Y79.585 E.00374
G1 X149.871 Y79.736 E.00529
G1 X149.871 Y102.279 E.70682
G1 X149.795 Y102.43 E.00529
G1 X149.682 Y102.467 E.00374
G1 X133.239 Y102.467 E.51556
G1 X133.126 Y102.43 E.00374
G1 X133.051 Y102.279 E.00529
